( pcb2gcode 1.1.5 )
      
M7 ( Coolant on. )

G94 ( Millimeters per minute feed rate. )
G21 ( Units == Millimeters. )

G90 ( Absolute coordinates. )
S20000 ( RPM spindle speed. )
F200.00000 ( Feedrate. )
G64 P0.00000 ( set maximum deviation from commanded toolpath )

M3 ( Spindle on clockwise. )
G04 P0 ( dwell for no time -- G64 should not smooth over this point )
G00 Z5.00000 ( retract )

G00 X27.91460 Y35.84448 ( rapid move to begin. )
G01 Z0.00000
G04 P0 ( dwell for no time -- G64 should not smooth over this point )
X27.91460 Y35.84448
X27.94000 Y35.84448
X27.94000 Y35.81908
X27.96540 Y35.81908
X27.96540 Y35.79368
X27.99080 Y35.79368
X27.99080 Y35.76828
X28.01620 Y35.76828
X28.01620 Y35.74288
X28.04160 Y35.74288
X28.04160 Y35.71748
X28.06700 Y35.71748
X28.06700 Y35.69208
X28.09240 Y35.69208
X28.09240 Y35.66668
X28.11780 Y35.66668
X28.11780 Y35.64128
X28.14320 Y35.64128
X28.14320 Y35.61588
X28.16860 Y35.61588
X28.16860 Y35.59048
X28.19400 Y35.59048
X28.19400 Y35.56508
X28.21940 Y35.56508
X28.21940 Y35.53968
X28.24480 Y35.53968
X28.24480 Y35.51428
X28.27020 Y35.51428
X28.27020 Y35.48888
X28.29560 Y35.48888
X28.29560 Y35.46348
X28.32100 Y35.46348
X28.32100 Y35.43808
X28.34640 Y35.43808
X28.34640 Y35.41268
X28.37180 Y35.41268
X28.37180 Y35.36188
X28.39720 Y35.36188
X28.39720 Y35.31108
X28.42260 Y35.31108
X28.42260 Y31.29788
X28.39720 Y31.29788
X28.39720 Y31.24708
X28.37180 Y31.24708
X28.37180 Y31.19628
X28.34640 Y31.19628
X28.34640 Y31.17088
X28.32100 Y31.17088
X28.32100 Y31.14548
X28.29560 Y31.14548
X28.29560 Y31.12008
X28.27020 Y31.12008
X28.27020 Y31.09468
X28.24480 Y31.09468
X28.24480 Y31.06928
X28.21940 Y31.06928
X28.21940 Y31.04388
X28.19400 Y31.04388
X28.19400 Y31.01848
X28.16860 Y31.01848
X28.16860 Y30.99308
X28.14320 Y30.99308
X28.14320 Y30.96768
X28.11780 Y30.96768
X28.11780 Y30.94228
X28.09240 Y30.94228
X28.09240 Y30.91688
X28.06700 Y30.91688
X28.06700 Y30.89148
X28.04160 Y30.89148
X28.04160 Y30.86608
X28.01620 Y30.86608
X28.01620 Y30.84068
X27.99080 Y30.84068
X27.99080 Y30.81528
X27.96540 Y30.81528
X27.96540 Y30.78988
X27.94000 Y30.78988
X27.94000 Y30.76448
X27.91460 Y30.76448
X27.91460 Y30.73908
X27.88920 Y30.73908
X27.88920 Y30.71368
X27.86380 Y30.71368
X27.86380 Y30.68828
X27.83840 Y30.68828
X27.83840 Y30.66288
X27.81300 Y30.66288
X27.81300 Y30.63748
X27.78760 Y30.63748
X27.78760 Y30.61208
X27.76220 Y30.61208
X27.76220 Y30.58668
X27.73680 Y30.58668
X27.73680 Y30.56128
X27.71140 Y30.56128
X27.71140 Y30.53588
X27.68600 Y30.53588
X27.68600 Y30.51048
X27.66060 Y30.51048
X27.66060 Y30.48508
X27.63520 Y30.48508
X27.63520 Y30.45968
X27.60980 Y30.45968
X27.60980 Y30.43428
X27.55900 Y30.43428
X27.55900 Y30.40888
X27.50820 Y30.40888
X27.50820 Y30.38348
X25.04440 Y30.38348
X25.04440 Y30.40888
X24.99360 Y30.40888
X24.99360 Y30.43428
X24.94280 Y30.43428
X24.94280 Y30.45968
X24.91740 Y30.45968
X24.91740 Y30.48508
X24.89200 Y30.48508
X24.89200 Y30.51048
X24.86660 Y30.51048
X24.86660 Y30.53588
X24.84120 Y30.53588
X24.84120 Y30.56128
X24.81580 Y30.56128
X24.81580 Y30.58668
X24.79040 Y30.58668
X24.79040 Y30.61208
X24.76500 Y30.61208
X24.76500 Y30.63748
X24.73960 Y30.63748
X24.73960 Y30.66288
X24.71420 Y30.66288
X24.71420 Y30.68828
X24.68880 Y30.68828
X24.68880 Y30.71368
X24.66340 Y30.71368
X24.66340 Y30.73908
X24.63800 Y30.73908
X24.63800 Y30.76448
X24.61260 Y30.76448
X24.61260 Y30.78988
X24.58720 Y30.78988
X24.58720 Y30.81528
X24.56180 Y30.81528
X24.56180 Y30.84068
X24.53640 Y30.84068
X24.53640 Y30.86608
X24.51100 Y30.86608
X24.51100 Y30.89148
X24.48560 Y30.89148
X24.48560 Y30.91688
X24.46020 Y30.91688
X24.46020 Y30.94228
X24.43480 Y30.94228
X24.43480 Y30.96768
X24.40940 Y30.96768
X24.40940 Y30.99308
X24.38400 Y30.99308
X24.38400 Y31.01848
X24.35860 Y31.01848
X24.35860 Y31.04388
X24.33320 Y31.04388
X24.33320 Y31.06928
X24.30780 Y31.06928
X24.30780 Y31.09468
X24.28240 Y31.09468
X24.28240 Y31.12008
X24.25700 Y31.12008
X24.25700 Y31.14548
X24.23160 Y31.14548
X24.23160 Y31.17088
X24.20620 Y31.17088
X24.20620 Y31.19628
X24.18080 Y31.19628
X24.18080 Y31.24708
X24.15540 Y31.24708
X24.15540 Y31.29788
X24.13000 Y31.29788
X24.13000 Y35.31108
X24.15540 Y35.31108
X24.15540 Y35.36188
X24.18080 Y35.36188
X24.18080 Y35.41268
X24.20620 Y35.41268
X24.20620 Y35.43808
X24.23160 Y35.43808
X24.23160 Y35.46348
X24.25700 Y35.46348
X24.25700 Y35.48888
X24.28240 Y35.48888
X24.28240 Y35.51428
X24.30780 Y35.51428
X24.30780 Y35.53968
X24.33320 Y35.53968
X24.33320 Y35.56508
X24.35860 Y35.56508
X24.35860 Y35.59048
X24.38400 Y35.59048
X24.38400 Y35.61588
X24.40940 Y35.61588
X24.40940 Y35.64128
X24.43480 Y35.64128
X24.43480 Y35.66668
X24.46020 Y35.66668
X24.46020 Y35.69208
X24.48560 Y35.69208
X24.48560 Y35.71748
X24.51100 Y35.71748
X24.51100 Y35.74288
X24.53640 Y35.74288
X24.53640 Y35.76828
X24.56180 Y35.76828
X24.56180 Y35.79368
X24.58720 Y35.79368
X24.58720 Y35.81908
X24.61260 Y35.81908
X24.61260 Y35.84448
X24.63800 Y35.84448
X24.63800 Y35.86988
X24.66340 Y35.86988
X24.66340 Y35.89528
X24.68880 Y35.89528
X24.68880 Y35.92068
X24.71420 Y35.92068
X24.71420 Y35.97148
X24.73960 Y35.97148
X24.73960 Y35.99688
X24.76500 Y35.99688
X24.76500 Y36.02228
X24.79040 Y36.02228
X24.79040 Y36.04768
X24.81580 Y36.04768
X24.81580 Y36.07308
X24.84120 Y36.07308
X24.84120 Y36.09848
X24.86660 Y36.09848
X24.86660 Y36.12388
X24.89200 Y36.12388
X24.89200 Y36.14928
X24.91740 Y36.14928
X24.91740 Y36.17468
X24.94280 Y36.17468
X24.94280 Y36.20008
X24.99360 Y36.20008
X24.99360 Y36.22548
X25.04440 Y36.22548
X25.04440 Y36.25088
X27.50820 Y36.25088
X27.50820 Y36.22548
X27.55900 Y36.22548
X27.55900 Y36.20008
X27.60980 Y36.20008
X27.60980 Y36.17468
X27.63520 Y36.17468
X27.63520 Y36.14928
X27.66060 Y36.14928
X27.66060 Y36.12388
X27.68600 Y36.12388
X27.68600 Y36.09848
X27.71140 Y36.09848
X27.71140 Y36.07308
X27.73680 Y36.07308
X27.73680 Y36.04768
X27.76220 Y36.04768
X27.76220 Y36.02228
X27.78760 Y36.02228
X27.78760 Y35.99688
X27.81300 Y35.99688
X27.81300 Y35.97148
X27.83840 Y35.97148
X27.83840 Y35.92068
X27.86380 Y35.92068
X27.86380 Y35.89528
X27.88920 Y35.89528
X27.88920 Y35.86988
X27.91460 Y35.86988
X27.91460 Y35.84448
G04 P0 ( dwell for no time -- G64 should not smooth over this point )
G00 Z5.00000 ( retract )

G00 X34.95040 Y35.84448 ( rapid move to begin. )
G01 Z0.00000
G04 P0 ( dwell for no time -- G64 should not smooth over this point )
X34.95040 Y35.84448
X34.97580 Y35.84448
X34.97580 Y35.81908
X35.00120 Y35.81908
X35.00120 Y35.79368
X35.02660 Y35.79368
X35.02660 Y35.76828
X35.05200 Y35.76828
X35.05200 Y35.74288
X35.07740 Y35.74288
X35.07740 Y35.71748
X35.10280 Y35.71748
X35.10280 Y35.69208
X35.12820 Y35.69208
X35.12820 Y35.66668
X35.15360 Y35.66668
X35.15360 Y35.64128
X35.17900 Y35.64128
X35.17900 Y35.61588
X35.20440 Y35.61588
X35.20440 Y35.59048
X35.22980 Y35.59048
X35.22980 Y35.56508
X35.25520 Y35.56508
X35.25520 Y35.53968
X35.28060 Y35.53968
X35.28060 Y35.51428
X35.30600 Y35.51428
X35.30600 Y35.48888
X35.33140 Y35.48888
X35.33140 Y35.46348
X35.35680 Y35.46348
X35.35680 Y35.43808
X35.38220 Y35.43808
X35.38220 Y35.41268
X35.40760 Y35.41268
X35.40760 Y35.36188
X35.43300 Y35.36188
X35.43300 Y35.31108
X35.45840 Y35.31108
X35.45840 Y33.66008
X35.43300 Y33.66008
X35.43300 Y33.60928
X35.40760 Y33.60928
X35.40760 Y33.55848
X35.38220 Y33.55848
X35.38220 Y33.53308
X35.35680 Y33.53308
X35.35680 Y33.50768
X35.33140 Y33.50768
X35.33140 Y33.48228
X35.30600 Y33.48228
X35.30600 Y33.45688
X35.28060 Y33.45688
X35.28060 Y33.43148
X35.25520 Y33.43148
X35.25520 Y33.40608
X35.22980 Y33.40608
X35.22980 Y33.38068
X35.20440 Y33.38068
X35.20440 Y33.35528
X35.17900 Y33.35528
X35.17900 Y33.32988
X35.15360 Y33.32988
X35.15360 Y33.30448
X35.12820 Y33.30448
X35.12820 Y33.27908
X35.10280 Y33.27908
X35.10280 Y33.25368
X35.07740 Y33.25368
X35.07740 Y33.22828
X35.05200 Y33.22828
X35.05200 Y33.20288
X35.02660 Y33.20288
X35.02660 Y33.17748
X35.00120 Y33.17748
X35.00120 Y33.15208
X34.97580 Y33.15208
X34.97580 Y33.12668
X34.95040 Y33.12668
X34.95040 Y33.10128
X34.92500 Y33.10128
X34.92500 Y33.07588
X34.89960 Y33.07588
X34.89960 Y33.05048
X34.87420 Y33.05048
X34.87420 Y33.02508
X34.84880 Y33.02508
X34.84880 Y32.99968
X34.82340 Y32.99968
X34.82340 Y32.97428
X34.79800 Y32.97428
X34.79800 Y32.94888
X34.77260 Y32.94888
X34.77260 Y32.92348
X34.74720 Y32.92348
X34.74720 Y32.89808
X34.72180 Y32.89808
X34.72180 Y32.87268
X34.69640 Y32.87268
X34.69640 Y32.84728
X34.67100 Y32.84728
X34.67100 Y32.82188
X34.64560 Y32.82188
X34.64560 Y32.79648
X34.62020 Y32.79648
X34.62020 Y32.77108
X34.59480 Y32.77108
X34.59480 Y32.74568
X34.56940 Y32.74568
X34.56940 Y32.72028
X34.54400 Y32.72028
X34.54400 Y32.69488
X34.51860 Y32.69488
X34.51860 Y32.66948
X34.49320 Y32.66948
X34.49320 Y32.64408
X34.46780 Y32.64408
X34.46780 Y32.61868
X34.44240 Y32.61868
X34.44240 Y32.59328
X34.41700 Y32.59328
X34.41700 Y32.56788
X34.39160 Y32.56788
X34.39160 Y32.54248
X34.36620 Y32.54248
X34.36620 Y32.51708
X34.34080 Y32.51708
X34.34080 Y32.49168
X34.31540 Y32.49168
X34.31540 Y32.46628
X34.29000 Y32.46628
X34.29000 Y32.44088
X34.26460 Y32.44088
X34.26460 Y32.41548
X34.23920 Y32.41548
X34.23920 Y32.39008
X34.21380 Y32.39008
X34.21380 Y32.36468
X34.18840 Y32.36468
X34.18840 Y32.33928
X34.16300 Y32.33928
X34.16300 Y32.31388
X34.13760 Y32.31388
X34.13760 Y32.28848
X34.11220 Y32.28848
X34.11220 Y32.26308
X34.08680 Y32.26308
X34.08680 Y32.23768
X34.06140 Y32.23768
X34.06140 Y32.21228
X34.03600 Y32.21228
X34.03600 Y32.18688
X34.01060 Y32.18688
X34.01060 Y32.16148
X33.98520 Y32.16148
X33.98520 Y32.13608
X33.95980 Y32.13608
X33.95980 Y32.11068
X33.93440 Y32.11068
X33.93440 Y32.08528
X33.90900 Y32.08528
X33.90900 Y32.05988
X33.88360 Y32.05988
X33.88360 Y32.03448
X33.85820 Y32.03448
X33.85820 Y32.00908
X33.83280 Y32.00908
X33.83280 Y31.98368
X33.80740 Y31.98368
X33.80740 Y31.95828
X33.78200 Y31.95828
X33.78200 Y31.93288
X33.75660 Y31.93288
X33.75660 Y31.90748
X33.73120 Y31.90748
X33.73120 Y31.88208
X33.70580 Y31.88208
X33.70580 Y31.85668
X33.68040 Y31.85668
X33.68040 Y31.83128
X33.65500 Y31.83128
X33.65500 Y31.80588
X33.62960 Y31.80588
X33.62960 Y31.78048
X33.60420 Y31.78048
X33.60420 Y31.75508
X33.57880 Y31.75508
X33.57880 Y31.72968
X33.55340 Y31.72968
X33.55340 Y31.70428
X33.52800 Y31.70428
X33.52800 Y31.67888
X33.50260 Y31.67888
X33.50260 Y31.65348
X33.47720 Y31.65348
X33.47720 Y31.62808
X33.45180 Y31.62808
X33.45180 Y31.60268
X33.42640 Y31.60268
X33.42640 Y31.57728
X35.30600 Y31.57728
X35.30600 Y31.55188
X35.35680 Y31.55188
X35.35680 Y31.52648
X35.40760 Y31.52648
X35.40760 Y31.47568
X35.43300 Y31.47568
X35.43300 Y31.42488
X35.45840 Y31.42488
X35.45840 Y30.53588
X35.43300 Y30.53588
X35.43300 Y30.48508
X35.40760 Y30.48508
X35.40760 Y30.43428
X35.35680 Y30.43428
X35.35680 Y30.40888
X35.30600 Y30.40888
X35.30600 Y30.38348
X31.29280 Y30.38348
X31.29280 Y30.40888
X31.24200 Y30.40888
X31.24200 Y30.43428
X31.19120 Y30.43428
X31.19120 Y30.48508
X31.16580 Y30.48508
X31.16580 Y30.53588
X31.14040 Y30.53588
X31.14040 Y31.42488
X31.16580 Y31.42488
X31.16580 Y31.47568
X31.19120 Y31.47568
X31.19120 Y31.52648
X31.21660 Y31.52648
X31.21660 Y31.55188
X31.24200 Y31.55188
X31.24200 Y31.57728
X31.26740 Y31.57728
X31.26740 Y31.60268
X31.29280 Y31.60268
X31.29280 Y31.62808
X31.31820 Y31.62808
X31.31820 Y31.65348
X31.34360 Y31.65348
X31.34360 Y31.67888
X31.36900 Y31.67888
X31.36900 Y31.70428
X31.39440 Y31.70428
X31.39440 Y31.72968
X31.41980 Y31.72968
X31.41980 Y31.75508
X31.44520 Y31.75508
X31.44520 Y31.78048
X31.47060 Y31.78048
X31.47060 Y31.80588
X31.49600 Y31.80588
X31.49600 Y31.83128
X31.52140 Y31.83128
X31.52140 Y31.85668
X31.54680 Y31.85668
X31.54680 Y31.88208
X31.57220 Y31.88208
X31.57220 Y31.90748
X31.59760 Y31.90748
X31.59760 Y31.93288
X31.62300 Y31.93288
X31.62300 Y31.95828
X31.64840 Y31.95828
X31.64840 Y31.98368
X31.67380 Y31.98368
X31.67380 Y32.00908
X31.69920 Y32.00908
X31.69920 Y32.03448
X31.72460 Y32.03448
X31.72460 Y32.05988
X31.75000 Y32.05988
X31.75000 Y32.08528
X31.77540 Y32.08528
X31.77540 Y32.11068
X31.80080 Y32.11068
X31.80080 Y32.13608
X31.82620 Y32.13608
X31.82620 Y32.16148
X31.85160 Y32.16148
X31.85160 Y32.18688
X31.87700 Y32.18688
X31.87700 Y32.21228
X31.90240 Y32.21228
X31.90240 Y32.23768
X31.92780 Y32.23768
X31.92780 Y32.26308
X31.95320 Y32.26308
X31.95320 Y32.28848
X31.97860 Y32.28848
X31.97860 Y32.31388
X32.00400 Y32.31388
X32.00400 Y32.33928
X32.02940 Y32.33928
X32.02940 Y32.36468
X32.05480 Y32.36468
X32.05480 Y32.39008
X32.08020 Y32.39008
X32.08020 Y32.41548
X32.10560 Y32.41548
X32.10560 Y32.44088
X32.13100 Y32.44088
X32.13100 Y32.46628
X32.15640 Y32.46628
X32.15640 Y32.49168
X32.18180 Y32.49168
X32.18180 Y32.51708
X32.20720 Y32.51708
X32.20720 Y32.54248
X32.23260 Y32.54248
X32.23260 Y32.56788
X32.25800 Y32.56788
X32.25800 Y32.59328
X32.28340 Y32.59328
X32.28340 Y32.61868
X32.30880 Y32.61868
X32.30880 Y32.64408
X32.33420 Y32.64408
X32.33420 Y32.66948
X32.35960 Y32.66948
X32.35960 Y32.69488
X32.38500 Y32.69488
X32.38500 Y32.72028
X32.41040 Y32.72028
X32.41040 Y32.74568
X32.43580 Y32.74568
X32.43580 Y32.77108
X32.46120 Y32.77108
X32.46120 Y32.79648
X32.48660 Y32.79648
X32.48660 Y32.82188
X32.51200 Y32.82188
X32.51200 Y32.84728
X32.53740 Y32.84728
X32.53740 Y32.87268
X32.56280 Y32.87268
X32.56280 Y32.89808
X32.58820 Y32.89808
X32.58820 Y32.92348
X32.61360 Y32.92348
X32.61360 Y32.94888
X32.63900 Y32.94888
X32.63900 Y32.97428
X32.66440 Y32.97428
X32.66440 Y32.99968
X32.68980 Y32.99968
X32.68980 Y33.02508
X32.71520 Y33.02508
X32.71520 Y33.05048
X32.74060 Y33.05048
X32.74060 Y33.07588
X32.76600 Y33.07588
X32.76600 Y33.10128
X32.79140 Y33.10128
X32.79140 Y33.12668
X32.81680 Y33.12668
X32.81680 Y33.15208
X32.84220 Y33.15208
X32.84220 Y33.17748
X32.86760 Y33.17748
X32.86760 Y33.20288
X32.89300 Y33.20288
X32.89300 Y33.22828
X32.91840 Y33.22828
X32.91840 Y33.25368
X32.94380 Y33.25368
X32.94380 Y33.27908
X32.96920 Y33.27908
X32.96920 Y33.30448
X32.99460 Y33.30448
X32.99460 Y33.32988
X33.02000 Y33.32988
X33.02000 Y33.35528
X33.04540 Y33.35528
X33.04540 Y33.38068
X33.07080 Y33.38068
X33.07080 Y33.40608
X33.09620 Y33.40608
X33.09620 Y33.43148
X33.12160 Y33.43148
X33.12160 Y33.45688
X33.14700 Y33.45688
X33.14700 Y33.48228
X33.17240 Y33.48228
X33.17240 Y33.50768
X33.19780 Y33.50768
X33.19780 Y33.53308
X33.22320 Y33.53308
X33.22320 Y33.55848
X33.24860 Y33.55848
X33.24860 Y33.58388
X33.27400 Y33.58388
X33.27400 Y33.60928
X33.29940 Y33.60928
X33.29940 Y33.63468
X33.32480 Y33.63468
X33.32480 Y33.66008
X33.35020 Y33.66008
X33.35020 Y33.68548
X33.37560 Y33.68548
X33.37560 Y33.71088
X33.40100 Y33.71088
X33.40100 Y33.73628
X33.42640 Y33.73628
X33.42640 Y33.76168
X33.45180 Y33.76168
X33.45180 Y33.78708
X33.47720 Y33.78708
X33.47720 Y33.81248
X33.50260 Y33.81248
X33.50260 Y33.83788
X33.52800 Y33.83788
X33.52800 Y33.86328
X33.55340 Y33.86328
X33.55340 Y33.88868
X33.57880 Y33.88868
X33.57880 Y33.91408
X33.60420 Y33.91408
X33.60420 Y33.93948
X33.62960 Y33.93948
X33.62960 Y33.96488
X33.65500 Y33.96488
X33.65500 Y33.99028
X33.68040 Y33.99028
X33.68040 Y34.01568
X33.70580 Y34.01568
X33.70580 Y34.04108
X33.73120 Y34.04108
X33.73120 Y34.06648
X33.75660 Y34.06648
X33.75660 Y34.09188
X33.78200 Y34.09188
X33.78200 Y34.11728
X33.80740 Y34.11728
X33.80740 Y34.14268
X33.83280 Y34.14268
X33.83280 Y34.16808
X33.85820 Y34.16808
X33.85820 Y34.19348
X33.88360 Y34.19348
X33.88360 Y34.21888
X33.90900 Y34.21888
X33.90900 Y34.24428
X33.93440 Y34.24428
X33.93440 Y34.26968
X33.95980 Y34.26968
X33.95980 Y34.29508
X33.98520 Y34.29508
X33.98520 Y34.32048
X34.01060 Y34.32048
X34.01060 Y34.34588
X34.03600 Y34.34588
X34.03600 Y34.37128
X34.06140 Y34.37128
X34.06140 Y34.39668
X34.08680 Y34.39668
X34.08680 Y34.42208
X34.11220 Y34.42208
X34.11220 Y34.44748
X34.13760 Y34.44748
X34.13760 Y34.47288
X34.16300 Y34.47288
X34.16300 Y34.49828
X34.13760 Y34.49828
X34.13760 Y34.52368
X34.11220 Y34.52368
X34.11220 Y34.54908
X34.08680 Y34.54908
X34.08680 Y34.57448
X34.06140 Y34.57448
X34.06140 Y34.59988
X34.03600 Y34.59988
X34.03600 Y34.62528
X34.01060 Y34.62528
X34.01060 Y34.65068
X33.98520 Y34.65068
X33.98520 Y34.67608
X33.95980 Y34.67608
X33.95980 Y34.70148
X33.93440 Y34.70148
X33.93440 Y34.72688
X33.90900 Y34.72688
X33.90900 Y34.75228
X33.88360 Y34.75228
X33.88360 Y34.77768
X33.85820 Y34.77768
X33.85820 Y34.80308
X33.83280 Y34.80308
X33.83280 Y34.82848
X33.80740 Y34.82848
X33.80740 Y34.85388
X33.78200 Y34.85388
X33.78200 Y34.87928
X33.75660 Y34.87928
X33.75660 Y34.90468
X33.73120 Y34.90468
X33.73120 Y34.93008
X33.70580 Y34.93008
X33.70580 Y34.95548
X33.68040 Y34.95548
X33.68040 Y34.98088
X33.65500 Y34.98088
X33.65500 Y35.00628
X33.62960 Y35.00628
X33.62960 Y35.03168
X33.60420 Y35.03168
X33.60420 Y35.05708
X32.99460 Y35.05708
X32.99460 Y35.03168
X32.96920 Y35.03168
X32.96920 Y35.00628
X32.94380 Y35.00628
X32.94380 Y34.98088
X32.91840 Y34.98088
X32.91840 Y34.95548
X32.89300 Y34.95548
X32.89300 Y34.93008
X32.86760 Y34.93008
X32.86760 Y34.90468
X32.84220 Y34.90468
X32.84220 Y34.87928
X32.81680 Y34.87928
X32.81680 Y34.85388
X32.79140 Y34.85388
X32.79140 Y34.82848
X32.76600 Y34.82848
X32.76600 Y34.80308
X32.74060 Y34.80308
X32.74060 Y34.77768
X32.71520 Y34.77768
X32.71520 Y34.75228
X32.68980 Y34.75228
X32.68980 Y34.72688
X32.66440 Y34.72688
X32.66440 Y34.70148
X32.63900 Y34.70148
X32.63900 Y34.67608
X32.61360 Y34.67608
X32.61360 Y34.65068
X32.58820 Y34.65068
X32.58820 Y34.62528
X32.56280 Y34.62528
X32.56280 Y34.59988
X32.53740 Y34.59988
X32.53740 Y34.57448
X32.51200 Y34.57448
X32.51200 Y34.54908
X32.48660 Y34.54908
X32.48660 Y34.52368
X32.46120 Y34.52368
X32.46120 Y34.49828
X32.43580 Y34.49828
X32.43580 Y34.47288
X32.41040 Y34.47288
X32.41040 Y34.44748
X32.38500 Y34.44748
X32.38500 Y34.42208
X32.35960 Y34.42208
X32.35960 Y34.39668
X32.33420 Y34.39668
X32.33420 Y34.37128
X32.30880 Y34.37128
X32.30880 Y34.34588
X32.28340 Y34.34588
X32.28340 Y34.32048
X32.23260 Y34.32048
X32.23260 Y34.29508
X32.18180 Y34.29508
X32.18180 Y34.26968
X31.29280 Y34.26968
X31.29280 Y34.29508
X31.24200 Y34.29508
X31.24200 Y34.32048
X31.19120 Y34.32048
X31.19120 Y34.37128
X31.16580 Y34.37128
X31.16580 Y34.42208
X31.14040 Y34.42208
X31.14040 Y35.31108
X31.16580 Y35.31108
X31.16580 Y35.36188
X31.19120 Y35.36188
X31.19120 Y35.41268
X31.21660 Y35.41268
X31.21660 Y35.43808
X31.24200 Y35.43808
X31.24200 Y35.46348
X31.26740 Y35.46348
X31.26740 Y35.48888
X31.29280 Y35.48888
X31.29280 Y35.51428
X31.31820 Y35.51428
X31.31820 Y35.53968
X31.34360 Y35.53968
X31.34360 Y35.56508
X31.36900 Y35.56508
X31.36900 Y35.59048
X31.39440 Y35.59048
X31.39440 Y35.61588
X31.41980 Y35.61588
X31.41980 Y35.64128
X31.44520 Y35.64128
X31.44520 Y35.66668
X31.47060 Y35.66668
X31.47060 Y35.69208
X31.49600 Y35.69208
X31.49600 Y35.71748
X31.52140 Y35.71748
X31.52140 Y35.74288
X31.54680 Y35.74288
X31.54680 Y35.76828
X31.57220 Y35.76828
X31.57220 Y35.79368
X31.59760 Y35.79368
X31.59760 Y35.81908
X31.62300 Y35.81908
X31.62300 Y35.84448
X31.64840 Y35.84448
X31.64840 Y35.86988
X31.67380 Y35.86988
X31.67380 Y35.89528
X31.69920 Y35.89528
X31.69920 Y35.92068
X31.72460 Y35.92068
X31.72460 Y35.94608
X31.75000 Y35.94608
X31.75000 Y35.97148
X31.77540 Y35.97148
X31.77540 Y35.99688
X31.80080 Y35.99688
X31.80080 Y36.02228
X31.82620 Y36.02228
X31.82620 Y36.04768
X31.85160 Y36.04768
X31.85160 Y36.07308
X31.87700 Y36.07308
X31.87700 Y36.09848
X31.90240 Y36.09848
X31.90240 Y36.12388
X31.92780 Y36.12388
X31.92780 Y36.14928
X31.95320 Y36.14928
X31.95320 Y36.17468
X31.97860 Y36.17468
X31.97860 Y36.20008
X32.02940 Y36.20008
X32.02940 Y36.22548
X32.08020 Y36.22548
X32.08020 Y36.25088
X34.51860 Y36.25088
X34.51860 Y36.22548
X34.56940 Y36.22548
X34.56940 Y36.20008
X34.62020 Y36.20008
X34.62020 Y36.17468
X34.64560 Y36.17468
X34.64560 Y36.14928
X34.67100 Y36.14928
X34.67100 Y36.12388
X34.69640 Y36.12388
X34.69640 Y36.09848
X34.72180 Y36.09848
X34.72180 Y36.07308
X34.74720 Y36.07308
X34.74720 Y36.04768
X34.77260 Y36.04768
X34.77260 Y36.02228
X34.79800 Y36.02228
X34.79800 Y35.99688
X34.82340 Y35.99688
X34.82340 Y35.97148
X34.84880 Y35.97148
X34.84880 Y35.94608
X34.87420 Y35.94608
X34.87420 Y35.92068
X34.89960 Y35.92068
X34.89960 Y35.89528
X34.92500 Y35.89528
X34.92500 Y35.86988
X34.95040 Y35.86988
X34.95040 Y35.84448
G04 P0 ( dwell for no time -- G64 should not smooth over this point )
G00 Z5.00000 ( retract )

G00 X7.51840 Y34.29508 ( rapid move to begin. )
G01 Z0.00000
G04 P0 ( dwell for no time -- G64 should not smooth over this point )
X7.51840 Y34.29508
X7.51840 Y34.26968
X7.54380 Y34.26968
X7.54380 Y34.21888
X7.56920 Y34.21888
X7.56920 Y34.16808
X7.59460 Y34.16808
X7.59460 Y34.11728
X7.62000 Y34.11728
X7.62000 Y34.06648
X7.64540 Y34.06648
X7.64540 Y34.01568
X7.67080 Y34.01568
X7.67080 Y33.96488
X7.69620 Y33.96488
X7.69620 Y33.91408
X7.72160 Y33.91408
X7.72160 Y33.86328
X7.74700 Y33.86328
X7.74700 Y33.81248
X7.77240 Y33.81248
X7.77240 Y33.76168
X7.79780 Y33.76168
X7.79780 Y33.71088
X7.82320 Y33.71088
X7.82320 Y33.66008
X7.84860 Y33.66008
X7.84860 Y33.60928
X7.87400 Y33.60928
X7.87400 Y33.55848
X7.89940 Y33.55848
X7.89940 Y33.50768
X7.92480 Y33.50768
X7.92480 Y33.45688
X7.95020 Y33.45688
X7.95020 Y33.38068
X7.97560 Y33.38068
X7.97560 Y33.32988
X8.00100 Y33.32988
X8.00100 Y33.27908
X8.02640 Y33.27908
X8.02640 Y33.22828
X8.05180 Y33.22828
X8.05180 Y33.17748
X8.07720 Y33.17748
X8.07720 Y33.12668
X8.10260 Y33.12668
X8.10260 Y33.07588
X8.12800 Y33.07588
X8.12800 Y33.02508
X8.15340 Y33.02508
X8.15340 Y32.97428
X8.17880 Y32.97428
X8.17880 Y32.92348
X8.20420 Y32.92348
X8.20420 Y32.87268
X8.22960 Y32.87268
X8.22960 Y32.82188
X8.25500 Y32.82188
X8.25500 Y32.77108
X8.28040 Y32.77108
X8.28040 Y32.72028
X8.30580 Y32.72028
X8.30580 Y32.66948
X8.33120 Y32.66948
X8.33120 Y32.61868
X8.35660 Y32.61868
X8.35660 Y32.66948
X8.38200 Y32.66948
X8.38200 Y32.69488
X8.40740 Y32.69488
X8.40740 Y32.74568
X8.43280 Y32.74568
X8.43280 Y32.79648
X8.45820 Y32.79648
X8.45820 Y32.84728
X8.48360 Y32.84728
X8.48360 Y32.89808
X8.50900 Y32.89808
X8.50900 Y32.94888
X8.53440 Y32.94888
X8.53440 Y32.99968
X8.55980 Y32.99968
X8.55980 Y33.05048
X8.58520 Y33.05048
X8.58520 Y33.10128
X8.61060 Y33.10128
X8.61060 Y33.15208
X8.63600 Y33.15208
X8.63600 Y33.20288
X8.66140 Y33.20288
X8.66140 Y33.25368
X8.68680 Y33.25368
X8.68680 Y33.30448
X8.71220 Y33.30448
X8.71220 Y33.35528
X8.73760 Y33.35528
X8.73760 Y33.40608
X8.76300 Y33.40608
X8.76300 Y33.45688
X8.78840 Y33.45688
X8.78840 Y33.50768
X8.81380 Y33.50768
X8.81380 Y33.55848
X8.83920 Y33.55848
X8.83920 Y33.60928
X8.86460 Y33.60928
X8.86460 Y33.66008
X8.89000 Y33.66008
X8.89000 Y33.71088
X8.91540 Y33.71088
X8.91540 Y33.76168
X8.94080 Y33.76168
X8.94080 Y33.81248
X8.96620 Y33.81248
X8.96620 Y33.86328
X8.99160 Y33.86328
X8.99160 Y33.91408
X9.01700 Y33.91408
X9.01700 Y33.96488
X9.04240 Y33.96488
X9.04240 Y34.01568
X9.06780 Y34.01568
X9.06780 Y34.06648
X9.09320 Y34.06648
X9.09320 Y34.11728
X9.11860 Y34.11728
X9.11860 Y34.16808
X9.14400 Y34.16808
X9.14400 Y34.21888
X9.16940 Y34.21888
X9.16940 Y34.26968
X9.19480 Y34.26968
X9.19480 Y34.32048
X9.22020 Y34.32048
X9.22020 Y34.37128
X9.24560 Y34.37128
X9.24560 Y34.42208
X9.27100 Y34.42208
X9.27100 Y34.47288
X9.29640 Y34.47288
X9.29640 Y34.52368
X9.32180 Y34.52368
X9.32180 Y34.57448
X9.34720 Y34.57448
X9.34720 Y34.59988
X9.37260 Y34.59988
X9.37260 Y34.65068
X9.42340 Y34.65068
X9.42340 Y34.67608
X9.47420 Y34.67608
X9.47420 Y34.70148
X10.36320 Y34.70148
X10.36320 Y34.67608
X10.41400 Y34.67608
X10.41400 Y34.65068
X10.46480 Y34.65068
X10.46480 Y34.59988
X10.49020 Y34.59988
X10.49020 Y34.54908
X10.51560 Y34.54908
X10.51560 Y33.66008
X10.49020 Y33.66008
X10.49020 Y33.58388
X10.46480 Y33.58388
X10.46480 Y33.53308
X10.43940 Y33.53308
X10.43940 Y33.48228
X10.41400 Y33.48228
X10.41400 Y33.43148
X10.38860 Y33.43148
X10.38860 Y33.38068
X10.36320 Y33.38068
X10.36320 Y33.32988
X10.33780 Y33.32988
X10.33780 Y33.27908
X10.31240 Y33.27908
X10.31240 Y33.22828
X10.28700 Y33.22828
X10.28700 Y33.17748
X10.26160 Y33.17748
X10.26160 Y33.12668
X10.23620 Y33.12668
X10.23620 Y33.07588
X10.21080 Y33.07588
X10.21080 Y33.02508
X10.18540 Y33.02508
X10.18540 Y32.97428
X10.16000 Y32.97428
X10.16000 Y32.92348
X10.13460 Y32.92348
X10.13460 Y32.87268
X10.10920 Y32.87268
X10.10920 Y32.82188
X10.08380 Y32.82188
X10.08380 Y32.77108
X10.05840 Y32.77108
X10.05840 Y32.72028
X10.03300 Y32.72028
X10.03300 Y32.66948
X10.00760 Y32.66948
X10.00760 Y32.61868
X9.98220 Y32.61868
X9.98220 Y32.56788
X9.95680 Y32.56788
X9.95680 Y32.51708
X9.93140 Y32.51708
X9.93140 Y32.46628
X9.90600 Y32.46628
X9.90600 Y32.41548
X9.88060 Y32.41548
X9.88060 Y32.39008
X9.85520 Y32.39008
X9.85520 Y32.33928
X9.82980 Y32.33928
X9.82980 Y32.28848
X9.80440 Y32.28848
X9.80440 Y32.23768
X9.77900 Y32.23768
X9.77900 Y32.18688
X9.75360 Y32.18688
X9.75360 Y32.13608
X9.72820 Y32.13608
X9.72820 Y32.08528
X9.70280 Y32.08528
X9.70280 Y32.03448
X9.67740 Y32.03448
X9.67740 Y31.98368
X9.65200 Y31.98368
X9.65200 Y31.93288
X9.62660 Y31.93288
X9.62660 Y31.88208
X9.60120 Y31.88208
X9.60120 Y31.83128
X9.57580 Y31.83128
X9.57580 Y31.78048
X9.55040 Y31.78048
X9.55040 Y31.72968
X9.52500 Y31.72968
X9.52500 Y31.67888
X9.49960 Y31.67888
X9.49960 Y31.62808
X9.47420 Y31.62808
X9.47420 Y31.57728
X9.44880 Y31.57728
X9.44880 Y31.52648
X9.42340 Y31.52648
X9.42340 Y31.47568
X9.39800 Y31.47568
X9.39800 Y31.42488
X9.37260 Y31.42488
X9.37260 Y31.37408
X9.34720 Y31.37408
X9.34720 Y31.32328
X9.32180 Y31.32328
X9.32180 Y31.27248
X9.29640 Y31.27248
X9.29640 Y31.22168
X9.27100 Y31.22168
X9.27100 Y31.17088
X9.24560 Y31.17088
X9.24560 Y31.12008
X9.22020 Y31.12008
X9.22020 Y31.06928
X9.19480 Y31.06928
X9.19480 Y31.01848
X9.16940 Y31.01848
X9.16940 Y30.96768
X9.14400 Y30.96768
X9.14400 Y30.91688
X9.11860 Y30.91688
X9.11860 Y30.86608
X9.09320 Y30.86608
X9.09320 Y30.81528
X9.06780 Y30.81528
X9.06780 Y30.76448
X9.04240 Y30.76448
X9.04240 Y30.71368
X9.01700 Y30.71368
X9.01700 Y30.66288
X8.99160 Y30.66288
X8.99160 Y30.61208
X8.96620 Y30.61208
X8.96620 Y30.56128
X8.94080 Y30.56128
X8.94080 Y30.51048
X8.91540 Y30.51048
X8.91540 Y30.48508
X8.89000 Y30.48508
X8.89000 Y30.43428
X8.83920 Y30.43428
X8.83920 Y30.40888
X8.78840 Y30.40888
X8.78840 Y30.38348
X7.89940 Y30.38348
X7.89940 Y30.40888
X7.84860 Y30.40888
X7.84860 Y30.43428
X7.79780 Y30.43428
X7.79780 Y30.48508
X7.77240 Y30.48508
X7.77240 Y30.51048
X7.74700 Y30.51048
X7.74700 Y30.56128
X7.72160 Y30.56128
X7.72160 Y30.61208
X7.69620 Y30.61208
X7.69620 Y30.66288
X7.67080 Y30.66288
X7.67080 Y30.71368
X7.64540 Y30.71368
X7.64540 Y30.76448
X7.62000 Y30.76448
X7.62000 Y30.81528
X7.59460 Y30.81528
X7.59460 Y30.86608
X7.56920 Y30.86608
X7.56920 Y30.91688
X7.54380 Y30.91688
X7.54380 Y30.96768
X7.51840 Y30.96768
X7.51840 Y31.01848
X7.49300 Y31.01848
X7.49300 Y31.06928
X7.46760 Y31.06928
X7.46760 Y31.12008
X7.44220 Y31.12008
X7.44220 Y31.17088
X7.41680 Y31.17088
X7.41680 Y31.22168
X7.39140 Y31.22168
X7.39140 Y31.27248
X7.36600 Y31.27248
X7.36600 Y31.32328
X7.34060 Y31.32328
X7.34060 Y31.37408
X7.31520 Y31.37408
X7.31520 Y31.42488
X7.28980 Y31.42488
X7.28980 Y31.47568
X7.26440 Y31.47568
X7.26440 Y31.52648
X7.23900 Y31.52648
X7.23900 Y31.57728
X7.21360 Y31.57728
X7.21360 Y31.62808
X7.18820 Y31.62808
X7.18820 Y31.67888
X7.16280 Y31.67888
X7.16280 Y31.72968
X7.13740 Y31.72968
X7.13740 Y31.80588
X7.11200 Y31.80588
X7.11200 Y31.85668
X7.08660 Y31.85668
X7.08660 Y31.90748
X7.06120 Y31.90748
X7.06120 Y31.95828
X7.03580 Y31.95828
X7.03580 Y32.00908
X7.01040 Y32.00908
X7.01040 Y32.05988
X6.98500 Y32.05988
X6.98500 Y32.11068
X6.95960 Y32.11068
X6.95960 Y32.16148
X6.93420 Y32.16148
X6.93420 Y32.21228
X6.90880 Y32.21228
X6.90880 Y32.26308
X6.88340 Y32.26308
X6.88340 Y32.31388
X6.85800 Y32.31388
X6.85800 Y32.36468
X6.83260 Y32.36468
X6.83260 Y32.41548
X6.80720 Y32.41548
X6.80720 Y32.46628
X6.78180 Y32.46628
X6.78180 Y32.51708
X6.75640 Y32.51708
X6.75640 Y32.56788
X6.73100 Y32.56788
X6.73100 Y32.61868
X6.70560 Y32.61868
X6.70560 Y32.66948
X6.68020 Y32.66948
X6.68020 Y32.72028
X6.65480 Y32.72028
X6.65480 Y32.77108
X6.62940 Y32.77108
X6.62940 Y32.82188
X6.60400 Y32.82188
X6.60400 Y32.87268
X6.57860 Y32.87268
X6.57860 Y32.92348
X6.55320 Y32.92348
X6.55320 Y32.97428
X6.52780 Y32.97428
X6.52780 Y33.02508
X6.50240 Y33.02508
X6.50240 Y33.07588
X6.47700 Y33.07588
X6.47700 Y33.12668
X6.45160 Y33.12668
X6.45160 Y33.17748
X6.42620 Y33.17748
X6.42620 Y33.22828
X6.40080 Y33.22828
X6.40080 Y33.27908
X6.37540 Y33.27908
X6.37540 Y33.32988
X6.35000 Y33.32988
X6.35000 Y33.38068
X6.32460 Y33.38068
X6.32460 Y33.43148
X6.29920 Y33.43148
X6.29920 Y33.48228
X6.27380 Y33.48228
X6.27380 Y33.53308
X6.24840 Y33.53308
X6.24840 Y33.58388
X6.22300 Y33.58388
X6.22300 Y33.66008
X6.19760 Y33.66008
X6.19760 Y34.54908
X6.22300 Y34.54908
X6.22300 Y34.59988
X6.24840 Y34.59988
X6.24840 Y34.65068
X6.29920 Y34.65068
X6.29920 Y34.67608
X6.35000 Y34.67608
X6.35000 Y34.70148
X7.23900 Y34.70148
X7.23900 Y34.67608
X7.28980 Y34.67608
X7.28980 Y34.65068
X7.34060 Y34.65068
X7.34060 Y34.59988
X7.36600 Y34.59988
X7.36600 Y34.57448
X7.39140 Y34.57448
X7.39140 Y34.52368
X7.41680 Y34.52368
X7.41680 Y34.47288
X7.44220 Y34.47288
X7.44220 Y34.42208
X7.46760 Y34.42208
X7.46760 Y34.37128
X7.49300 Y34.37128
X7.49300 Y34.32048
X7.51840 Y34.32048
X7.51840 Y34.29508
G04 P0 ( dwell for no time -- G64 should not smooth over this point )
G00 Z5.00000 ( retract )

G00 X14.68120 Y34.29508 ( rapid move to begin. )
G01 Z0.00000
G04 P0 ( dwell for no time -- G64 should not smooth over this point )
X14.68120 Y34.29508
X14.70660 Y34.29508
X14.70660 Y34.26968
X14.73200 Y34.26968
X14.73200 Y34.24428
X14.75740 Y34.24428
X14.75740 Y34.21888
X14.78280 Y34.21888
X14.78280 Y34.19348
X14.80820 Y34.19348
X14.80820 Y34.16808
X14.83360 Y34.16808
X14.83360 Y34.14268
X14.85900 Y34.14268
X14.85900 Y34.11728
X14.88440 Y34.11728
X14.88440 Y34.09188
X14.90980 Y34.09188
X14.90980 Y34.06648
X14.93520 Y34.06648
X14.93520 Y34.04108
X14.96060 Y34.04108
X14.96060 Y34.01568
X14.98600 Y34.01568
X14.98600 Y33.99028
X15.01140 Y33.99028
X15.01140 Y33.96488
X15.03680 Y33.96488
X15.03680 Y33.93948
X15.06220 Y33.93948
X15.06220 Y33.91408
X15.08760 Y33.91408
X15.08760 Y33.88868
X15.11300 Y33.88868
X15.11300 Y33.86328
X15.13840 Y33.86328
X15.13840 Y33.81248
X15.16380 Y33.81248
X15.16380 Y33.76168
X15.18920 Y33.76168
X15.18920 Y32.08528
X15.16380 Y32.08528
X15.16380 Y32.03448
X15.13840 Y32.03448
X15.13840 Y31.98368
X15.08760 Y31.98368
X15.08760 Y31.95828
X15.03680 Y31.95828
X15.03680 Y31.93288
X12.36980 Y31.93288
X12.36980 Y31.90748
X12.39520 Y31.90748
X12.39520 Y31.88208
X12.42060 Y31.88208
X12.42060 Y31.85668
X12.44600 Y31.85668
X12.44600 Y31.83128
X12.47140 Y31.83128
X12.47140 Y31.80588
X12.49680 Y31.80588
X12.49680 Y31.78048
X12.52220 Y31.78048
X12.52220 Y31.75508
X12.57300 Y31.75508
X12.57300 Y31.72968
X12.59840 Y31.72968
X12.59840 Y31.70428
X12.62380 Y31.70428
X12.62380 Y31.67888
X12.64920 Y31.67888
X12.64920 Y31.65348
X12.67460 Y31.65348
X12.67460 Y31.62808
X12.70000 Y31.62808
X12.70000 Y31.60268
X12.72540 Y31.60268
X12.72540 Y31.57728
X14.24940 Y31.57728
X14.24940 Y31.55188
X14.30020 Y31.55188
X14.30020 Y31.52648
X14.35100 Y31.52648
X14.35100 Y31.47568
X14.37640 Y31.47568
X14.37640 Y31.42488
X14.40180 Y31.42488
X14.40180 Y30.53588
X14.37640 Y30.53588
X14.37640 Y30.48508
X14.35100 Y30.48508
X14.35100 Y30.43428
X14.30020 Y30.43428
X14.30020 Y30.40888
X14.24940 Y30.40888
X14.24940 Y30.38348
X11.81100 Y30.38348
X11.81100 Y30.40888
X11.76020 Y30.40888
X11.76020 Y30.43428
X11.70940 Y30.43428
X11.70940 Y30.45968
X11.68400 Y30.45968
X11.68400 Y30.48508
X11.65860 Y30.48508
X11.65860 Y30.51048
X11.63320 Y30.51048
X11.63320 Y30.53588
X11.60780 Y30.53588
X11.60780 Y30.56128
X11.58240 Y30.56128
X11.58240 Y30.58668
X11.55700 Y30.58668
X11.55700 Y30.61208
X11.53160 Y30.61208
X11.53160 Y30.63748
X11.50620 Y30.63748
X11.50620 Y30.66288
X11.48080 Y30.66288
X11.48080 Y30.68828
X11.45540 Y30.68828
X11.45540 Y30.71368
X11.43000 Y30.71368
X11.43000 Y30.73908
X11.40460 Y30.73908
X11.40460 Y30.76448
X11.37920 Y30.76448
X11.37920 Y30.78988
X11.35380 Y30.78988
X11.35380 Y30.81528
X11.32840 Y30.81528
X11.32840 Y30.84068
X11.30300 Y30.84068
X11.30300 Y30.86608
X11.27760 Y30.86608
X11.27760 Y30.89148
X11.25220 Y30.89148
X11.25220 Y30.91688
X11.22680 Y30.91688
X11.22680 Y30.94228
X11.20140 Y30.94228
X11.20140 Y30.96768
X11.15060 Y30.96768
X11.15060 Y30.99308
X11.12520 Y30.99308
X11.12520 Y31.01848
X11.09980 Y31.01848
X11.09980 Y31.04388
X11.07440 Y31.04388
X11.07440 Y31.06928
X11.04900 Y31.06928
X11.04900 Y31.09468
X11.02360 Y31.09468
X11.02360 Y31.12008
X10.99820 Y31.12008
X10.99820 Y31.14548
X10.97280 Y31.14548
X10.97280 Y31.17088
X10.94740 Y31.17088
X10.94740 Y31.19628
X10.92200 Y31.19628
X10.92200 Y31.24708
X10.89660 Y31.24708
X10.89660 Y31.29788
X10.87120 Y31.29788
X10.87120 Y33.76168
X10.89660 Y33.76168
X10.89660 Y33.81248
X10.92200 Y33.81248
X10.92200 Y33.86328
X10.94740 Y33.86328
X10.94740 Y33.88868
X10.97280 Y33.88868
X10.97280 Y33.91408
X10.99820 Y33.91408
X10.99820 Y33.93948
X11.02360 Y33.93948
X11.02360 Y33.96488
X11.04900 Y33.96488
X11.04900 Y33.99028
X11.07440 Y33.99028
X11.07440 Y34.01568
X11.09980 Y34.01568
X11.09980 Y34.04108
X11.12520 Y34.04108
X11.12520 Y34.06648
X11.15060 Y34.06648
X11.15060 Y34.09188
X11.17600 Y34.09188
X11.17600 Y34.11728
X11.20140 Y34.11728
X11.20140 Y34.14268
X11.22680 Y34.14268
X11.22680 Y34.16808
X11.25220 Y34.16808
X11.25220 Y34.19348
X11.27760 Y34.19348
X11.27760 Y34.21888
X11.30300 Y34.21888
X11.30300 Y34.24428
X11.32840 Y34.24428
X11.32840 Y34.26968
X11.35380 Y34.26968
X11.35380 Y34.29508
X11.37920 Y34.29508
X11.37920 Y34.32048
X11.40460 Y34.32048
X11.40460 Y34.34588
X11.43000 Y34.34588
X11.43000 Y34.37128
X11.45540 Y34.37128
X11.45540 Y34.39668
X11.48080 Y34.39668
X11.48080 Y34.42208
X11.50620 Y34.42208
X11.50620 Y34.44748
X11.53160 Y34.44748
X11.53160 Y34.47288
X11.55700 Y34.47288
X11.55700 Y34.49828
X11.58240 Y34.49828
X11.58240 Y34.52368
X11.60780 Y34.52368
X11.60780 Y34.54908
X11.63320 Y34.54908
X11.63320 Y34.57448
X11.65860 Y34.57448
X11.65860 Y34.59988
X11.68400 Y34.59988
X11.68400 Y34.62528
X11.70940 Y34.62528
X11.70940 Y34.65068
X11.76020 Y34.65068
X11.76020 Y34.67608
X11.81100 Y34.67608
X11.81100 Y34.70148
X14.24940 Y34.70148
X14.24940 Y34.67608
X14.30020 Y34.67608
X14.30020 Y34.65068
X14.35100 Y34.65068
X14.35100 Y34.62528
X14.37640 Y34.62528
X14.37640 Y34.59988
X14.40180 Y34.59988
X14.40180 Y34.57448
X14.42720 Y34.57448
X14.42720 Y34.54908
X14.45260 Y34.54908
X14.45260 Y34.52368
X14.47800 Y34.52368
X14.47800 Y34.49828
X14.50340 Y34.49828
X14.50340 Y34.47288
X14.52880 Y34.47288
X14.52880 Y34.44748
X14.55420 Y34.44748
X14.55420 Y34.42208
X14.57960 Y34.42208
X14.57960 Y34.39668
X14.60500 Y34.39668
X14.60500 Y34.37128
X14.63040 Y34.37128
X14.63040 Y34.34588
X14.65580 Y34.34588
X14.65580 Y34.32048
X14.68120 Y34.32048
X14.68120 Y34.29508
G04 P0 ( dwell for no time -- G64 should not smooth over this point )
G00 Z5.00000 ( retract )

G00 X16.73860 Y34.29508 ( rapid move to begin. )
G01 Z0.00000
G04 P0 ( dwell for no time -- G64 should not smooth over this point )
X16.73860 Y34.29508
X16.73860 Y34.24428
X16.76400 Y34.24428
X16.76400 Y34.26968
X16.78940 Y34.26968
X16.78940 Y34.29508
X16.81480 Y34.29508
X16.81480 Y34.32048
X16.84020 Y34.32048
X16.84020 Y34.34588
X16.86560 Y34.34588
X16.86560 Y34.37128
X16.89100 Y34.37128
X16.89100 Y34.39668
X16.91640 Y34.39668
X16.91640 Y34.42208
X16.94180 Y34.42208
X16.94180 Y34.44748
X16.96720 Y34.44748
X16.96720 Y34.47288
X16.99260 Y34.47288
X16.99260 Y34.49828
X17.01800 Y34.49828
X17.01800 Y34.52368
X17.04340 Y34.52368
X17.04340 Y34.54908
X17.06880 Y34.54908
X17.06880 Y34.57448
X17.09420 Y34.57448
X17.09420 Y34.59988
X17.11960 Y34.59988
X17.11960 Y34.62528
X17.14500 Y34.62528
X17.14500 Y34.65068
X17.19580 Y34.65068
X17.19580 Y34.67608
X17.24660 Y34.67608
X17.24660 Y34.70148
X18.92300 Y34.70148
X18.92300 Y34.67608
X18.97380 Y34.67608
X18.97380 Y34.65068
X19.02460 Y34.65068
X19.02460 Y34.59988
X19.05000 Y34.59988
X19.05000 Y34.54908
X19.07540 Y34.54908
X19.07540 Y33.66008
X19.05000 Y33.66008
X19.05000 Y33.60928
X19.02460 Y33.60928
X19.02460 Y33.55848
X18.97380 Y33.55848
X18.97380 Y33.53308
X18.92300 Y33.53308
X18.92300 Y33.50768
X18.16100 Y33.50768
X18.16100 Y33.48228
X18.13560 Y33.48228
X18.13560 Y33.45688
X18.11020 Y33.45688
X18.11020 Y33.43148
X18.08480 Y33.43148
X18.08480 Y33.40608
X18.05940 Y33.40608
X18.05940 Y33.38068
X18.03400 Y33.38068
X18.03400 Y33.35528
X18.00860 Y33.35528
X18.00860 Y33.32988
X17.98320 Y33.32988
X17.98320 Y33.30448
X17.95780 Y33.30448
X17.95780 Y33.27908
X17.93240 Y33.27908
X17.93240 Y33.25368
X17.90700 Y33.25368
X17.90700 Y33.22828
X17.88160 Y33.22828
X17.88160 Y33.20288
X17.85620 Y33.20288
X17.85620 Y33.17748
X17.83080 Y33.17748
X17.83080 Y33.15208
X17.80540 Y33.15208
X17.80540 Y33.12668
X17.78000 Y33.12668
X17.78000 Y33.10128
X17.75460 Y33.10128
X17.75460 Y33.07588
X17.72920 Y33.07588
X17.72920 Y33.05048
X17.70380 Y33.05048
X17.70380 Y33.02508
X17.67840 Y33.02508
X17.67840 Y32.99968
X17.65300 Y32.99968
X17.65300 Y32.97428
X17.62760 Y32.97428
X17.62760 Y32.94888
X17.60220 Y32.94888
X17.60220 Y32.92348
X17.57680 Y32.92348
X17.57680 Y32.89808
X17.55140 Y32.89808
X17.55140 Y32.87268
X17.52600 Y32.87268
X17.52600 Y32.84728
X17.50060 Y32.84728
X17.50060 Y32.82188
X17.47520 Y32.82188
X17.47520 Y32.79648
X17.44980 Y32.79648
X17.44980 Y32.77108
X17.42440 Y32.77108
X17.42440 Y32.74568
X17.39900 Y32.74568
X17.39900 Y32.72028
X17.37360 Y32.72028
X17.37360 Y32.69488
X17.34820 Y32.69488
X17.34820 Y32.66948
X17.32280 Y32.66948
X17.32280 Y32.64408
X17.29740 Y32.64408
X17.29740 Y32.61868
X17.27200 Y32.61868
X17.27200 Y32.59328
X17.24660 Y32.59328
X17.24660 Y32.56788
X17.22120 Y32.56788
X17.22120 Y32.54248
X17.19580 Y32.54248
X17.19580 Y32.51708
X17.17040 Y32.51708
X17.17040 Y32.46628
X17.14500 Y32.46628
X17.14500 Y32.44088
X17.11960 Y32.44088
X17.11960 Y32.41548
X17.09420 Y32.41548
X17.09420 Y32.39008
X17.06880 Y32.39008
X17.06880 Y32.36468
X17.04340 Y32.36468
X17.04340 Y32.33928
X17.01800 Y32.33928
X17.01800 Y32.31388
X16.99260 Y32.31388
X16.99260 Y32.28848
X16.96720 Y32.28848
X16.96720 Y32.26308
X16.94180 Y32.26308
X16.94180 Y32.23768
X16.91640 Y32.23768
X16.91640 Y32.21228
X16.89100 Y32.21228
X16.89100 Y32.18688
X16.86560 Y32.18688
X16.86560 Y32.16148
X16.84020 Y32.16148
X16.84020 Y32.13608
X16.81480 Y32.13608
X16.81480 Y32.11068
X16.78940 Y32.11068
X16.78940 Y32.08528
X16.76400 Y32.08528
X16.76400 Y32.05988
X16.73860 Y32.05988
X16.73860 Y30.53588
X16.71320 Y30.53588
X16.71320 Y30.48508
X16.68780 Y30.48508
X16.68780 Y30.43428
X16.63700 Y30.43428
X16.63700 Y30.40888
X16.58620 Y30.40888
X16.58620 Y30.38348
X15.69720 Y30.38348
X15.69720 Y30.40888
X15.64640 Y30.40888
X15.64640 Y30.43428
X15.59560 Y30.43428
X15.59560 Y30.48508
X15.57020 Y30.48508
X15.57020 Y30.53588
X15.54480 Y30.53588
X15.54480 Y34.54908
X15.57020 Y34.54908
X15.57020 Y34.59988
X15.59560 Y34.59988
X15.59560 Y34.65068
X15.64640 Y34.65068
X15.64640 Y34.67608
X15.69720 Y34.67608
X15.69720 Y34.70148
X16.58620 Y34.70148
X16.58620 Y34.67608
X16.63700 Y34.67608
X16.63700 Y34.65068
X16.68780 Y34.65068
X16.68780 Y34.59988
X16.71320 Y34.59988
X16.71320 Y34.54908
X16.73860 Y34.54908
X16.73860 Y34.29508
G04 P0 ( dwell for no time -- G64 should not smooth over this point )
G00 Z5.00000 ( retract )

G00 X30.78480 Y31.93288 ( rapid move to begin. )
G01 Z0.00000
G04 P0 ( dwell for no time -- G64 should not smooth over this point )
X30.78480 Y31.93288
X30.78480 Y30.53588
X30.75940 Y30.53588
X30.75940 Y30.48508
X30.73400 Y30.48508
X30.73400 Y30.43428
X30.68320 Y30.43428
X30.68320 Y30.40888
X30.63240 Y30.40888
X30.63240 Y30.38348
X28.95600 Y30.38348
X28.95600 Y30.40888
X28.90520 Y30.40888
X28.90520 Y30.43428
X28.85440 Y30.43428
X28.85440 Y30.48508
X28.82900 Y30.48508
X28.82900 Y30.53588
X28.80360 Y30.53588
X28.80360 Y32.18688
X28.82900 Y32.18688
X28.82900 Y32.23768
X28.85440 Y32.23768
X28.85440 Y32.28848
X28.90520 Y32.28848
X28.90520 Y32.31388
X28.95600 Y32.31388
X28.95600 Y32.33928
X30.63240 Y32.33928
X30.63240 Y32.31388
X30.68320 Y32.31388
X30.68320 Y32.28848
X30.73400 Y32.28848
X30.73400 Y32.23768
X30.75940 Y32.23768
X30.75940 Y32.18688
X30.78480 Y32.18688
X30.78480 Y31.93288
G04 P0 ( dwell for no time -- G64 should not smooth over this point )
G00 Z5.00000 ( retract )

G00 X6.32460 Y29.29128 ( rapid move to begin. )
G01 Z0.00000
G04 P0 ( dwell for no time -- G64 should not smooth over this point )
X6.32460 Y29.29128
X6.35000 Y29.29128
X6.35000 Y29.26588
X6.37540 Y29.26588
X6.37540 Y29.24048
X6.40080 Y29.24048
X6.40080 Y29.18968
X6.42620 Y29.18968
X6.42620 Y29.13888
X6.45160 Y29.13888
X6.45160 Y29.11348
X6.47700 Y29.11348
X6.47700 Y29.06268
X6.50240 Y29.06268
X6.50240 Y28.98648
X6.52780 Y28.98648
X6.52780 Y28.91028
X6.55320 Y28.91028
X6.55320 Y28.75788
X6.57860 Y28.75788
X6.57860 Y27.71648
X6.55320 Y27.71648
X6.55320 Y27.56408
X6.52780 Y27.56408
X6.52780 Y27.48788
X6.50240 Y27.48788
X6.50240 Y27.41168
X6.47700 Y27.41168
X6.47700 Y27.36088
X6.45160 Y27.36088
X6.45160 Y27.33548
X6.42620 Y27.33548
X6.42620 Y27.28468
X6.40080 Y27.28468
X6.40080 Y27.23388
X6.37540 Y27.23388
X6.37540 Y27.20848
X6.35000 Y27.20848
X6.35000 Y27.18308
X6.32460 Y27.18308
X6.32460 Y27.15768
X6.29920 Y27.15768
X6.29920 Y27.10688
X6.27380 Y27.10688
X6.27380 Y27.08148
X6.24840 Y27.08148
X6.24840 Y27.05608
X6.22300 Y27.05608
X6.22300 Y27.03068
X6.17220 Y27.03068
X6.17220 Y27.00528
X6.14680 Y27.00528
X6.14680 Y26.97988
X6.12140 Y26.97988
X6.12140 Y26.95448
X6.07060 Y26.95448
X6.07060 Y26.92908
X6.04520 Y26.92908
X6.04520 Y26.90368
X5.96900 Y26.90368
X5.96900 Y26.87828
X5.91820 Y26.87828
X5.91820 Y26.85288
X5.86740 Y26.85288
X5.86740 Y26.82748
X5.76580 Y26.82748
X5.76580 Y26.80208
X5.66420 Y26.80208
X5.66420 Y26.77668
X4.85140 Y26.77668
X4.85140 Y14.45768
X5.66420 Y14.45768
X5.66420 Y14.43228
X5.76580 Y14.43228
X5.76580 Y14.40688
X5.86740 Y14.40688
X5.86740 Y14.38148
X5.91820 Y14.38148
X5.91820 Y14.35608
X5.96900 Y14.35608
X5.96900 Y14.33068
X6.04520 Y14.33068
X6.04520 Y14.30528
X6.07060 Y14.30528
X6.07060 Y14.27988
X6.12140 Y14.27988
X6.12140 Y14.25448
X6.14680 Y14.25448
X6.14680 Y14.22908
X6.17220 Y14.22908
X6.17220 Y14.20368
X6.22300 Y14.20368
X6.22300 Y14.17828
X6.24840 Y14.17828
X6.24840 Y14.15288
X6.27380 Y14.15288
X6.27380 Y14.12748
X6.29920 Y14.12748
X6.29920 Y14.07668
X6.32460 Y14.07668
X6.32460 Y14.05128
X6.35000 Y14.05128
X6.35000 Y14.02588
X6.37540 Y14.02588
X6.37540 Y14.00048
X6.40080 Y14.00048
X6.40080 Y13.94968
X6.42620 Y13.94968
X6.42620 Y13.89888
X6.45160 Y13.89888
X6.45160 Y13.87348
X6.47700 Y13.87348
X6.47700 Y13.82268
X6.50240 Y13.82268
X6.50240 Y13.74648
X6.52780 Y13.74648
X6.52780 Y13.67028
X6.55320 Y13.67028
X6.55320 Y13.51788
X6.57860 Y13.51788
X6.57860 Y12.47648
X6.55320 Y12.47648
X6.55320 Y12.32408
X6.52780 Y12.32408
X6.52780 Y12.24788
X6.50240 Y12.24788
X6.50240 Y12.17168
X6.47700 Y12.17168
X6.47700 Y12.12088
X6.45160 Y12.12088
X6.45160 Y12.09548
X6.42620 Y12.09548
X6.42620 Y12.04468
X6.40080 Y12.04468
X6.40080 Y11.99388
X6.37540 Y11.99388
X6.37540 Y11.96848
X6.35000 Y11.96848
X6.35000 Y11.94308
X6.32460 Y11.94308
X6.32460 Y11.91768
X6.29920 Y11.91768
X6.29920 Y11.86688
X6.27380 Y11.86688
X6.27380 Y11.84148
X6.24840 Y11.84148
X6.24840 Y11.81608
X6.22300 Y11.81608
X6.22300 Y11.79068
X6.17220 Y11.79068
X6.17220 Y11.76528
X6.14680 Y11.76528
X6.14680 Y11.73988
X6.12140 Y11.73988
X6.12140 Y11.71448
X6.07060 Y11.71448
X6.07060 Y11.68908
X6.04520 Y11.68908
X6.04520 Y11.66368
X5.96900 Y11.66368
X5.96900 Y11.63828
X5.91820 Y11.63828
X5.91820 Y11.61288
X5.86740 Y11.61288
X5.86740 Y11.58748
X5.76580 Y11.58748
X5.76580 Y11.56208
X5.66420 Y11.56208
X5.66420 Y11.53668
X3.93700 Y11.53668
X3.93700 Y11.51128
X3.91160 Y11.51128
X3.91160 Y11.48588
X3.88620 Y11.48588
X3.88620 Y11.46048
X3.86080 Y11.46048
X3.86080 Y11.43508
X3.83540 Y11.43508
X3.83540 Y11.40968
X3.81000 Y11.40968
X3.81000 Y11.38428
X3.78460 Y11.38428
X3.78460 Y11.35888
X3.75920 Y11.35888
X3.75920 Y11.33348
X3.73380 Y11.33348
X3.73380 Y11.30808
X3.70840 Y11.30808
X3.70840 Y11.28268
X3.68300 Y11.28268
X3.68300 Y11.25728
X3.65760 Y11.25728
X3.65760 Y11.23188
X3.63220 Y11.23188
X3.63220 Y11.20648
X3.60680 Y11.20648
X3.60680 Y11.18108
X3.58140 Y11.18108
X3.58140 Y3.63728
X4.29260 Y3.63728
X4.29260 Y3.68808
X4.31800 Y3.68808
X4.31800 Y3.71348
X4.34340 Y3.71348
X4.34340 Y3.76428
X4.36880 Y3.76428
X4.36880 Y3.78968
X4.39420 Y3.78968
X4.39420 Y3.84048
X4.41960 Y3.84048
X4.41960 Y3.86588
X4.44500 Y3.86588
X4.44500 Y3.89128
X4.47040 Y3.89128
X4.47040 Y3.91668
X4.49580 Y3.91668
X4.49580 Y3.94208
X4.52120 Y3.94208
X4.52120 Y3.96748
X4.54660 Y3.96748
X4.54660 Y3.99288
X4.57200 Y3.99288
X4.57200 Y4.01828
X4.62280 Y4.01828
X4.62280 Y4.04368
X4.64820 Y4.04368
X4.64820 Y4.06908
X4.69900 Y4.06908
X4.69900 Y4.09448
X8.48360 Y4.09448
X8.48360 Y4.06908
X8.53440 Y4.06908
X8.53440 Y4.04368
X8.55980 Y4.04368
X8.55980 Y4.01828
X8.61060 Y4.01828
X8.61060 Y3.99288
X8.63600 Y3.99288
X8.63600 Y3.96748
X8.66140 Y3.96748
X8.66140 Y3.94208
X8.68680 Y3.94208
X8.68680 Y3.91668
X8.71220 Y3.91668
X8.71220 Y3.89128
X8.73760 Y3.89128
X8.73760 Y3.86588
X8.76300 Y3.86588
X8.76300 Y3.84048
X8.78840 Y3.84048
X8.78840 Y3.78968
X8.81380 Y3.78968
X8.81380 Y3.76428
X8.83920 Y3.76428
X8.83920 Y3.71348
X8.86460 Y3.71348
X8.86460 Y3.68808
X8.89000 Y3.68808
X8.89000 Y3.61188
X8.91540 Y3.61188
X8.91540 Y3.56108
X8.94080 Y3.56108
X8.94080 Y3.48488
X8.96620 Y3.48488
X8.96620 Y3.33248
X8.99160 Y3.33248
X8.99160 Y2.31648
X8.96620 Y2.31648
X8.96620 Y2.16408
X8.94080 Y2.16408
X8.94080 Y2.08788
X8.91540 Y2.08788
X8.91540 Y2.03708
X8.89000 Y2.03708
X8.89000 Y1.96088
X8.86460 Y1.96088
X8.86460 Y1.93548
X8.83920 Y1.93548
X8.83920 Y1.88468
X8.81380 Y1.88468
X8.81380 Y1.85928
X8.78840 Y1.85928
X8.78840 Y1.80848
X8.76300 Y1.80848
X8.76300 Y1.78308
X8.73760 Y1.78308
X8.73760 Y1.75768
X8.71220 Y1.75768
X8.71220 Y1.73228
X8.68680 Y1.73228
X8.68680 Y1.70688
X8.66140 Y1.70688
X8.66140 Y1.68148
X8.63600 Y1.68148
X8.63600 Y1.65608
X8.61060 Y1.65608
X8.61060 Y1.63068
X8.55980 Y1.63068
X8.55980 Y1.60528
X8.53440 Y1.60528
X8.53440 Y1.57988
X8.48360 Y1.57988
X8.48360 Y1.55448
X8.45820 Y1.55448
X8.45820 Y1.52908
X8.38200 Y1.52908
X8.38200 Y1.50368
X8.33120 Y1.50368
X8.33120 Y1.47828
X8.25500 Y1.47828
X8.25500 Y1.45288
X8.10260 Y1.45288
X8.10260 Y1.42748
X5.08000 Y1.42748
X5.08000 Y1.45288
X4.92760 Y1.45288
X4.92760 Y1.47828
X4.85140 Y1.47828
X4.85140 Y1.50368
X4.80060 Y1.50368
X4.80060 Y1.52908
X4.72440 Y1.52908
X4.72440 Y1.55448
X4.69900 Y1.55448
X4.69900 Y1.57988
X4.64820 Y1.57988
X4.64820 Y1.60528
X4.62280 Y1.60528
X4.62280 Y1.63068
X4.57200 Y1.63068
X4.57200 Y1.65608
X4.54660 Y1.65608
X4.54660 Y1.68148
X4.52120 Y1.68148
X4.52120 Y1.70688
X4.49580 Y1.70688
X4.49580 Y1.73228
X4.47040 Y1.73228
X4.47040 Y1.75768
X4.44500 Y1.75768
X4.44500 Y1.78308
X4.41960 Y1.78308
X4.41960 Y1.80848
X4.39420 Y1.80848
X4.39420 Y1.85928
X4.36880 Y1.85928
X4.36880 Y1.88468
X4.34340 Y1.88468
X4.34340 Y1.93548
X4.31800 Y1.93548
X4.31800 Y1.96088
X4.29260 Y1.96088
X4.29260 Y2.03708
X2.31140 Y2.03708
X2.31140 Y2.06248
X2.23520 Y2.06248
X2.23520 Y2.08788
X2.18440 Y2.08788
X2.18440 Y2.11328
X2.13360 Y2.11328
X2.13360 Y2.13868
X2.10820 Y2.13868
X2.10820 Y2.16408
X2.08280 Y2.16408
X2.08280 Y2.18948
X2.05740 Y2.18948
X2.05740 Y2.24028
X2.03200 Y2.24028
X2.03200 Y2.29108
X2.00660 Y2.29108
X2.00660 Y2.36728
X1.98120 Y2.36728
X1.98120 Y11.73988
X1.95580 Y11.73988
X1.95580 Y11.76528
X1.93040 Y11.76528
X1.93040 Y11.79068
X1.87960 Y11.79068
X1.87960 Y11.81608
X1.85420 Y11.81608
X1.85420 Y11.84148
X1.82880 Y11.84148
X1.82880 Y11.86688
X1.80340 Y11.86688
X1.80340 Y11.91768
X1.77800 Y11.91768
X1.77800 Y11.94308
X1.75260 Y11.94308
X1.75260 Y11.96848
X1.72720 Y11.96848
X1.72720 Y11.99388
X1.70180 Y11.99388
X1.70180 Y12.04468
X1.67640 Y12.04468
X1.67640 Y12.09548
X1.65100 Y12.09548
X1.65100 Y12.12088
X1.62560 Y12.12088
X1.62560 Y12.17168
X1.60020 Y12.17168
X1.60020 Y12.24788
X1.57480 Y12.24788
X1.57480 Y12.32408
X1.54940 Y12.32408
X1.54940 Y12.47648
X1.52400 Y12.47648
X1.52400 Y13.51788
X1.54940 Y13.51788
X1.54940 Y13.67028
X1.57480 Y13.67028
X1.57480 Y13.74648
X1.60020 Y13.74648
X1.60020 Y13.82268
X1.62560 Y13.82268
X1.62560 Y13.87348
X1.65100 Y13.87348
X1.65100 Y13.89888
X1.67640 Y13.89888
X1.67640 Y13.94968
X1.70180 Y13.94968
X1.70180 Y14.00048
X1.72720 Y14.00048
X1.72720 Y14.02588
X1.75260 Y14.02588
X1.75260 Y14.05128
X1.77800 Y14.05128
X1.77800 Y14.07668
X1.80340 Y14.07668
X1.80340 Y14.12748
X1.82880 Y14.12748
X1.82880 Y14.15288
X1.85420 Y14.15288
X1.85420 Y14.17828
X1.87960 Y14.17828
X1.87960 Y14.20368
X1.93040 Y14.20368
X1.93040 Y14.22908
X1.95580 Y14.22908
X1.95580 Y14.25448
X1.98120 Y14.25448
X1.98120 Y14.27988
X2.03200 Y14.27988
X2.03200 Y14.30528
X2.05740 Y14.30528
X2.05740 Y14.33068
X2.13360 Y14.33068
X2.13360 Y14.35608
X2.18440 Y14.35608
X2.18440 Y14.38148
X2.23520 Y14.38148
X2.23520 Y14.40688
X2.33680 Y14.40688
X2.33680 Y14.43228
X2.43840 Y14.43228
X2.43840 Y14.45768
X3.25120 Y14.45768
X3.25120 Y26.77668
X2.43840 Y26.77668
X2.43840 Y26.80208
X2.33680 Y26.80208
X2.33680 Y26.82748
X2.23520 Y26.82748
X2.23520 Y26.85288
X2.18440 Y26.85288
X2.18440 Y26.87828
X2.13360 Y26.87828
X2.13360 Y26.90368
X2.05740 Y26.90368
X2.05740 Y26.92908
X2.03200 Y26.92908
X2.03200 Y26.95448
X1.98120 Y26.95448
X1.98120 Y26.97988
X1.95580 Y26.97988
X1.95580 Y27.00528
X1.93040 Y27.00528
X1.93040 Y27.03068
X1.87960 Y27.03068
X1.87960 Y27.05608
X1.85420 Y27.05608
X1.85420 Y27.08148
X1.82880 Y27.08148
X1.82880 Y27.10688
X1.80340 Y27.10688
X1.80340 Y27.15768
X1.77800 Y27.15768
X1.77800 Y27.18308
X1.75260 Y27.18308
X1.75260 Y27.20848
X1.72720 Y27.20848
X1.72720 Y27.23388
X1.70180 Y27.23388
X1.70180 Y27.28468
X1.67640 Y27.28468
X1.67640 Y27.33548
X1.65100 Y27.33548
X1.65100 Y27.36088
X1.62560 Y27.36088
X1.62560 Y27.41168
X1.60020 Y27.41168
X1.60020 Y27.48788
X1.57480 Y27.48788
X1.57480 Y27.56408
X1.54940 Y27.56408
X1.54940 Y27.71648
X1.52400 Y27.71648
X1.52400 Y28.75788
X1.54940 Y28.75788
X1.54940 Y28.91028
X1.57480 Y28.91028
X1.57480 Y28.98648
X1.60020 Y28.98648
X1.60020 Y29.06268
X1.62560 Y29.06268
X1.62560 Y29.11348
X1.65100 Y29.11348
X1.65100 Y29.13888
X1.67640 Y29.13888
X1.67640 Y29.18968
X1.70180 Y29.18968
X1.70180 Y29.24048
X1.72720 Y29.24048
X1.72720 Y29.26588
X1.75260 Y29.26588
X1.75260 Y29.29128
X1.77800 Y29.29128
X1.77800 Y29.31668
X1.80340 Y29.31668
X1.80340 Y29.36748
X1.82880 Y29.36748
X1.82880 Y29.39288
X1.85420 Y29.39288
X1.85420 Y29.41828
X1.87960 Y29.41828
X1.87960 Y29.44368
X1.93040 Y29.44368
X1.93040 Y29.46908
X1.95580 Y29.46908
X1.95580 Y29.49448
X1.98120 Y29.49448
X1.98120 Y29.51988
X2.03200 Y29.51988
X2.03200 Y29.54528
X2.05740 Y29.54528
X2.05740 Y29.57068
X2.13360 Y29.57068
X2.13360 Y29.59608
X2.18440 Y29.59608
X2.18440 Y29.62148
X2.23520 Y29.62148
X2.23520 Y29.64688
X2.33680 Y29.64688
X2.33680 Y29.67228
X2.43840 Y29.67228
X2.43840 Y29.69768
X5.66420 Y29.69768
X5.66420 Y29.67228
X5.76580 Y29.67228
X5.76580 Y29.64688
X5.86740 Y29.64688
X5.86740 Y29.62148
X5.91820 Y29.62148
X5.91820 Y29.59608
X5.96900 Y29.59608
X5.96900 Y29.57068
X6.04520 Y29.57068
X6.04520 Y29.54528
X6.07060 Y29.54528
X6.07060 Y29.51988
X6.12140 Y29.51988
X6.12140 Y29.49448
X6.14680 Y29.49448
X6.14680 Y29.46908
X6.17220 Y29.46908
X6.17220 Y29.44368
X6.22300 Y29.44368
X6.22300 Y29.41828
X6.24840 Y29.41828
X6.24840 Y29.39288
X6.27380 Y29.39288
X6.27380 Y29.36748
X6.29920 Y29.36748
X6.29920 Y29.31668
X6.32460 Y29.31668
X6.32460 Y29.29128
G04 P0 ( dwell for no time -- G64 should not smooth over this point )
G00 Z5.00000 ( retract )

G00 X19.02460 Y29.29128 ( rapid move to begin. )
G01 Z0.00000
G04 P0 ( dwell for no time -- G64 should not smooth over this point )
X19.02460 Y29.29128
X19.05000 Y29.29128
X19.05000 Y29.26588
X19.07540 Y29.26588
X19.07540 Y29.24048
X19.10080 Y29.24048
X19.10080 Y29.18968
X19.12620 Y29.18968
X19.12620 Y29.13888
X19.15160 Y29.13888
X19.15160 Y29.11348
X19.17700 Y29.11348
X19.17700 Y29.06268
X19.20240 Y29.06268
X19.20240 Y28.98648
X19.22780 Y28.98648
X19.22780 Y28.91028
X19.25320 Y28.91028
X19.25320 Y28.75788
X19.27860 Y28.75788
X19.27860 Y27.71648
X19.25320 Y27.71648
X19.25320 Y27.56408
X19.22780 Y27.56408
X19.22780 Y27.48788
X19.20240 Y27.48788
X19.20240 Y27.41168
X19.17700 Y27.41168
X19.17700 Y27.36088
X19.15160 Y27.36088
X19.15160 Y27.33548
X19.12620 Y27.33548
X19.12620 Y27.28468
X19.10080 Y27.28468
X19.10080 Y27.23388
X19.07540 Y27.23388
X19.07540 Y27.20848
X19.05000 Y27.20848
X19.05000 Y27.18308
X19.02460 Y27.18308
X19.02460 Y27.15768
X18.99920 Y27.15768
X18.99920 Y27.10688
X18.97380 Y27.10688
X18.97380 Y27.08148
X18.94840 Y27.08148
X18.94840 Y27.05608
X18.92300 Y27.05608
X18.92300 Y27.03068
X18.87220 Y27.03068
X18.87220 Y27.00528
X18.84680 Y27.00528
X18.84680 Y26.97988
X18.82140 Y26.97988
X18.82140 Y26.95448
X18.77060 Y26.95448
X18.77060 Y26.92908
X18.74520 Y26.92908
X18.74520 Y26.90368
X18.66900 Y26.90368
X18.66900 Y26.87828
X18.61820 Y26.87828
X18.61820 Y26.85288
X18.56740 Y26.85288
X18.56740 Y26.82748
X18.46580 Y26.82748
X18.46580 Y26.80208
X18.36420 Y26.80208
X18.36420 Y26.77668
X18.31340 Y26.77668
X18.31340 Y26.75128
X18.33880 Y26.75128
X18.33880 Y26.72588
X18.36420 Y26.72588
X18.36420 Y26.70048
X18.38960 Y26.70048
X18.38960 Y26.67508
X18.41500 Y26.67508
X18.41500 Y26.64968
X18.44040 Y26.64968
X18.44040 Y26.62428
X18.46580 Y26.62428
X18.46580 Y26.59888
X18.49120 Y26.59888
X18.49120 Y26.57348
X18.51660 Y26.57348
X18.51660 Y26.54808
X18.54200 Y26.54808
X18.54200 Y26.52268
X18.56740 Y26.52268
X18.56740 Y26.49728
X18.59280 Y26.49728
X18.59280 Y26.47188
X18.61820 Y26.47188
X18.61820 Y26.44648
X18.64360 Y26.44648
X18.64360 Y26.42108
X18.66900 Y26.42108
X18.66900 Y26.39568
X18.69440 Y26.39568
X18.69440 Y26.37028
X18.71980 Y26.37028
X18.71980 Y26.34488
X18.74520 Y26.34488
X18.74520 Y26.31948
X18.77060 Y26.31948
X18.77060 Y26.29408
X18.79600 Y26.29408
X18.79600 Y26.26868
X18.82140 Y26.26868
X18.82140 Y26.24328
X18.84680 Y26.24328
X18.84680 Y26.21788
X18.87220 Y26.21788
X18.87220 Y26.19248
X18.89760 Y26.19248
X18.89760 Y26.16708
X18.92300 Y26.16708
X18.92300 Y26.14168
X18.94840 Y26.14168
X18.94840 Y26.11628
X18.97380 Y26.11628
X18.97380 Y26.09088
X18.99920 Y26.09088
X18.99920 Y26.06548
X19.02460 Y26.06548
X19.02460 Y26.04008
X19.05000 Y26.04008
X19.05000 Y26.01468
X19.07540 Y26.01468
X19.07540 Y25.98928
X19.10080 Y25.98928
X19.10080 Y25.96388
X19.12620 Y25.96388
X19.12620 Y25.93848
X19.15160 Y25.93848
X19.15160 Y25.91308
X19.17700 Y25.91308
X19.17700 Y25.88768
X19.20240 Y25.88768
X19.20240 Y25.86228
X19.22780 Y25.86228
X19.22780 Y25.83688
X19.25320 Y25.83688
X19.25320 Y25.81148
X19.27860 Y25.81148
X19.27860 Y25.78608
X19.30400 Y25.78608
X19.30400 Y25.76068
X19.32940 Y25.76068
X19.32940 Y25.73528
X19.35480 Y25.73528
X19.35480 Y25.70988
X19.38020 Y25.70988
X19.38020 Y25.68448
X19.40560 Y25.68448
X19.40560 Y25.65908
X19.43100 Y25.65908
X19.43100 Y25.63368
X19.45640 Y25.63368
X19.45640 Y25.60828
X19.48180 Y25.60828
X19.48180 Y25.58288
X19.50720 Y25.58288
X19.50720 Y25.55748
X19.53260 Y25.55748
X19.53260 Y25.53208
X19.55800 Y25.53208
X19.55800 Y25.50668
X19.58340 Y25.50668
X19.58340 Y25.48128
X19.60880 Y25.48128
X19.60880 Y25.45588
X19.63420 Y25.45588
X19.63420 Y25.43048
X19.65960 Y25.43048
X19.65960 Y25.40508
X19.68500 Y25.40508
X19.68500 Y25.37968
X19.71040 Y25.37968
X19.71040 Y25.35428
X19.73580 Y25.35428
X19.73580 Y25.32888
X19.76120 Y25.32888
X19.76120 Y25.30348
X19.78660 Y25.30348
X19.78660 Y25.27808
X19.81200 Y25.27808
X19.81200 Y25.25268
X19.83740 Y25.25268
X19.83740 Y25.22728
X19.86280 Y25.22728
X19.86280 Y25.20188
X19.88820 Y25.20188
X19.88820 Y25.17648
X19.91360 Y25.17648
X19.91360 Y25.15108
X19.93900 Y25.15108
X19.93900 Y25.12568
X19.96440 Y25.12568
X19.96440 Y25.10028
X19.98980 Y25.10028
X19.98980 Y25.07488
X20.01520 Y25.07488
X20.01520 Y25.04948
X20.04060 Y25.04948
X20.04060 Y25.02408
X20.06600 Y25.02408
X20.06600 Y24.99868
X20.09140 Y24.99868
X20.09140 Y24.97328
X20.11680 Y24.97328
X20.11680 Y24.94788
X20.14220 Y24.94788
X20.14220 Y24.92248
X20.16760 Y24.92248
X20.16760 Y24.89708
X20.19300 Y24.89708
X20.19300 Y24.87168
X20.21840 Y24.87168
X20.21840 Y24.84628
X20.24380 Y24.84628
X20.24380 Y24.82088
X20.26920 Y24.82088
X20.26920 Y24.79548
X20.29460 Y24.79548
X20.29460 Y24.77008
X20.32000 Y24.77008
X20.32000 Y24.74468
X20.34540 Y24.74468
X20.34540 Y24.71928
X20.37080 Y24.71928
X20.37080 Y24.69388
X20.39620 Y24.69388
X20.39620 Y24.66848
X20.42160 Y24.66848
X20.42160 Y24.64308
X20.44700 Y24.64308
X20.44700 Y24.61768
X22.17420 Y24.61768
X22.17420 Y24.59228
X22.27580 Y24.59228
X22.27580 Y24.56688
X22.37740 Y24.56688
X22.37740 Y24.54148
X22.42820 Y24.54148
X22.42820 Y24.51608
X22.47900 Y24.51608
X22.47900 Y24.49068
X22.55520 Y24.49068
X22.55520 Y24.46528
X22.58060 Y24.46528
X22.58060 Y24.43988
X22.63140 Y24.43988
X22.63140 Y24.41448
X22.65680 Y24.41448
X22.65680 Y24.38908
X22.68220 Y24.38908
X22.68220 Y24.36368
X22.73300 Y24.36368
X22.73300 Y24.33828
X22.75840 Y24.33828
X22.75840 Y24.31288
X22.78380 Y24.31288
X22.78380 Y24.28748
X22.80920 Y24.28748
X22.80920 Y24.23668
X22.83460 Y24.23668
X22.83460 Y24.21128
X22.86000 Y24.21128
X22.86000 Y24.18588
X22.88540 Y24.18588
X22.88540 Y24.16048
X22.91080 Y24.16048
X22.91080 Y24.10968
X22.93620 Y24.10968
X22.93620 Y24.05888
X22.96160 Y24.05888
X22.96160 Y24.03348
X22.98700 Y24.03348
X22.98700 Y23.98268
X23.01240 Y23.98268
X23.01240 Y23.95728
X24.38400 Y23.95728
X24.38400 Y23.98268
X24.40940 Y23.98268
X24.40940 Y24.00808
X24.43480 Y24.00808
X24.43480 Y24.03348
X24.46020 Y24.03348
X24.46020 Y24.05888
X24.48560 Y24.05888
X24.48560 Y24.08428
X24.51100 Y24.08428
X24.51100 Y24.10968
X24.53640 Y24.10968
X24.53640 Y24.13508
X24.56180 Y24.13508
X24.56180 Y24.16048
X24.58720 Y24.16048
X24.58720 Y24.18588
X24.61260 Y24.18588
X24.61260 Y24.21128
X24.63800 Y24.21128
X24.63800 Y24.23668
X24.66340 Y24.23668
X24.66340 Y24.26208
X24.68880 Y24.26208
X24.68880 Y24.28748
X24.71420 Y24.28748
X24.71420 Y24.31288
X24.73960 Y24.31288
X24.73960 Y24.33828
X24.76500 Y24.33828
X24.76500 Y24.36368
X24.79040 Y24.36368
X24.79040 Y24.38908
X24.81580 Y24.38908
X24.81580 Y24.41448
X24.84120 Y24.41448
X24.84120 Y26.97988
X24.81580 Y26.97988
X24.81580 Y27.00528
X24.79040 Y27.00528
X24.79040 Y27.03068
X24.76500 Y27.03068
X24.76500 Y27.05608
X24.73960 Y27.05608
X24.73960 Y27.08148
X24.71420 Y27.08148
X24.71420 Y27.10688
X24.68880 Y27.10688
X24.68880 Y27.13228
X24.66340 Y27.13228
X24.66340 Y27.15768
X24.63800 Y27.15768
X24.63800 Y27.18308
X24.61260 Y27.18308
X24.61260 Y27.20848
X24.58720 Y27.20848
X24.58720 Y27.23388
X24.56180 Y27.23388
X24.56180 Y27.25928
X24.53640 Y27.25928
X24.53640 Y27.28468
X24.51100 Y27.28468
X24.51100 Y27.31008
X24.48560 Y27.31008
X24.48560 Y27.33548
X24.46020 Y27.33548
X24.46020 Y27.36088
X24.43480 Y27.36088
X24.43480 Y27.38628
X24.40940 Y27.38628
X24.40940 Y27.41168
X24.38400 Y27.41168
X24.38400 Y27.43708
X24.35860 Y27.43708
X24.35860 Y27.46248
X24.33320 Y27.46248
X24.33320 Y29.01188
X24.35860 Y29.01188
X24.35860 Y29.03728
X24.38400 Y29.03728
X24.38400 Y29.06268
X24.40940 Y29.06268
X24.40940 Y29.08808
X24.43480 Y29.08808
X24.43480 Y29.11348
X24.46020 Y29.11348
X24.46020 Y29.13888
X24.48560 Y29.13888
X24.48560 Y29.16428
X24.51100 Y29.16428
X24.51100 Y29.18968
X24.53640 Y29.18968
X24.53640 Y29.21508
X24.56180 Y29.21508
X24.56180 Y29.24048
X24.58720 Y29.24048
X24.58720 Y29.26588
X24.61260 Y29.26588
X24.61260 Y29.29128
X24.63800 Y29.29128
X24.63800 Y29.31668
X24.66340 Y29.31668
X24.66340 Y29.34208
X24.68880 Y29.34208
X24.68880 Y29.36748
X24.71420 Y29.36748
X24.71420 Y29.39288
X24.73960 Y29.39288
X24.73960 Y29.41828
X24.76500 Y29.41828
X24.76500 Y29.44368
X24.79040 Y29.44368
X24.79040 Y29.46908
X24.81580 Y29.46908
X24.81580 Y29.49448
X24.84120 Y29.49448
X24.84120 Y29.51988
X24.86660 Y29.51988
X24.86660 Y29.54528
X26.41600 Y29.54528
X26.41600 Y29.51988
X26.44140 Y29.51988
X26.44140 Y29.49448
X26.46680 Y29.49448
X26.46680 Y29.46908
X26.49220 Y29.46908
X26.49220 Y29.44368
X26.51760 Y29.44368
X26.51760 Y29.41828
X26.54300 Y29.41828
X26.54300 Y29.39288
X26.56840 Y29.39288
X26.56840 Y29.36748
X26.59380 Y29.36748
X26.59380 Y29.34208
X26.61920 Y29.34208
X26.61920 Y29.31668
X26.64460 Y29.31668
X26.64460 Y29.29128
X26.67000 Y29.29128
X26.67000 Y29.26588
X26.69540 Y29.26588
X26.69540 Y29.24048
X26.72080 Y29.24048
X26.72080 Y29.21508
X26.74620 Y29.21508
X26.74620 Y29.18968
X26.77160 Y29.18968
X26.77160 Y29.16428
X26.79700 Y29.16428
X26.79700 Y29.13888
X26.82240 Y29.13888
X26.82240 Y29.11348
X26.84780 Y29.11348
X26.84780 Y29.08808
X26.87320 Y29.08808
X26.87320 Y29.06268
X26.89860 Y29.06268
X26.89860 Y29.03728
X26.92400 Y29.03728
X26.92400 Y29.01188
X26.94940 Y29.01188
X26.94940 Y27.46248
X26.92400 Y27.46248
X26.92400 Y27.43708
X26.89860 Y27.43708
X26.89860 Y27.41168
X26.87320 Y27.41168
X26.87320 Y27.38628
X26.84780 Y27.38628
X26.84780 Y27.36088
X26.82240 Y27.36088
X26.82240 Y27.33548
X26.79700 Y27.33548
X26.79700 Y27.31008
X26.77160 Y27.31008
X26.77160 Y27.28468
X26.74620 Y27.28468
X26.74620 Y27.25928
X26.72080 Y27.25928
X26.72080 Y27.23388
X26.69540 Y27.23388
X26.69540 Y27.20848
X26.67000 Y27.20848
X26.67000 Y27.18308
X26.64460 Y27.18308
X26.64460 Y27.15768
X26.61920 Y27.15768
X26.61920 Y27.13228
X26.59380 Y27.13228
X26.59380 Y27.10688
X26.56840 Y27.10688
X26.56840 Y27.08148
X26.54300 Y27.08148
X26.54300 Y27.05608
X26.51760 Y27.05608
X26.51760 Y27.03068
X26.49220 Y27.03068
X26.49220 Y27.00528
X26.46680 Y27.00528
X26.46680 Y26.97988
X26.44140 Y26.97988
X26.44140 Y24.41448
X26.46680 Y24.41448
X26.46680 Y24.38908
X26.49220 Y24.38908
X26.49220 Y24.36368
X26.51760 Y24.36368
X26.51760 Y24.33828
X26.54300 Y24.33828
X26.54300 Y24.31288
X26.56840 Y24.31288
X26.56840 Y24.28748
X26.59380 Y24.28748
X26.59380 Y24.26208
X26.61920 Y24.26208
X26.61920 Y24.23668
X26.64460 Y24.23668
X26.64460 Y24.21128
X26.67000 Y24.21128
X26.67000 Y24.18588
X26.69540 Y24.18588
X26.69540 Y24.16048
X26.72080 Y24.16048
X26.72080 Y24.13508
X26.74620 Y24.13508
X26.74620 Y24.10968
X26.77160 Y24.10968
X26.77160 Y24.08428
X26.79700 Y24.08428
X26.79700 Y24.05888
X26.82240 Y24.05888
X26.82240 Y24.03348
X26.84780 Y24.03348
X26.84780 Y24.00808
X26.87320 Y24.00808
X26.87320 Y23.98268
X26.89860 Y23.98268
X26.89860 Y23.95728
X26.92400 Y23.95728
X26.92400 Y23.93188
X26.94940 Y23.93188
X26.94940 Y22.38248
X26.92400 Y22.38248
X26.92400 Y22.35708
X26.89860 Y22.35708
X26.89860 Y22.33168
X26.87320 Y22.33168
X26.87320 Y22.30628
X26.84780 Y22.30628
X26.84780 Y22.28088
X26.82240 Y22.28088
X26.82240 Y22.25548
X26.79700 Y22.25548
X26.79700 Y22.23008
X26.77160 Y22.23008
X26.77160 Y22.20468
X26.74620 Y22.20468
X26.74620 Y22.17928
X26.72080 Y22.17928
X26.72080 Y22.15388
X26.69540 Y22.15388
X26.69540 Y22.12848
X26.67000 Y22.12848
X26.67000 Y22.10308
X26.64460 Y22.10308
X26.64460 Y22.07768
X26.61920 Y22.07768
X26.61920 Y22.05228
X26.59380 Y22.05228
X26.59380 Y22.02688
X26.56840 Y22.02688
X26.56840 Y22.00148
X26.54300 Y22.00148
X26.54300 Y21.97608
X26.51760 Y21.97608
X26.51760 Y21.95068
X26.49220 Y21.95068
X26.49220 Y21.92528
X26.46680 Y21.92528
X26.46680 Y21.89988
X26.44140 Y21.89988
X26.44140 Y21.87448
X26.41600 Y21.87448
X26.41600 Y21.84908
X24.86660 Y21.84908
X24.86660 Y21.87448
X24.84120 Y21.87448
X24.84120 Y21.89988
X24.81580 Y21.89988
X24.81580 Y21.92528
X24.79040 Y21.92528
X24.79040 Y21.95068
X24.76500 Y21.95068
X24.76500 Y21.97608
X24.73960 Y21.97608
X24.73960 Y22.00148
X24.71420 Y22.00148
X24.71420 Y22.02688
X24.68880 Y22.02688
X24.68880 Y22.05228
X24.66340 Y22.05228
X24.66340 Y22.07768
X24.63800 Y22.07768
X24.63800 Y22.10308
X24.61260 Y22.10308
X24.61260 Y22.12848
X24.58720 Y22.12848
X24.58720 Y22.15388
X24.56180 Y22.15388
X24.56180 Y22.17928
X24.53640 Y22.17928
X24.53640 Y22.20468
X24.51100 Y22.20468
X24.51100 Y22.23008
X24.48560 Y22.23008
X24.48560 Y22.25548
X24.46020 Y22.25548
X24.46020 Y22.28088
X24.43480 Y22.28088
X24.43480 Y22.30628
X24.40940 Y22.30628
X24.40940 Y22.33168
X24.38400 Y22.33168
X24.38400 Y22.35708
X23.01240 Y22.35708
X23.01240 Y22.33168
X22.98700 Y22.33168
X22.98700 Y22.28088
X22.96160 Y22.28088
X22.96160 Y22.25548
X22.93620 Y22.25548
X22.93620 Y22.20468
X22.91080 Y22.20468
X22.91080 Y22.15388
X22.88540 Y22.15388
X22.88540 Y22.12848
X22.86000 Y22.12848
X22.86000 Y22.10308
X22.83460 Y22.10308
X22.83460 Y22.07768
X22.80920 Y22.07768
X22.80920 Y22.02688
X22.78380 Y22.02688
X22.78380 Y22.00148
X22.75840 Y22.00148
X22.75840 Y21.97608
X22.73300 Y21.97608
X22.73300 Y21.95068
X22.68220 Y21.95068
X22.68220 Y21.92528
X22.65680 Y21.92528
X22.65680 Y21.89988
X22.63140 Y21.89988
X22.63140 Y21.87448
X22.58060 Y21.87448
X22.58060 Y21.84908
X22.55520 Y21.84908
X22.55520 Y21.82368
X22.47900 Y21.82368
X22.47900 Y21.79828
X22.42820 Y21.79828
X22.42820 Y21.77288
X22.37740 Y21.77288
X22.37740 Y21.74748
X22.27580 Y21.74748
X22.27580 Y21.72208
X22.17420 Y21.72208
X22.17420 Y21.69668
X18.94840 Y21.69668
X18.94840 Y21.72208
X18.84680 Y21.72208
X18.84680 Y21.74748
X18.74520 Y21.74748
X18.74520 Y21.77288
X18.69440 Y21.77288
X18.69440 Y21.79828
X18.64360 Y21.79828
X18.64360 Y21.82368
X18.56740 Y21.82368
X18.56740 Y21.84908
X18.54200 Y21.84908
X18.54200 Y21.87448
X18.49120 Y21.87448
X18.49120 Y21.89988
X18.46580 Y21.89988
X18.46580 Y21.92528
X18.44040 Y21.92528
X18.44040 Y21.95068
X18.38960 Y21.95068
X18.38960 Y21.97608
X18.36420 Y21.97608
X18.36420 Y22.00148
X18.33880 Y22.00148
X18.33880 Y22.02688
X18.31340 Y22.02688
X18.31340 Y22.07768
X18.28800 Y22.07768
X18.28800 Y22.10308
X18.26260 Y22.10308
X18.26260 Y22.12848
X18.23720 Y22.12848
X18.23720 Y22.15388
X18.21180 Y22.15388
X18.21180 Y22.20468
X18.18640 Y22.20468
X18.18640 Y22.25548
X18.16100 Y22.25548
X18.16100 Y22.28088
X18.13560 Y22.28088
X18.13560 Y22.33168
X18.11020 Y22.33168
X18.11020 Y22.40788
X18.08480 Y22.40788
X18.08480 Y22.48408
X18.05940 Y22.48408
X18.05940 Y22.63648
X18.03400 Y22.63648
X18.03400 Y23.67788
X18.05940 Y23.67788
X18.05940 Y23.83028
X18.08480 Y23.83028
X18.08480 Y23.90648
X18.11020 Y23.90648
X18.11020 Y23.98268
X18.13560 Y23.98268
X18.13560 Y24.03348
X18.16100 Y24.03348
X18.16100 Y24.05888
X18.18640 Y24.05888
X18.18640 Y24.10968
X18.21180 Y24.10968
X18.21180 Y24.16048
X18.18640 Y24.16048
X18.18640 Y24.18588
X18.16100 Y24.18588
X18.16100 Y24.21128
X18.13560 Y24.21128
X18.13560 Y24.23668
X18.11020 Y24.23668
X18.11020 Y24.26208
X18.08480 Y24.26208
X18.08480 Y24.28748
X18.05940 Y24.28748
X18.05940 Y24.31288
X18.03400 Y24.31288
X18.03400 Y24.33828
X18.00860 Y24.33828
X18.00860 Y24.36368
X17.98320 Y24.36368
X17.98320 Y24.38908
X17.95780 Y24.38908
X17.95780 Y24.41448
X17.93240 Y24.41448
X17.93240 Y24.43988
X17.90700 Y24.43988
X17.90700 Y24.46528
X17.88160 Y24.46528
X17.88160 Y24.49068
X17.85620 Y24.49068
X17.85620 Y24.51608
X17.83080 Y24.51608
X17.83080 Y24.54148
X17.80540 Y24.54148
X17.80540 Y24.56688
X17.78000 Y24.56688
X17.78000 Y24.59228
X17.75460 Y24.59228
X17.75460 Y24.61768
X17.72920 Y24.61768
X17.72920 Y24.64308
X17.70380 Y24.64308
X17.70380 Y24.66848
X17.67840 Y24.66848
X17.67840 Y24.69388
X17.65300 Y24.69388
X17.65300 Y24.71928
X17.62760 Y24.71928
X17.62760 Y24.74468
X17.60220 Y24.74468
X17.60220 Y24.77008
X17.57680 Y24.77008
X17.57680 Y24.79548
X17.55140 Y24.79548
X17.55140 Y24.82088
X17.52600 Y24.82088
X17.52600 Y24.84628
X17.50060 Y24.84628
X17.50060 Y24.87168
X17.47520 Y24.87168
X17.47520 Y24.89708
X17.44980 Y24.89708
X17.44980 Y24.92248
X17.42440 Y24.92248
X17.42440 Y24.94788
X17.39900 Y24.94788
X17.39900 Y24.97328
X17.37360 Y24.97328
X17.37360 Y24.99868
X17.34820 Y24.99868
X17.34820 Y25.02408
X17.32280 Y25.02408
X17.32280 Y25.04948
X17.29740 Y25.04948
X17.29740 Y25.07488
X17.27200 Y25.07488
X17.27200 Y25.10028
X17.24660 Y25.10028
X17.24660 Y25.12568
X17.22120 Y25.12568
X17.22120 Y25.15108
X17.19580 Y25.15108
X17.19580 Y25.17648
X17.17040 Y25.17648
X17.17040 Y25.20188
X17.14500 Y25.20188
X17.14500 Y25.22728
X17.11960 Y25.22728
X17.11960 Y25.25268
X17.09420 Y25.25268
X17.09420 Y25.27808
X17.06880 Y25.27808
X17.06880 Y25.30348
X17.04340 Y25.30348
X17.04340 Y25.32888
X17.01800 Y25.32888
X17.01800 Y25.35428
X16.99260 Y25.35428
X16.99260 Y25.37968
X16.96720 Y25.37968
X16.96720 Y25.40508
X16.94180 Y25.40508
X16.94180 Y25.43048
X16.91640 Y25.43048
X16.91640 Y25.45588
X16.89100 Y25.45588
X16.89100 Y25.48128
X16.86560 Y25.48128
X16.86560 Y25.50668
X16.84020 Y25.50668
X16.84020 Y25.53208
X16.81480 Y25.53208
X16.81480 Y25.55748
X16.78940 Y25.55748
X16.78940 Y25.58288
X16.76400 Y25.58288
X16.76400 Y25.60828
X16.73860 Y25.60828
X16.73860 Y25.63368
X16.71320 Y25.63368
X16.71320 Y25.65908
X16.68780 Y25.65908
X16.68780 Y25.68448
X16.66240 Y25.68448
X16.66240 Y25.70988
X16.63700 Y25.70988
X16.63700 Y25.73528
X16.61160 Y25.73528
X16.61160 Y25.76068
X16.58620 Y25.76068
X16.58620 Y25.78608
X16.56080 Y25.78608
X16.56080 Y25.81148
X16.53540 Y25.81148
X16.53540 Y25.83688
X16.51000 Y25.83688
X16.51000 Y25.86228
X16.48460 Y25.86228
X16.48460 Y25.88768
X16.45920 Y25.88768
X16.45920 Y25.91308
X16.43380 Y25.91308
X16.43380 Y25.93848
X16.40840 Y25.93848
X16.40840 Y25.96388
X16.38300 Y25.96388
X16.38300 Y25.98928
X16.35760 Y25.98928
X16.35760 Y26.01468
X16.33220 Y26.01468
X16.33220 Y26.04008
X16.30680 Y26.04008
X16.30680 Y26.06548
X16.28140 Y26.06548
X16.28140 Y26.09088
X16.25600 Y26.09088
X16.25600 Y26.11628
X16.23060 Y26.11628
X16.23060 Y26.14168
X16.20520 Y26.14168
X16.20520 Y26.16708
X16.17980 Y26.16708
X16.17980 Y26.19248
X16.15440 Y26.19248
X16.15440 Y26.21788
X16.12900 Y26.21788
X16.12900 Y26.24328
X16.10360 Y26.24328
X16.10360 Y26.26868
X16.07820 Y26.26868
X16.07820 Y26.29408
X16.05280 Y26.29408
X16.05280 Y26.31948
X16.02740 Y26.31948
X16.02740 Y26.37028
X16.00200 Y26.37028
X16.00200 Y26.42108
X15.97660 Y26.42108
X15.97660 Y26.49728
X15.95120 Y26.49728
X15.95120 Y26.77668
X15.13840 Y26.77668
X15.13840 Y26.80208
X15.03680 Y26.80208
X15.03680 Y26.82748
X14.93520 Y26.82748
X14.93520 Y26.85288
X14.88440 Y26.85288
X14.88440 Y26.87828
X14.83360 Y26.87828
X14.83360 Y26.90368
X14.75740 Y26.90368
X14.75740 Y26.92908
X14.73200 Y26.92908
X14.73200 Y26.95448
X14.68120 Y26.95448
X14.68120 Y26.97988
X14.65580 Y26.97988
X14.65580 Y27.00528
X14.63040 Y27.00528
X14.63040 Y27.03068
X14.57960 Y27.03068
X14.57960 Y27.05608
X14.55420 Y27.05608
X14.55420 Y27.08148
X14.52880 Y27.08148
X14.52880 Y27.10688
X14.50340 Y27.10688
X14.50340 Y27.15768
X14.47800 Y27.15768
X14.47800 Y27.18308
X14.45260 Y27.18308
X14.45260 Y27.20848
X14.42720 Y27.20848
X14.42720 Y27.23388
X14.40180 Y27.23388
X14.40180 Y27.28468
X14.37640 Y27.28468
X14.37640 Y27.33548
X14.35100 Y27.33548
X14.35100 Y27.36088
X14.32560 Y27.36088
X14.32560 Y27.41168
X14.30020 Y27.41168
X14.30020 Y27.48788
X14.27480 Y27.48788
X14.27480 Y27.56408
X14.24940 Y27.56408
X14.24940 Y27.71648
X14.22400 Y27.71648
X14.22400 Y28.75788
X14.24940 Y28.75788
X14.24940 Y28.91028
X14.27480 Y28.91028
X14.27480 Y28.98648
X14.30020 Y28.98648
X14.30020 Y29.06268
X14.32560 Y29.06268
X14.32560 Y29.11348
X14.35100 Y29.11348
X14.35100 Y29.13888
X14.37640 Y29.13888
X14.37640 Y29.18968
X14.40180 Y29.18968
X14.40180 Y29.24048
X14.42720 Y29.24048
X14.42720 Y29.26588
X14.45260 Y29.26588
X14.45260 Y29.29128
X14.47800 Y29.29128
X14.47800 Y29.31668
X14.50340 Y29.31668
X14.50340 Y29.36748
X14.52880 Y29.36748
X14.52880 Y29.39288
X14.55420 Y29.39288
X14.55420 Y29.41828
X14.57960 Y29.41828
X14.57960 Y29.44368
X14.63040 Y29.44368
X14.63040 Y29.46908
X14.65580 Y29.46908
X14.65580 Y29.49448
X14.68120 Y29.49448
X14.68120 Y29.51988
X14.73200 Y29.51988
X14.73200 Y29.54528
X14.75740 Y29.54528
X14.75740 Y29.57068
X14.83360 Y29.57068
X14.83360 Y29.59608
X14.88440 Y29.59608
X14.88440 Y29.62148
X14.93520 Y29.62148
X14.93520 Y29.64688
X15.03680 Y29.64688
X15.03680 Y29.67228
X15.13840 Y29.67228
X15.13840 Y29.69768
X18.36420 Y29.69768
X18.36420 Y29.67228
X18.46580 Y29.67228
X18.46580 Y29.64688
X18.56740 Y29.64688
X18.56740 Y29.62148
X18.61820 Y29.62148
X18.61820 Y29.59608
X18.66900 Y29.59608
X18.66900 Y29.57068
X18.74520 Y29.57068
X18.74520 Y29.54528
X18.77060 Y29.54528
X18.77060 Y29.51988
X18.82140 Y29.51988
X18.82140 Y29.49448
X18.84680 Y29.49448
X18.84680 Y29.46908
X18.87220 Y29.46908
X18.87220 Y29.44368
X18.92300 Y29.44368
X18.92300 Y29.41828
X18.94840 Y29.41828
X18.94840 Y29.39288
X18.97380 Y29.39288
X18.97380 Y29.36748
X18.99920 Y29.36748
X18.99920 Y29.31668
X19.02460 Y29.31668
X19.02460 Y29.29128
G04 P0 ( dwell for no time -- G64 should not smooth over this point )
G00 Z5.00000 ( retract )

G00 X36.95700 Y29.13888 ( rapid move to begin. )
G01 Z0.00000
G04 P0 ( dwell for no time -- G64 should not smooth over this point )
X36.95700 Y29.13888
X36.98240 Y29.13888
X36.98240 Y29.11348
X37.00780 Y29.11348
X37.00780 Y29.08808
X37.03320 Y29.08808
X37.03320 Y29.06268
X37.05860 Y29.06268
X37.05860 Y29.03728
X37.08400 Y29.03728
X37.08400 Y29.01188
X37.10940 Y29.01188
X37.10940 Y28.27528
X37.13480 Y28.27528
X37.13480 Y28.24988
X37.16020 Y28.24988
X37.16020 Y28.22448
X37.18560 Y28.22448
X37.18560 Y28.19908
X37.21100 Y28.19908
X37.21100 Y28.17368
X37.23640 Y28.17368
X37.23640 Y28.14828
X37.26180 Y28.14828
X37.26180 Y28.12288
X37.28720 Y28.12288
X37.28720 Y28.09748
X37.31260 Y28.09748
X37.31260 Y28.07208
X37.33800 Y28.07208
X37.33800 Y28.04668
X37.36340 Y28.04668
X37.36340 Y28.02128
X37.38880 Y28.02128
X37.38880 Y27.99588
X37.41420 Y27.99588
X37.41420 Y27.97048
X37.43960 Y27.97048
X37.43960 Y27.94508
X37.46500 Y27.94508
X37.46500 Y27.91968
X37.49040 Y27.91968
X37.49040 Y27.89428
X37.51580 Y27.89428
X37.51580 Y27.86888
X37.54120 Y27.86888
X37.54120 Y27.84348
X37.56660 Y27.84348
X37.56660 Y27.81808
X37.59200 Y27.81808
X37.59200 Y27.79268
X37.61740 Y27.79268
X37.61740 Y27.76728
X37.64280 Y27.76728
X37.64280 Y27.74188
X37.66820 Y27.74188
X37.66820 Y27.71648
X37.69360 Y27.71648
X37.69360 Y27.69108
X37.71900 Y27.69108
X37.71900 Y27.66568
X37.74440 Y27.66568
X37.74440 Y27.64028
X37.76980 Y27.64028
X37.76980 Y27.61488
X37.79520 Y27.61488
X37.79520 Y27.56408
X37.82060 Y27.56408
X37.82060 Y27.51328
X37.84600 Y27.51328
X37.84600 Y27.43708
X37.87140 Y27.43708
X37.87140 Y26.19248
X37.89680 Y26.19248
X37.89680 Y26.16708
X37.94760 Y26.16708
X37.94760 Y26.14168
X37.97300 Y26.14168
X37.97300 Y26.11628
X38.02380 Y26.11628
X38.02380 Y26.09088
X38.04920 Y26.09088
X38.04920 Y26.06548
X38.07460 Y26.06548
X38.07460 Y26.04008
X38.10000 Y26.04008
X38.10000 Y26.01468
X38.12540 Y26.01468
X38.12540 Y25.98928
X38.15080 Y25.98928
X38.15080 Y25.96388
X38.17620 Y25.96388
X38.17620 Y25.93848
X38.20160 Y25.93848
X38.20160 Y25.88768
X38.22700 Y25.88768
X38.22700 Y25.86228
X38.25240 Y25.86228
X38.25240 Y25.81148
X38.27780 Y25.81148
X38.27780 Y25.76068
X38.30320 Y25.76068
X38.30320 Y25.70988
X38.32860 Y25.70988
X38.32860 Y25.63368
X38.35400 Y25.63368
X38.35400 Y22.50948
X38.32860 Y22.50948
X38.32860 Y22.43328
X38.30320 Y22.43328
X38.30320 Y22.38248
X38.27780 Y22.38248
X38.27780 Y22.33168
X38.25240 Y22.33168
X38.25240 Y22.28088
X38.22700 Y22.28088
X38.22700 Y22.25548
X38.20160 Y22.25548
X38.20160 Y22.20468
X38.17620 Y22.20468
X38.17620 Y22.17928
X38.15080 Y22.17928
X38.15080 Y22.15388
X38.12540 Y22.15388
X38.12540 Y22.12848
X38.10000 Y22.12848
X38.10000 Y22.10308
X38.07460 Y22.10308
X38.07460 Y22.07768
X38.04920 Y22.07768
X38.04920 Y22.05228
X38.02380 Y22.05228
X38.02380 Y22.02688
X37.97300 Y22.02688
X37.97300 Y22.00148
X37.94760 Y22.00148
X37.94760 Y21.97608
X37.89680 Y21.97608
X37.89680 Y21.95068
X37.84600 Y21.95068
X37.84600 Y21.92528
X37.79520 Y21.92528
X37.79520 Y21.89988
X37.71900 Y21.89988
X37.71900 Y21.87448
X37.56660 Y21.87448
X37.56660 Y21.84908
X36.57600 Y21.84908
X36.57600 Y21.87448
X36.42360 Y21.87448
X36.42360 Y21.89988
X36.34740 Y21.89988
X36.34740 Y21.92528
X36.29660 Y21.92528
X36.29660 Y21.95068
X36.24580 Y21.95068
X36.24580 Y21.97608
X36.19500 Y21.97608
X36.19500 Y22.00148
X36.16960 Y22.00148
X36.16960 Y22.02688
X36.11880 Y22.02688
X36.11880 Y22.05228
X36.09340 Y22.05228
X36.09340 Y22.07768
X36.06800 Y22.07768
X36.06800 Y22.10308
X36.04260 Y22.10308
X36.04260 Y22.12848
X36.01720 Y22.12848
X36.01720 Y22.15388
X35.99180 Y22.15388
X35.99180 Y22.17928
X35.96640 Y22.17928
X35.96640 Y22.20468
X35.94100 Y22.20468
X35.94100 Y22.25548
X35.91560 Y22.25548
X35.91560 Y22.28088
X35.89020 Y22.28088
X35.89020 Y22.33168
X35.86480 Y22.33168
X35.86480 Y22.38248
X35.83940 Y22.38248
X35.83940 Y22.43328
X35.81400 Y22.43328
X35.81400 Y22.50948
X35.78860 Y22.50948
X35.78860 Y22.66188
X35.76320 Y22.66188
X35.76320 Y25.48128
X35.78860 Y25.48128
X35.78860 Y25.63368
X35.81400 Y25.63368
X35.81400 Y25.70988
X35.83940 Y25.70988
X35.83940 Y25.76068
X35.86480 Y25.76068
X35.86480 Y25.81148
X35.89020 Y25.81148
X35.89020 Y25.86228
X35.91560 Y25.86228
X35.91560 Y25.88768
X35.94100 Y25.88768
X35.94100 Y25.93848
X35.96640 Y25.93848
X35.96640 Y25.96388
X35.99180 Y25.96388
X35.99180 Y25.98928
X36.01720 Y25.98928
X36.01720 Y26.01468
X36.04260 Y26.01468
X36.04260 Y26.04008
X36.06800 Y26.04008
X36.06800 Y26.06548
X36.09340 Y26.06548
X36.09340 Y26.09088
X36.11880 Y26.09088
X36.11880 Y26.11628
X36.16960 Y26.11628
X36.16960 Y26.14168
X36.19500 Y26.14168
X36.19500 Y26.16708
X36.24580 Y26.16708
X36.24580 Y26.19248
X36.27120 Y26.19248
X36.27120 Y26.42108
X36.24580 Y26.42108
X36.24580 Y26.44648
X36.22040 Y26.44648
X36.22040 Y26.47188
X36.19500 Y26.47188
X36.19500 Y26.49728
X36.16960 Y26.49728
X36.16960 Y26.52268
X36.14420 Y26.52268
X36.14420 Y26.54808
X36.11880 Y26.54808
X36.11880 Y26.57348
X36.09340 Y26.57348
X36.09340 Y26.59888
X36.06800 Y26.59888
X36.06800 Y26.62428
X36.04260 Y26.62428
X36.04260 Y26.64968
X36.01720 Y26.64968
X36.01720 Y26.67508
X35.99180 Y26.67508
X35.99180 Y26.70048
X35.96640 Y26.70048
X35.96640 Y26.72588
X35.94100 Y26.72588
X35.94100 Y26.75128
X35.91560 Y26.75128
X35.91560 Y26.77668
X35.89020 Y26.77668
X35.89020 Y26.80208
X35.86480 Y26.80208
X35.86480 Y26.82748
X35.83940 Y26.82748
X35.83940 Y26.85288
X35.81400 Y26.85288
X35.81400 Y26.87828
X35.78860 Y26.87828
X35.78860 Y26.90368
X35.76320 Y26.90368
X35.76320 Y26.92908
X35.02660 Y26.92908
X35.02660 Y26.95448
X35.00120 Y26.95448
X35.00120 Y26.97988
X34.97580 Y26.97988
X34.97580 Y27.00528
X34.95040 Y27.00528
X34.95040 Y27.03068
X34.92500 Y27.03068
X34.92500 Y27.05608
X34.89960 Y27.05608
X34.89960 Y27.08148
X34.87420 Y27.08148
X34.87420 Y27.10688
X34.84880 Y27.10688
X34.84880 Y27.13228
X34.82340 Y27.13228
X34.82340 Y27.15768
X34.79800 Y27.15768
X34.79800 Y27.18308
X34.77260 Y27.18308
X34.77260 Y27.20848
X34.74720 Y27.20848
X34.74720 Y27.23388
X34.72180 Y27.23388
X34.72180 Y27.25928
X34.69640 Y27.25928
X34.69640 Y27.28468
X34.67100 Y27.28468
X34.67100 Y27.31008
X34.64560 Y27.31008
X34.64560 Y27.33548
X34.62020 Y27.33548
X34.62020 Y27.36088
X34.59480 Y27.36088
X34.59480 Y27.38628
X34.56940 Y27.38628
X34.56940 Y27.41168
X34.54400 Y27.41168
X34.54400 Y27.43708
X34.51860 Y27.43708
X34.51860 Y27.46248
X34.49320 Y27.46248
X34.49320 Y29.01188
X34.51860 Y29.01188
X34.51860 Y29.03728
X34.54400 Y29.03728
X34.54400 Y29.06268
X34.56940 Y29.06268
X34.56940 Y29.08808
X34.59480 Y29.08808
X34.59480 Y29.11348
X34.62020 Y29.11348
X34.62020 Y29.13888
X34.64560 Y29.13888
X34.64560 Y29.16428
X34.67100 Y29.16428
X34.67100 Y29.18968
X34.69640 Y29.18968
X34.69640 Y29.21508
X34.72180 Y29.21508
X34.72180 Y29.24048
X34.74720 Y29.24048
X34.74720 Y29.26588
X34.77260 Y29.26588
X34.77260 Y29.29128
X34.79800 Y29.29128
X34.79800 Y29.31668
X34.82340 Y29.31668
X34.82340 Y29.34208
X34.84880 Y29.34208
X34.84880 Y29.36748
X34.87420 Y29.36748
X34.87420 Y29.39288
X34.89960 Y29.39288
X34.89960 Y29.41828
X34.92500 Y29.41828
X34.92500 Y29.44368
X34.95040 Y29.44368
X34.95040 Y29.46908
X34.97580 Y29.46908
X34.97580 Y29.49448
X35.00120 Y29.49448
X35.00120 Y29.51988
X35.02660 Y29.51988
X35.02660 Y29.54528
X36.57600 Y29.54528
X36.57600 Y29.51988
X36.60140 Y29.51988
X36.60140 Y29.49448
X36.62680 Y29.49448
X36.62680 Y29.46908
X36.65220 Y29.46908
X36.65220 Y29.44368
X36.67760 Y29.44368
X36.67760 Y29.41828
X36.70300 Y29.41828
X36.70300 Y29.39288
X36.72840 Y29.39288
X36.72840 Y29.36748
X36.75380 Y29.36748
X36.75380 Y29.34208
X36.77920 Y29.34208
X36.77920 Y29.31668
X36.80460 Y29.31668
X36.80460 Y29.29128
X36.83000 Y29.29128
X36.83000 Y29.26588
X36.85540 Y29.26588
X36.85540 Y29.24048
X36.88080 Y29.24048
X36.88080 Y29.21508
X36.90620 Y29.21508
X36.90620 Y29.18968
X36.93160 Y29.18968
X36.93160 Y29.16428
X36.95700 Y29.16428
X36.95700 Y29.13888
G04 P0 ( dwell for no time -- G64 should not smooth over this point )
G00 Z5.00000 ( retract )

G00 X40.74160 Y25.88768 ( rapid move to begin. )
G01 Z0.00000
G04 P0 ( dwell for no time -- G64 should not smooth over this point )
X40.74160 Y25.88768
X40.76700 Y25.88768
X40.76700 Y25.86228
X40.79240 Y25.86228
X40.79240 Y25.81148
X40.81780 Y25.81148
X40.81780 Y25.76068
X40.84320 Y25.76068
X40.84320 Y25.70988
X40.86860 Y25.70988
X40.86860 Y25.63368
X40.89400 Y25.63368
X40.89400 Y22.50948
X40.86860 Y22.50948
X40.86860 Y22.43328
X40.84320 Y22.43328
X40.84320 Y22.38248
X40.81780 Y22.38248
X40.81780 Y22.33168
X40.79240 Y22.33168
X40.79240 Y22.28088
X40.76700 Y22.28088
X40.76700 Y22.25548
X40.74160 Y22.25548
X40.74160 Y22.20468
X40.71620 Y22.20468
X40.71620 Y22.17928
X40.69080 Y22.17928
X40.69080 Y22.15388
X40.66540 Y22.15388
X40.66540 Y22.12848
X40.64000 Y22.12848
X40.64000 Y22.10308
X40.61460 Y22.10308
X40.61460 Y22.07768
X40.58920 Y22.07768
X40.58920 Y22.05228
X40.56380 Y22.05228
X40.56380 Y22.02688
X40.51300 Y22.02688
X40.51300 Y22.00148
X40.48760 Y22.00148
X40.48760 Y21.97608
X40.43680 Y21.97608
X40.43680 Y21.95068
X40.41140 Y21.95068
X40.41140 Y20.14728
X40.38600 Y20.14728
X40.38600 Y20.07108
X40.36060 Y20.07108
X40.36060 Y20.02028
X40.33520 Y20.02028
X40.33520 Y19.96948
X40.30980 Y19.96948
X40.30980 Y19.94408
X40.28440 Y19.94408
X40.28440 Y19.91868
X40.25900 Y19.91868
X40.25900 Y19.89328
X40.20820 Y19.89328
X40.20820 Y19.86788
X40.15740 Y19.86788
X40.15740 Y19.84248
X40.08120 Y19.84248
X40.08120 Y19.81708
X28.72740 Y19.81708
X28.72740 Y19.79168
X28.70200 Y19.79168
X28.70200 Y19.76628
X28.67660 Y19.76628
X28.67660 Y19.74088
X28.65120 Y19.74088
X28.65120 Y19.71548
X28.62580 Y19.71548
X28.62580 Y19.69008
X28.60040 Y19.69008
X28.60040 Y19.66468
X28.57500 Y19.66468
X28.57500 Y19.63928
X28.54960 Y19.63928
X28.54960 Y19.61388
X28.52420 Y19.61388
X28.52420 Y19.58848
X28.49880 Y19.58848
X28.49880 Y19.56308
X28.47340 Y19.56308
X28.47340 Y19.53768
X28.44800 Y19.53768
X28.44800 Y19.51228
X28.42260 Y19.51228
X28.42260 Y19.48688
X28.39720 Y19.48688
X28.39720 Y19.46148
X28.37180 Y19.46148
X28.37180 Y19.43608
X28.34640 Y19.43608
X28.34640 Y19.41068
X28.32100 Y19.41068
X28.32100 Y19.38528
X28.29560 Y19.38528
X28.29560 Y19.35988
X28.27020 Y19.35988
X28.27020 Y19.33448
X28.24480 Y19.33448
X28.24480 Y19.30908
X28.21940 Y19.30908
X28.21940 Y19.28368
X28.19400 Y19.28368
X28.19400 Y19.25828
X28.16860 Y19.25828
X28.16860 Y19.23288
X28.14320 Y19.23288
X28.14320 Y19.20748
X28.11780 Y19.20748
X28.11780 Y19.18208
X28.09240 Y19.18208
X28.09240 Y19.15668
X28.06700 Y19.15668
X28.06700 Y19.13128
X28.04160 Y19.13128
X28.04160 Y19.10588
X28.01620 Y19.10588
X28.01620 Y19.08048
X27.99080 Y19.08048
X27.99080 Y19.05508
X27.96540 Y19.05508
X27.96540 Y19.02968
X27.94000 Y19.02968
X27.94000 Y19.00428
X27.91460 Y19.00428
X27.91460 Y18.97888
X27.88920 Y18.97888
X27.88920 Y18.95348
X27.86380 Y18.95348
X27.86380 Y18.92808
X27.83840 Y18.92808
X27.83840 Y18.90268
X27.81300 Y18.90268
X27.81300 Y18.87728
X27.78760 Y18.87728
X27.78760 Y18.85188
X27.76220 Y18.85188
X27.76220 Y18.82648
X27.73680 Y18.82648
X27.73680 Y18.80108
X27.71140 Y18.80108
X27.71140 Y18.77568
X27.68600 Y18.77568
X27.68600 Y18.75028
X27.66060 Y18.75028
X27.66060 Y18.72488
X27.63520 Y18.72488
X27.63520 Y18.69948
X27.60980 Y18.69948
X27.60980 Y18.67408
X27.58440 Y18.67408
X27.58440 Y18.64868
X27.55900 Y18.64868
X27.55900 Y18.62328
X27.53360 Y18.62328
X27.53360 Y18.59788
X27.50820 Y18.59788
X27.50820 Y18.57248
X27.48280 Y18.57248
X27.48280 Y18.54708
X27.45740 Y18.54708
X27.45740 Y18.52168
X27.43200 Y18.52168
X27.43200 Y18.49628
X27.40660 Y18.49628
X27.40660 Y18.47088
X27.38120 Y18.47088
X27.38120 Y18.44548
X27.35580 Y18.44548
X27.35580 Y18.42008
X27.33040 Y18.42008
X27.33040 Y18.39468
X27.30500 Y18.39468
X27.30500 Y18.36928
X27.27960 Y18.36928
X27.27960 Y18.34388
X27.25420 Y18.34388
X27.25420 Y18.31848
X27.22880 Y18.31848
X27.22880 Y18.29308
X27.20340 Y18.29308
X27.20340 Y18.26768
X27.17800 Y18.26768
X27.17800 Y18.24228
X27.15260 Y18.24228
X27.15260 Y18.21688
X27.12720 Y18.21688
X27.12720 Y18.19148
X27.10180 Y18.19148
X27.10180 Y18.16608
X27.07640 Y18.16608
X27.07640 Y18.14068
X27.05100 Y18.14068
X27.05100 Y18.11528
X27.02560 Y18.11528
X27.02560 Y18.08988
X27.00020 Y18.08988
X27.00020 Y18.06448
X26.97480 Y18.06448
X26.97480 Y18.03908
X26.94940 Y18.03908
X26.94940 Y17.30248
X26.92400 Y17.30248
X26.92400 Y17.27708
X26.89860 Y17.27708
X26.89860 Y17.25168
X26.87320 Y17.25168
X26.87320 Y17.22628
X26.84780 Y17.22628
X26.84780 Y17.20088
X26.82240 Y17.20088
X26.82240 Y17.17548
X26.79700 Y17.17548
X26.79700 Y17.15008
X26.77160 Y17.15008
X26.77160 Y17.12468
X26.74620 Y17.12468
X26.74620 Y17.09928
X26.72080 Y17.09928
X26.72080 Y17.07388
X26.69540 Y17.07388
X26.69540 Y17.04848
X26.67000 Y17.04848
X26.67000 Y17.02308
X26.64460 Y17.02308
X26.64460 Y16.99768
X26.61920 Y16.99768
X26.61920 Y16.97228
X26.59380 Y16.97228
X26.59380 Y16.94688
X26.56840 Y16.94688
X26.56840 Y16.92148
X26.54300 Y16.92148
X26.54300 Y16.89608
X26.51760 Y16.89608
X26.51760 Y16.87068
X26.49220 Y16.87068
X26.49220 Y16.84528
X26.46680 Y16.84528
X26.46680 Y16.81988
X26.44140 Y16.81988
X26.44140 Y16.79448
X26.41600 Y16.79448
X26.41600 Y16.76908
X24.86660 Y16.76908
X24.86660 Y16.79448
X24.84120 Y16.79448
X24.84120 Y16.81988
X24.81580 Y16.81988
X24.81580 Y16.84528
X24.79040 Y16.84528
X24.79040 Y16.87068
X24.76500 Y16.87068
X24.76500 Y16.89608
X24.73960 Y16.89608
X24.73960 Y16.92148
X24.71420 Y16.92148
X24.71420 Y16.94688
X24.68880 Y16.94688
X24.68880 Y16.97228
X24.66340 Y16.97228
X24.66340 Y16.99768
X24.63800 Y16.99768
X24.63800 Y17.02308
X24.61260 Y17.02308
X24.61260 Y17.04848
X24.58720 Y17.04848
X24.58720 Y17.07388
X24.56180 Y17.07388
X24.56180 Y17.09928
X24.53640 Y17.09928
X24.53640 Y17.12468
X24.51100 Y17.12468
X24.51100 Y17.15008
X24.48560 Y17.15008
X24.48560 Y17.17548
X24.46020 Y17.17548
X24.46020 Y17.20088
X24.43480 Y17.20088
X24.43480 Y17.22628
X24.40940 Y17.22628
X24.40940 Y17.25168
X24.38400 Y17.25168
X24.38400 Y17.27708
X23.01240 Y17.27708
X23.01240 Y17.25168
X22.98700 Y17.25168
X22.98700 Y17.20088
X22.96160 Y17.20088
X22.96160 Y17.17548
X22.93620 Y17.17548
X22.93620 Y17.12468
X22.91080 Y17.12468
X22.91080 Y17.07388
X22.88540 Y17.07388
X22.88540 Y17.04848
X22.86000 Y17.04848
X22.86000 Y17.02308
X22.83460 Y17.02308
X22.83460 Y16.99768
X22.80920 Y16.99768
X22.80920 Y16.94688
X22.78380 Y16.94688
X22.78380 Y16.92148
X22.75840 Y16.92148
X22.75840 Y16.89608
X22.73300 Y16.89608
X22.73300 Y16.87068
X22.68220 Y16.87068
X22.68220 Y16.84528
X22.65680 Y16.84528
X22.65680 Y16.81988
X22.63140 Y16.81988
X22.63140 Y16.79448
X22.58060 Y16.79448
X22.58060 Y16.76908
X22.55520 Y16.76908
X22.55520 Y16.74368
X22.47900 Y16.74368
X22.47900 Y16.71828
X22.42820 Y16.71828
X22.42820 Y16.69288
X22.37740 Y16.69288
X22.37740 Y16.66748
X22.27580 Y16.66748
X22.27580 Y16.64208
X22.17420 Y16.64208
X22.17420 Y16.61668
X20.44700 Y16.61668
X20.44700 Y16.59128
X20.42160 Y16.59128
X20.42160 Y16.56588
X20.39620 Y16.56588
X20.39620 Y16.54048
X20.37080 Y16.54048
X20.37080 Y16.51508
X20.34540 Y16.51508
X20.34540 Y16.48968
X20.32000 Y16.48968
X20.32000 Y16.46428
X20.29460 Y16.46428
X20.29460 Y16.43888
X20.26920 Y16.43888
X20.26920 Y16.41348
X20.24380 Y16.41348
X20.24380 Y16.38808
X20.21840 Y16.38808
X20.21840 Y16.36268
X20.19300 Y16.36268
X20.19300 Y16.33728
X20.16760 Y16.33728
X20.16760 Y16.31188
X20.14220 Y16.31188
X20.14220 Y16.28648
X20.11680 Y16.28648
X20.11680 Y16.26108
X20.09140 Y16.26108
X20.09140 Y16.23568
X20.06600 Y16.23568
X20.06600 Y16.21028
X20.04060 Y16.21028
X20.04060 Y16.18488
X20.01520 Y16.18488
X20.01520 Y16.15948
X19.98980 Y16.15948
X19.98980 Y16.13408
X19.96440 Y16.13408
X19.96440 Y16.10868
X19.93900 Y16.10868
X19.93900 Y16.08328
X19.91360 Y16.08328
X19.91360 Y16.05788
X19.88820 Y16.05788
X19.88820 Y16.03248
X19.86280 Y16.03248
X19.86280 Y16.00708
X19.83740 Y16.00708
X19.83740 Y15.98168
X19.81200 Y15.98168
X19.81200 Y15.95628
X19.78660 Y15.95628
X19.78660 Y15.93088
X19.76120 Y15.93088
X19.76120 Y15.90548
X19.73580 Y15.90548
X19.73580 Y15.88008
X19.71040 Y15.88008
X19.71040 Y15.85468
X19.68500 Y15.85468
X19.68500 Y15.82928
X19.65960 Y15.82928
X19.65960 Y15.80388
X19.63420 Y15.80388
X19.63420 Y15.77848
X19.60880 Y15.77848
X19.60880 Y15.75308
X19.58340 Y15.75308
X19.58340 Y15.72768
X19.55800 Y15.72768
X19.55800 Y15.70228
X19.53260 Y15.70228
X19.53260 Y15.67688
X19.50720 Y15.67688
X19.50720 Y15.65148
X19.48180 Y15.65148
X19.48180 Y15.62608
X19.45640 Y15.62608
X19.45640 Y15.60068
X19.43100 Y15.60068
X19.43100 Y15.57528
X19.40560 Y15.57528
X19.40560 Y15.54988
X19.38020 Y15.54988
X19.38020 Y15.52448
X19.35480 Y15.52448
X19.35480 Y15.49908
X19.32940 Y15.49908
X19.32940 Y15.47368
X19.30400 Y15.47368
X19.30400 Y15.44828
X19.27860 Y15.44828
X19.27860 Y15.42288
X19.25320 Y15.42288
X19.25320 Y15.39748
X19.22780 Y15.39748
X19.22780 Y15.37208
X19.20240 Y15.37208
X19.20240 Y15.34668
X19.17700 Y15.34668
X19.17700 Y15.32128
X19.15160 Y15.32128
X19.15160 Y15.29588
X19.12620 Y15.29588
X19.12620 Y15.27048
X19.10080 Y15.27048
X19.10080 Y15.24508
X19.07540 Y15.24508
X19.07540 Y15.21968
X19.05000 Y15.21968
X19.05000 Y15.19428
X19.02460 Y15.19428
X19.02460 Y15.16888
X18.99920 Y15.16888
X18.99920 Y15.14348
X18.97380 Y15.14348
X18.97380 Y15.11808
X18.94840 Y15.11808
X18.94840 Y15.09268
X18.92300 Y15.09268
X18.92300 Y15.06728
X18.89760 Y15.06728
X18.89760 Y15.04188
X18.87220 Y15.04188
X18.87220 Y15.01648
X18.84680 Y15.01648
X18.84680 Y14.99108
X18.82140 Y14.99108
X18.82140 Y14.96568
X18.79600 Y14.96568
X18.79600 Y14.94028
X18.77060 Y14.94028
X18.77060 Y14.91488
X18.74520 Y14.91488
X18.74520 Y14.88948
X18.71980 Y14.88948
X18.71980 Y14.86408
X18.69440 Y14.86408
X18.69440 Y14.83868
X18.66900 Y14.83868
X18.66900 Y14.81328
X18.64360 Y14.81328
X18.64360 Y14.78788
X18.61820 Y14.78788
X18.61820 Y14.76248
X18.59280 Y14.76248
X18.59280 Y14.73708
X18.56740 Y14.73708
X18.56740 Y14.71168
X18.54200 Y14.71168
X18.54200 Y14.68628
X18.51660 Y14.68628
X18.51660 Y14.66088
X18.49120 Y14.66088
X18.49120 Y14.63548
X18.46580 Y14.63548
X18.46580 Y14.61008
X18.44040 Y14.61008
X18.44040 Y14.58468
X18.41500 Y14.58468
X18.41500 Y14.55928
X18.38960 Y14.55928
X18.38960 Y14.53388
X18.36420 Y14.53388
X18.36420 Y14.50848
X18.33880 Y14.50848
X18.33880 Y14.48308
X18.31340 Y14.48308
X18.31340 Y14.45768
X18.36420 Y14.45768
X18.36420 Y14.43228
X18.46580 Y14.43228
X18.46580 Y14.40688
X18.56740 Y14.40688
X18.56740 Y14.38148
X18.61820 Y14.38148
X18.61820 Y14.35608
X18.66900 Y14.35608
X18.66900 Y14.33068
X18.74520 Y14.33068
X18.74520 Y14.30528
X18.77060 Y14.30528
X18.77060 Y14.27988
X18.82140 Y14.27988
X18.82140 Y14.25448
X18.84680 Y14.25448
X18.84680 Y14.22908
X18.87220 Y14.22908
X18.87220 Y14.20368
X18.92300 Y14.20368
X18.92300 Y14.17828
X18.94840 Y14.17828
X18.94840 Y14.15288
X18.97380 Y14.15288
X18.97380 Y14.12748
X18.99920 Y14.12748
X18.99920 Y14.07668
X19.02460 Y14.07668
X19.02460 Y14.05128
X19.05000 Y14.05128
X19.05000 Y14.02588
X19.07540 Y14.02588
X19.07540 Y14.00048
X19.10080 Y14.00048
X19.10080 Y13.94968
X19.12620 Y13.94968
X19.12620 Y13.89888
X19.15160 Y13.89888
X19.15160 Y13.87348
X19.17700 Y13.87348
X19.17700 Y13.82268
X19.20240 Y13.82268
X19.20240 Y13.74648
X19.22780 Y13.74648
X19.22780 Y13.67028
X19.25320 Y13.67028
X19.25320 Y13.51788
X19.27860 Y13.51788
X19.27860 Y12.47648
X19.25320 Y12.47648
X19.25320 Y12.32408
X19.22780 Y12.32408
X19.22780 Y12.24788
X19.20240 Y12.24788
X19.20240 Y12.17168
X19.17700 Y12.17168
X19.17700 Y12.12088
X19.15160 Y12.12088
X19.15160 Y12.09548
X19.12620 Y12.09548
X19.12620 Y12.04468
X19.10080 Y12.04468
X19.10080 Y11.99388
X19.07540 Y11.99388
X19.07540 Y11.96848
X19.05000 Y11.96848
X19.05000 Y11.94308
X19.02460 Y11.94308
X19.02460 Y11.91768
X18.99920 Y11.91768
X18.99920 Y11.86688
X18.97380 Y11.86688
X18.97380 Y11.84148
X18.94840 Y11.84148
X18.94840 Y11.81608
X18.92300 Y11.81608
X18.92300 Y11.79068
X18.87220 Y11.79068
X18.87220 Y11.76528
X18.84680 Y11.76528
X18.84680 Y11.73988
X18.82140 Y11.73988
X18.82140 Y11.71448
X18.77060 Y11.71448
X18.77060 Y11.68908
X18.74520 Y11.68908
X18.74520 Y11.66368
X18.66900 Y11.66368
X18.66900 Y11.63828
X18.61820 Y11.63828
X18.61820 Y11.61288
X18.56740 Y11.61288
X18.56740 Y11.58748
X18.46580 Y11.58748
X18.46580 Y11.56208
X18.36420 Y11.56208
X18.36420 Y11.53668
X15.13840 Y11.53668
X15.13840 Y11.56208
X15.03680 Y11.56208
X15.03680 Y11.58748
X14.93520 Y11.58748
X14.93520 Y11.61288
X14.88440 Y11.61288
X14.88440 Y11.63828
X14.83360 Y11.63828
X14.83360 Y11.66368
X14.75740 Y11.66368
X14.75740 Y11.68908
X14.73200 Y11.68908
X14.73200 Y11.71448
X14.68120 Y11.71448
X14.68120 Y11.73988
X14.65580 Y11.73988
X14.65580 Y11.76528
X14.63040 Y11.76528
X14.63040 Y11.79068
X14.57960 Y11.79068
X14.57960 Y11.81608
X14.55420 Y11.81608
X14.55420 Y11.84148
X14.52880 Y11.84148
X14.52880 Y11.86688
X14.50340 Y11.86688
X14.50340 Y11.91768
X14.47800 Y11.91768
X14.47800 Y11.94308
X14.45260 Y11.94308
X14.45260 Y11.96848
X14.42720 Y11.96848
X14.42720 Y11.99388
X14.40180 Y11.99388
X14.40180 Y12.04468
X14.37640 Y12.04468
X14.37640 Y12.09548
X14.35100 Y12.09548
X14.35100 Y12.12088
X14.32560 Y12.12088
X14.32560 Y12.17168
X14.30020 Y12.17168
X14.30020 Y12.24788
X14.27480 Y12.24788
X14.27480 Y12.32408
X14.24940 Y12.32408
X14.24940 Y12.47648
X14.22400 Y12.47648
X14.22400 Y13.51788
X14.24940 Y13.51788
X14.24940 Y13.67028
X14.27480 Y13.67028
X14.27480 Y13.74648
X14.30020 Y13.74648
X14.30020 Y13.82268
X14.32560 Y13.82268
X14.32560 Y13.87348
X14.35100 Y13.87348
X14.35100 Y13.89888
X14.37640 Y13.89888
X14.37640 Y13.94968
X14.40180 Y13.94968
X14.40180 Y14.00048
X14.42720 Y14.00048
X14.42720 Y14.02588
X14.45260 Y14.02588
X14.45260 Y14.05128
X14.47800 Y14.05128
X14.47800 Y14.07668
X14.50340 Y14.07668
X14.50340 Y14.12748
X14.52880 Y14.12748
X14.52880 Y14.15288
X14.55420 Y14.15288
X14.55420 Y14.17828
X14.57960 Y14.17828
X14.57960 Y14.20368
X14.63040 Y14.20368
X14.63040 Y14.22908
X14.65580 Y14.22908
X14.65580 Y14.25448
X14.68120 Y14.25448
X14.68120 Y14.27988
X14.73200 Y14.27988
X14.73200 Y14.30528
X14.75740 Y14.30528
X14.75740 Y14.33068
X14.83360 Y14.33068
X14.83360 Y14.35608
X14.88440 Y14.35608
X14.88440 Y14.38148
X14.93520 Y14.38148
X14.93520 Y14.40688
X15.03680 Y14.40688
X15.03680 Y14.43228
X15.13840 Y14.43228
X15.13840 Y14.45768
X15.95120 Y14.45768
X15.95120 Y14.73708
X15.97660 Y14.73708
X15.97660 Y14.81328
X16.00200 Y14.81328
X16.00200 Y14.86408
X16.02740 Y14.86408
X16.02740 Y14.91488
X16.05280 Y14.91488
X16.05280 Y14.94028
X16.07820 Y14.94028
X16.07820 Y14.96568
X16.10360 Y14.96568
X16.10360 Y14.99108
X16.12900 Y14.99108
X16.12900 Y15.01648
X16.15440 Y15.01648
X16.15440 Y15.04188
X16.17980 Y15.04188
X16.17980 Y15.06728
X16.20520 Y15.06728
X16.20520 Y15.09268
X16.23060 Y15.09268
X16.23060 Y15.11808
X16.25600 Y15.11808
X16.25600 Y15.14348
X16.28140 Y15.14348
X16.28140 Y15.16888
X16.30680 Y15.16888
X16.30680 Y15.19428
X16.33220 Y15.19428
X16.33220 Y15.21968
X16.35760 Y15.21968
X16.35760 Y15.24508
X16.38300 Y15.24508
X16.38300 Y15.27048
X16.40840 Y15.27048
X16.40840 Y15.29588
X16.43380 Y15.29588
X16.43380 Y15.32128
X16.45920 Y15.32128
X16.45920 Y15.34668
X16.48460 Y15.34668
X16.48460 Y15.37208
X16.51000 Y15.37208
X16.51000 Y15.39748
X16.53540 Y15.39748
X16.53540 Y15.42288
X16.56080 Y15.42288
X16.56080 Y15.44828
X16.58620 Y15.44828
X16.58620 Y15.47368
X16.61160 Y15.47368
X16.61160 Y15.49908
X16.63700 Y15.49908
X16.63700 Y15.52448
X16.66240 Y15.52448
X16.66240 Y15.54988
X16.68780 Y15.54988
X16.68780 Y15.57528
X16.71320 Y15.57528
X16.71320 Y15.60068
X16.73860 Y15.60068
X16.73860 Y15.62608
X16.76400 Y15.62608
X16.76400 Y15.65148
X16.78940 Y15.65148
X16.78940 Y15.67688
X16.81480 Y15.67688
X16.81480 Y15.70228
X16.84020 Y15.70228
X16.84020 Y15.72768
X16.86560 Y15.72768
X16.86560 Y15.75308
X16.89100 Y15.75308
X16.89100 Y15.77848
X16.91640 Y15.77848
X16.91640 Y15.80388
X16.94180 Y15.80388
X16.94180 Y15.82928
X16.96720 Y15.82928
X16.96720 Y15.85468
X16.99260 Y15.85468
X16.99260 Y15.88008
X17.01800 Y15.88008
X17.01800 Y15.90548
X17.04340 Y15.90548
X17.04340 Y15.93088
X17.06880 Y15.93088
X17.06880 Y15.95628
X17.09420 Y15.95628
X17.09420 Y15.98168
X17.11960 Y15.98168
X17.11960 Y16.00708
X17.14500 Y16.00708
X17.14500 Y16.03248
X17.17040 Y16.03248
X17.17040 Y16.05788
X17.19580 Y16.05788
X17.19580 Y16.08328
X17.22120 Y16.08328
X17.22120 Y16.10868
X17.24660 Y16.10868
X17.24660 Y16.13408
X17.27200 Y16.13408
X17.27200 Y16.15948
X17.29740 Y16.15948
X17.29740 Y16.18488
X17.32280 Y16.18488
X17.32280 Y16.21028
X17.34820 Y16.21028
X17.34820 Y16.23568
X17.37360 Y16.23568
X17.37360 Y16.26108
X17.39900 Y16.26108
X17.39900 Y16.28648
X17.42440 Y16.28648
X17.42440 Y16.31188
X17.44980 Y16.31188
X17.44980 Y16.33728
X17.47520 Y16.33728
X17.47520 Y16.36268
X17.50060 Y16.36268
X17.50060 Y16.38808
X17.52600 Y16.38808
X17.52600 Y16.41348
X17.55140 Y16.41348
X17.55140 Y16.43888
X17.57680 Y16.43888
X17.57680 Y16.46428
X17.60220 Y16.46428
X17.60220 Y16.48968
X17.62760 Y16.48968
X17.62760 Y16.51508
X17.65300 Y16.51508
X17.65300 Y16.54048
X17.67840 Y16.54048
X17.67840 Y16.56588
X17.70380 Y16.56588
X17.70380 Y16.59128
X17.72920 Y16.59128
X17.72920 Y16.61668
X17.75460 Y16.61668
X17.75460 Y16.64208
X17.78000 Y16.64208
X17.78000 Y16.66748
X17.80540 Y16.66748
X17.80540 Y16.69288
X17.83080 Y16.69288
X17.83080 Y16.71828
X17.85620 Y16.71828
X17.85620 Y16.74368
X17.88160 Y16.74368
X17.88160 Y16.76908
X17.90700 Y16.76908
X17.90700 Y16.79448
X17.93240 Y16.79448
X17.93240 Y16.81988
X17.95780 Y16.81988
X17.95780 Y16.84528
X17.98320 Y16.84528
X17.98320 Y16.87068
X18.00860 Y16.87068
X18.00860 Y16.89608
X18.03400 Y16.89608
X18.03400 Y16.92148
X18.05940 Y16.92148
X18.05940 Y16.94688
X18.08480 Y16.94688
X18.08480 Y16.97228
X18.11020 Y16.97228
X18.11020 Y16.99768
X18.13560 Y16.99768
X18.13560 Y17.02308
X18.16100 Y17.02308
X18.16100 Y17.04848
X18.18640 Y17.04848
X18.18640 Y17.07388
X18.21180 Y17.07388
X18.21180 Y17.12468
X18.18640 Y17.12468
X18.18640 Y17.17548
X18.16100 Y17.17548
X18.16100 Y17.20088
X18.13560 Y17.20088
X18.13560 Y17.25168
X18.11020 Y17.25168
X18.11020 Y17.32788
X18.08480 Y17.32788
X18.08480 Y17.40408
X18.05940 Y17.40408
X18.05940 Y17.55648
X18.03400 Y17.55648
X18.03400 Y18.59788
X18.05940 Y18.59788
X18.05940 Y18.75028
X18.08480 Y18.75028
X18.08480 Y18.82648
X18.11020 Y18.82648
X18.11020 Y18.90268
X18.13560 Y18.90268
X18.13560 Y18.95348
X18.16100 Y18.95348
X18.16100 Y18.97888
X18.18640 Y18.97888
X18.18640 Y19.02968
X18.21180 Y19.02968
X18.21180 Y19.08048
X18.23720 Y19.08048
X18.23720 Y19.10588
X18.26260 Y19.10588
X18.26260 Y19.13128
X18.28800 Y19.13128
X18.28800 Y19.15668
X18.31340 Y19.15668
X18.31340 Y19.20748
X18.33880 Y19.20748
X18.33880 Y19.23288
X18.36420 Y19.23288
X18.36420 Y19.25828
X18.38960 Y19.25828
X18.38960 Y19.28368
X18.44040 Y19.28368
X18.44040 Y19.30908
X18.46580 Y19.30908
X18.46580 Y19.33448
X18.49120 Y19.33448
X18.49120 Y19.35988
X18.54200 Y19.35988
X18.54200 Y19.38528
X18.56740 Y19.38528
X18.56740 Y19.41068
X18.64360 Y19.41068
X18.64360 Y19.43608
X18.69440 Y19.43608
X18.69440 Y19.46148
X18.74520 Y19.46148
X18.74520 Y19.48688
X18.84680 Y19.48688
X18.84680 Y19.51228
X18.94840 Y19.51228
X18.94840 Y19.53768
X22.17420 Y19.53768
X22.17420 Y19.51228
X22.27580 Y19.51228
X22.27580 Y19.48688
X22.37740 Y19.48688
X22.37740 Y19.46148
X22.42820 Y19.46148
X22.42820 Y19.43608
X22.47900 Y19.43608
X22.47900 Y19.41068
X22.55520 Y19.41068
X22.55520 Y19.38528
X22.58060 Y19.38528
X22.58060 Y19.35988
X22.63140 Y19.35988
X22.63140 Y19.33448
X22.65680 Y19.33448
X22.65680 Y19.30908
X22.68220 Y19.30908
X22.68220 Y19.28368
X22.73300 Y19.28368
X22.73300 Y19.25828
X22.75840 Y19.25828
X22.75840 Y19.23288
X22.78380 Y19.23288
X22.78380 Y19.20748
X22.80920 Y19.20748
X22.80920 Y19.15668
X22.83460 Y19.15668
X22.83460 Y19.13128
X22.86000 Y19.13128
X22.86000 Y19.10588
X22.88540 Y19.10588
X22.88540 Y19.08048
X22.91080 Y19.08048
X22.91080 Y19.02968
X22.93620 Y19.02968
X22.93620 Y18.97888
X22.96160 Y18.97888
X22.96160 Y18.95348
X22.98700 Y18.95348
X22.98700 Y18.90268
X23.01240 Y18.90268
X23.01240 Y18.87728
X24.38400 Y18.87728
X24.38400 Y18.90268
X24.40940 Y18.90268
X24.40940 Y18.92808
X24.43480 Y18.92808
X24.43480 Y18.95348
X24.46020 Y18.95348
X24.46020 Y18.97888
X24.48560 Y18.97888
X24.48560 Y19.00428
X24.51100 Y19.00428
X24.51100 Y19.02968
X24.53640 Y19.02968
X24.53640 Y19.05508
X24.56180 Y19.05508
X24.56180 Y19.08048
X24.58720 Y19.08048
X24.58720 Y19.10588
X24.61260 Y19.10588
X24.61260 Y19.13128
X24.63800 Y19.13128
X24.63800 Y19.15668
X24.66340 Y19.15668
X24.66340 Y19.18208
