( pcb2gcode 1.1.5 )
      
M7 ( Coolant on. )

G94 ( Millimeters per minute feed rate. )
G21 ( Units == Millimeters. )

G90 ( Absolute coordinates. )
S20000 ( RPM spindle speed. )
F120.00000 ( Feedrate. )
G64 P0.00000 ( set maximum deviation from commanded toolpath )

M3 ( Spindle on clockwise. )
G04 P0 ( dwell for no time -- G64 should not smooth over this point )
G00 Z5.00000 ( retract )

G00 X-45.51680 Y36.75380 ( rapid move to begin. )
G01 Z0.00000 F60.00000 ( plunge. )
G04 P0 ( dwell for no time -- G64 should not smooth over this point )
F120.00000
X-45.51680 Y36.75380
X-45.51680 Y36.75380
X-45.51680 Y36.75380
X-45.51680 Y36.72840
X-45.51680 Y36.70300
X-45.51680 Y36.67760
X-45.51680 Y36.65220
X-45.51680 Y36.62680
X-45.51680 Y36.60140
X-45.51680 Y36.57600
X-45.51680 Y36.55060
X-45.51680 Y36.52520
X-45.51680 Y36.49980
X-45.51680 Y36.47440
X-45.51680 Y36.44900
X-45.51680 Y36.42360
X-45.51680 Y36.39820
X-45.51680 Y36.37280
X-45.51680 Y36.34740
X-45.51680 Y36.32200
X-45.51680 Y36.29660
X-45.51680 Y36.27120
X-45.51680 Y36.24580
X-45.51680 Y36.22040
X-45.51680 Y36.19500
X-45.51680 Y36.16960
X-45.51680 Y36.14420
X-45.51680 Y36.11880
X-45.51680 Y36.09340
X-45.51680 Y36.06800
X-45.51680 Y36.04260
X-45.51680 Y36.01720
X-45.51680 Y35.99180
X-45.51680 Y35.96640
X-45.51680 Y35.94100
X-45.51680 Y35.91560
X-45.51680 Y35.89020
X-45.51680 Y35.86480
X-45.51680 Y35.83940
X-45.51680 Y35.81400
X-45.51680 Y35.78860
X-45.51680 Y35.76320
X-45.51680 Y35.73780
X-45.51680 Y35.71240
X-45.51680 Y35.68700
X-45.51680 Y35.66160
X-45.51680 Y35.63620
X-45.51680 Y35.61080
X-45.51680 Y35.58540
X-45.51680 Y35.56000
X-45.51680 Y35.53460
X-45.51680 Y35.50920
X-45.51680 Y35.48380
X-45.51680 Y35.45840
X-45.51680 Y35.43300
X-45.51680 Y35.40760
X-45.51680 Y35.38220
X-45.51680 Y35.35680
X-45.51680 Y35.33140
X-45.51680 Y35.30600
X-45.51680 Y35.28060
X-45.51680 Y35.25520
X-45.51680 Y35.22980
X-45.51680 Y35.20440
X-45.51680 Y35.17900
X-45.51680 Y35.15360
X-45.51680 Y35.12820
X-45.51680 Y35.10280
X-45.51680 Y35.07740
X-45.51680 Y35.05200
X-45.51680 Y35.02660
X-45.51680 Y35.00120
X-45.51680 Y34.97580
X-45.51680 Y34.95040
X-45.51680 Y34.92500
X-45.51680 Y34.89960
X-45.51680 Y34.87420
X-45.51680 Y34.84880
X-45.51680 Y34.82340
X-45.51680 Y34.79800
X-45.51680 Y34.77260
X-45.51680 Y34.74720
X-45.51680 Y34.72180
X-45.51680 Y34.69640
X-45.51680 Y34.67100
X-45.51680 Y34.64560
X-45.51680 Y34.62020
X-45.51680 Y34.59480
X-45.51680 Y34.56940
X-45.51680 Y34.54400
X-45.51680 Y34.51860
X-45.51680 Y34.49320
X-45.51680 Y34.46780
X-45.51680 Y34.44240
X-45.51680 Y34.41700
X-45.51680 Y34.39160
X-45.51680 Y34.36620
X-45.51680 Y34.34080
X-45.51680 Y34.31540
X-45.51680 Y34.29000
X-45.51680 Y34.26460
X-45.51680 Y34.23920
X-45.51680 Y34.21380
X-45.51680 Y34.18840
X-45.51680 Y34.16300
X-45.51680 Y34.13760
X-45.51680 Y34.11220
X-45.51680 Y34.08680
X-45.51680 Y34.06140
X-45.51680 Y34.03600
X-45.51680 Y34.01060
X-45.51680 Y33.98520
X-45.51680 Y33.95980
X-45.51680 Y33.93440
X-45.51680 Y33.90900
X-45.51680 Y33.88360
X-45.51680 Y33.85820
X-45.51680 Y33.83280
X-45.51680 Y33.80740
X-45.51680 Y33.78200
X-45.51680 Y33.75660
X-45.51680 Y33.73120
X-45.51680 Y33.70580
X-45.51680 Y33.68040
X-45.51680 Y33.65500
X-45.51680 Y33.62960
X-45.51680 Y33.60420
X-45.51680 Y33.57880
X-45.51680 Y33.55340
X-45.51680 Y33.52800
X-45.51680 Y33.50260
X-45.51680 Y33.47720
X-45.51680 Y33.45180
X-45.51680 Y33.42640
X-45.51680 Y33.40100
X-45.51680 Y33.37560
X-45.51680 Y33.35020
X-45.51680 Y33.32480
X-45.51680 Y33.29940
X-45.51680 Y33.27400
X-45.51680 Y33.24860
X-45.51680 Y33.22320
X-45.51680 Y33.19780
X-45.51680 Y33.17240
X-45.51680 Y33.14700
X-45.51680 Y33.12160
X-45.51680 Y33.09620
X-45.51680 Y33.07080
X-45.51680 Y33.04540
X-45.51680 Y33.02000
X-45.51680 Y32.99460
X-45.51680 Y32.96920
X-45.51680 Y32.94380
X-45.51680 Y32.91840
X-45.51680 Y32.89300
X-45.51680 Y32.86760
X-45.51680 Y32.84220
X-45.51680 Y32.81680
X-45.51680 Y32.79140
X-45.51680 Y32.76600
X-45.51680 Y32.74060
X-45.51680 Y32.71520
X-45.51680 Y32.68980
X-45.51680 Y32.66440
X-45.51680 Y32.63900
X-45.51680 Y32.61360
X-45.51680 Y32.58820
X-45.51680 Y32.56280
X-45.51680 Y32.53740
X-45.51680 Y32.51200
X-45.51680 Y32.48660
X-45.51680 Y32.46120
X-45.51680 Y32.43580
X-45.51680 Y32.41040
X-45.51680 Y32.38500
X-45.51680 Y32.35960
X-45.51680 Y32.33420
X-45.51680 Y32.30880
X-45.51680 Y32.28340
X-45.51680 Y32.25800
X-45.51680 Y32.23260
X-45.51680 Y32.20720
X-45.51680 Y32.18180
X-45.51680 Y32.15640
X-45.51680 Y32.13100
X-45.51680 Y32.10560
X-45.51680 Y32.08020
X-45.51680 Y32.05480
X-45.51680 Y32.02940
X-45.51680 Y32.00400
X-45.51680 Y31.97860
X-45.51680 Y31.95320
X-45.51680 Y31.92780
X-45.51680 Y31.90240
X-45.51680 Y31.87700
X-45.51680 Y31.85160
X-45.51680 Y31.82620
X-45.51680 Y31.80080
X-45.51680 Y31.77540
X-45.51680 Y31.75000
X-45.51680 Y31.72460
X-45.51680 Y31.69920
X-45.51680 Y31.67380
X-45.51680 Y31.64840
X-45.51680 Y31.62300
X-45.51680 Y31.59760
X-45.51680 Y31.57220
X-45.51680 Y31.54680
X-45.51680 Y31.52140
X-45.51680 Y31.49600
X-45.51680 Y31.47060
X-45.51680 Y31.44520
X-45.51680 Y31.41980
X-45.51680 Y31.39440
X-45.51680 Y31.36900
X-45.51680 Y31.34360
X-45.51680 Y31.31820
X-45.51680 Y31.29280
X-45.51680 Y31.26740
X-45.51680 Y31.24200
X-45.51680 Y31.21660
X-45.51680 Y31.19120
X-45.51680 Y31.16580
X-45.51680 Y31.14040
X-45.51680 Y31.11500
X-45.51680 Y31.08960
X-45.51680 Y31.06420
X-45.51680 Y31.03880
X-45.51680 Y31.01340
X-45.51680 Y30.98800
X-45.51680 Y30.96260
X-45.51680 Y30.93720
X-45.51680 Y30.91180
X-45.51680 Y30.88640
X-45.51680 Y30.86100
X-45.51680 Y30.83560
X-45.51680 Y30.81020
X-45.51680 Y30.78480
X-45.51680 Y30.75940
X-45.51680 Y30.73400
X-45.51680 Y30.70860
X-45.51680 Y30.68320
X-45.51680 Y30.65780
X-45.51680 Y30.63240
X-45.51680 Y30.60700
X-45.51680 Y30.58160
X-45.51680 Y30.55620
X-45.51680 Y30.53080
X-45.51680 Y30.50540
X-45.51680 Y30.48000
X-45.51680 Y30.45460
X-45.51680 Y30.42920
X-45.51680 Y30.40380
X-45.51680 Y30.37840
X-45.51680 Y30.35300
X-45.51680 Y30.32760
X-45.51680 Y30.30220
X-45.51680 Y30.27680
X-45.51680 Y30.25140
X-45.51680 Y30.22600
X-45.51680 Y30.20060
X-45.51680 Y30.17520
X-45.51680 Y30.14980
X-45.51680 Y30.12440
X-45.51680 Y30.09900
X-45.51680 Y30.07360
X-45.51680 Y30.04820
X-45.51680 Y30.02280
X-45.51680 Y29.99740
X-45.51680 Y29.97200
X-45.51680 Y29.94660
X-45.51680 Y29.92120
X-45.51680 Y29.89580
X-45.51680 Y29.87040
X-45.51680 Y29.84500
X-45.51680 Y29.81960
X-45.51680 Y29.79420
X-45.51680 Y29.76880
X-45.51680 Y29.74340
X-45.51680 Y29.71800
X-45.51680 Y29.69260
X-45.51680 Y29.66720
X-45.51680 Y29.64180
X-45.51680 Y29.61640
X-45.51680 Y29.59100
X-45.51680 Y29.56560
X-45.51680 Y29.54020
X-45.51680 Y29.51480
X-45.51680 Y29.48940
X-45.51680 Y29.46400
X-45.51680 Y29.43860
X-45.51680 Y29.41320
X-45.51680 Y29.38780
X-45.51680 Y29.36240
X-45.51680 Y29.33700
X-45.51680 Y29.31160
X-45.51680 Y29.28620
X-45.51680 Y29.26080
X-45.51680 Y29.23540
X-45.51680 Y29.21000
X-45.51680 Y29.18460
X-45.51680 Y29.15920
X-45.51680 Y29.13380
X-45.51680 Y29.10840
X-45.51680 Y29.08300
X-45.51680 Y29.05760
X-45.51680 Y29.03220
X-45.51680 Y29.00680
X-45.51680 Y28.98140
X-45.51680 Y28.95600
X-45.51680 Y28.93060
X-45.51680 Y28.90520
X-45.51680 Y28.87980
X-45.51680 Y28.85440
X-45.51680 Y28.82900
X-45.51680 Y28.80360
X-45.51680 Y28.77820
X-45.51680 Y28.75280
X-45.51680 Y28.72740
X-45.51680 Y28.70200
X-45.51680 Y28.67660
X-45.51680 Y28.65120
X-45.51680 Y28.62580
X-45.51680 Y28.60040
X-45.51680 Y28.57500
X-45.51680 Y28.54960
X-45.51680 Y28.52420
X-45.51680 Y28.49880
X-45.51680 Y28.47340
X-45.51680 Y28.44800
X-45.51680 Y28.42260
X-45.51680 Y28.39720
X-45.51680 Y28.37180
X-45.51680 Y28.34640
X-45.51680 Y28.32100
X-45.51680 Y28.29560
X-45.51680 Y28.27020
X-45.51680 Y28.24480
X-45.51680 Y28.21940
X-45.51680 Y28.19400
X-45.51680 Y28.16860
X-45.51680 Y28.14320
X-45.51680 Y28.11780
X-45.51680 Y28.09240
X-45.51680 Y28.06700
X-45.51680 Y28.04160
X-45.51680 Y28.01620
X-45.51680 Y27.99080
X-45.51680 Y27.96540
X-45.51680 Y27.94000
X-45.51680 Y27.91460
X-45.51680 Y27.88920
X-45.51680 Y27.86380
X-45.51680 Y27.83840
X-45.51680 Y27.81300
X-45.51680 Y27.78760
X-45.51680 Y27.76220
X-45.51680 Y27.73680
X-45.51680 Y27.71140
X-45.51680 Y27.68600
X-45.51680 Y27.66060
X-45.51680 Y27.63520
X-45.51680 Y27.60980
X-45.51680 Y27.58440
X-45.51680 Y27.55900
X-45.51680 Y27.53360
X-45.51680 Y27.50820
X-45.51680 Y27.48280
X-45.51680 Y27.45740
X-45.51680 Y27.43200
X-45.51680 Y27.40660
X-45.51680 Y27.38120
X-45.51680 Y27.35580
X-45.51680 Y27.33040
X-45.51680 Y27.30500
X-45.51680 Y27.27960
X-45.51680 Y27.25420
X-45.51680 Y27.22880
X-45.51680 Y27.20340
X-45.51680 Y27.17800
X-45.51680 Y27.15260
X-45.51680 Y27.12720
X-45.51680 Y27.10180
X-45.51680 Y27.07640
X-45.51680 Y27.05100
X-45.51680 Y27.02560
X-45.51680 Y27.00020
X-45.51680 Y26.97480
X-45.51680 Y26.94940
X-45.51680 Y26.92400
X-45.51680 Y26.89860
X-45.51680 Y26.87320
X-45.51680 Y26.84780
X-45.51680 Y26.82240
X-45.51680 Y26.79700
X-45.51680 Y26.77160
X-45.51680 Y26.74620
X-45.51680 Y26.72080
X-45.51680 Y26.69540
X-45.51680 Y26.67000
X-45.51680 Y26.64460
X-45.51680 Y26.61920
X-45.51680 Y26.59380
X-45.51680 Y26.56840
X-45.51680 Y26.54300
X-45.51680 Y26.51760
X-45.51680 Y26.49220
X-45.51680 Y26.46680
X-45.51680 Y26.44140
X-45.51680 Y26.41600
X-45.51680 Y26.39060
X-45.51680 Y26.36520
X-45.51680 Y26.33980
X-45.51680 Y26.31440
X-45.51680 Y26.28900
X-45.51680 Y26.26360
X-45.51680 Y26.23820
X-45.51680 Y26.21280
X-45.51680 Y26.18740
X-45.51680 Y26.16200
X-45.51680 Y26.13660
X-45.51680 Y26.11120
X-45.51680 Y26.08580
X-45.51680 Y26.06040
X-45.51680 Y26.03500
X-45.51680 Y26.00960
X-45.51680 Y25.98420
X-45.51680 Y25.95880
X-45.51680 Y25.93340
X-45.51680 Y25.90800
X-45.51680 Y25.88260
X-45.51680 Y25.85720
X-45.51680 Y25.83180
X-45.51680 Y25.80640
X-45.51680 Y25.78100
X-45.51680 Y25.75560
X-45.51680 Y25.73020
X-45.51680 Y25.70480
X-45.51680 Y25.67940
X-45.51680 Y25.65400
X-45.51680 Y25.62860
X-45.51680 Y25.60320
X-45.51680 Y25.57780
X-45.51680 Y25.55240
X-45.51680 Y25.52700
X-45.51680 Y25.50160
X-45.51680 Y25.47620
X-45.51680 Y25.45080
X-45.51680 Y25.42540
X-45.51680 Y25.40000
X-45.51680 Y25.37460
X-45.51680 Y25.34920
X-45.51680 Y25.32380
X-45.51680 Y25.29840
X-45.51680 Y25.27300
X-45.51680 Y25.24760
X-45.51680 Y25.22220
X-45.51680 Y25.19680
X-45.51680 Y25.17140
X-45.51680 Y25.14600
X-45.51680 Y25.12060
X-45.51680 Y25.09520
X-45.51680 Y25.06980
X-45.51680 Y25.04440
X-45.51680 Y25.01900
X-45.51680 Y24.99360
X-45.51680 Y24.96820
X-45.51680 Y24.94280
X-45.51680 Y24.91740
X-45.51680 Y24.89200
X-45.51680 Y24.86660
X-45.51680 Y24.84120
X-45.51680 Y24.81580
X-45.51680 Y24.79040
X-45.51680 Y24.76500
X-45.51680 Y24.73960
X-45.51680 Y24.71420
X-45.51680 Y24.68880
X-45.51680 Y24.66340
X-45.51680 Y24.63800
X-45.51680 Y24.61260
X-45.51680 Y24.58720
X-45.51680 Y24.56180
X-45.51680 Y24.53640
X-45.51680 Y24.51100
X-45.51680 Y24.48560
X-45.51680 Y24.46020
X-45.51680 Y24.43480
X-45.51680 Y24.40940
X-45.51680 Y24.38400
X-45.51680 Y24.35860
X-45.51680 Y24.33320
X-45.51680 Y24.30780
X-45.51680 Y24.28240
X-45.51680 Y24.25700
X-45.51680 Y24.23160
X-45.51680 Y24.20620
X-45.51680 Y24.18080
X-45.51680 Y24.15540
X-45.51680 Y24.13000
X-45.51680 Y24.10460
X-45.51680 Y24.07920
X-45.51680 Y24.05380
X-45.51680 Y24.02840
X-45.51680 Y24.00300
X-45.51680 Y23.97760
X-45.51680 Y23.95220
X-45.51680 Y23.92680
X-45.51680 Y23.90140
X-45.51680 Y23.87600
X-45.51680 Y23.85060
X-45.51680 Y23.82520
X-45.51680 Y23.79980
X-45.51680 Y23.77440
X-45.51680 Y23.74900
X-45.51680 Y23.72360
X-45.51680 Y23.69820
X-45.51680 Y23.67280
X-45.51680 Y23.64740
X-45.51680 Y23.62200
X-45.51680 Y23.59660
X-45.51680 Y23.57120
X-45.51680 Y23.54580
X-45.51680 Y23.52040
X-45.51680 Y23.49500
X-45.51680 Y23.46960
X-45.51680 Y23.44420
X-45.51680 Y23.41880
X-45.51680 Y23.39340
X-45.51680 Y23.36800
X-45.51680 Y23.34260
X-45.51680 Y23.31720
X-45.51680 Y23.29180
X-45.51680 Y23.26640
X-45.51680 Y23.24100
X-45.51680 Y23.21560
X-45.51680 Y23.19020
X-45.51680 Y23.16480
X-45.51680 Y23.13940
X-45.51680 Y23.11400
X-45.51680 Y23.08860
X-45.51680 Y23.06320
X-45.51680 Y23.03780
X-45.51680 Y23.01240
X-45.51680 Y22.98700
X-45.51680 Y22.96160
X-45.51680 Y22.93620
X-45.51680 Y22.91080
X-45.51680 Y22.88540
X-45.51680 Y22.86000
X-45.51680 Y22.83460
X-45.51680 Y22.80920
X-45.51680 Y22.78380
X-45.51680 Y22.75840
X-45.51680 Y22.73300
X-45.51680 Y22.70760
X-45.51680 Y22.68220
X-45.51680 Y22.65680
X-45.51680 Y22.63140
X-45.51680 Y22.60600
X-45.51680 Y22.58060
X-45.51680 Y22.55520
X-45.51680 Y22.52980
X-45.51680 Y22.50440
X-45.51680 Y22.47900
X-45.51680 Y22.45360
X-45.51680 Y22.42820
X-45.51680 Y22.40280
X-45.51680 Y22.37740
X-45.51680 Y22.35200
X-45.51680 Y22.32660
X-45.51680 Y22.30120
X-45.51680 Y22.27580
X-45.51680 Y22.25040
X-45.51680 Y22.22500
X-45.51680 Y22.19960
X-45.51680 Y22.17420
X-45.51680 Y22.14880
X-45.51680 Y22.12340
X-45.51680 Y22.09800
X-45.51680 Y22.07260
X-45.51680 Y22.04720
X-45.51680 Y22.02180
X-45.51680 Y21.99640
X-45.51680 Y21.97100
X-45.51680 Y21.94560
X-45.51680 Y21.92020
X-45.51680 Y21.89480
X-45.51680 Y21.86940
X-45.51680 Y21.84400
X-45.51680 Y21.81860
X-45.51680 Y21.79320
X-45.51680 Y21.76780
X-45.51680 Y21.74240
X-45.51680 Y21.71700
X-45.51680 Y21.69160
X-45.51680 Y21.66620
X-45.51680 Y21.64080
X-45.51680 Y21.61540
X-45.51680 Y21.59000
X-45.51680 Y21.56460
X-45.51680 Y21.53920
X-45.51680 Y21.51380
X-45.51680 Y21.48840
X-45.51680 Y21.46300
X-45.51680 Y21.43760
X-45.51680 Y21.41220
X-45.51680 Y21.38680
X-45.51680 Y21.36140
X-45.51680 Y21.33600
X-45.51680 Y21.31060
X-45.51680 Y21.28520
X-45.51680 Y21.25980
X-45.51680 Y21.23440
X-45.51680 Y21.20900
X-45.51680 Y21.18360
X-45.51680 Y21.15820
X-45.51680 Y21.13280
X-45.51680 Y21.10740
X-45.51680 Y21.08200
X-45.51680 Y21.05660
X-45.51680 Y21.03120
X-45.51680 Y21.00580
X-45.51680 Y20.98040
X-45.51680 Y20.95500
X-45.51680 Y20.92960
X-45.51680 Y20.90420
X-45.51680 Y20.87880
X-45.51680 Y20.85340
X-45.51680 Y20.82800
X-45.51680 Y20.80260
X-45.51680 Y20.77720
X-45.51680 Y20.75180
X-45.51680 Y20.72640
X-45.51680 Y20.70100
X-45.51680 Y20.67560
X-45.51680 Y20.65020
X-45.51680 Y20.62480
X-45.51680 Y20.59940
X-45.51680 Y20.57400
X-45.51680 Y20.54860
X-45.51680 Y20.52320
X-45.51680 Y20.49780
X-45.51680 Y20.47240
X-45.51680 Y20.44700
X-45.51680 Y20.42160
X-45.51680 Y20.39620
X-45.51680 Y20.37080
X-45.51680 Y20.34540
X-45.51680 Y20.32000
X-45.51680 Y20.29460
X-45.51680 Y20.26920
X-45.51680 Y20.24380
X-45.51680 Y20.21840
X-45.51680 Y20.19300
X-45.51680 Y20.16760
X-45.51680 Y20.14220
X-45.51680 Y20.11680
X-45.51680 Y20.09140
X-45.51680 Y20.06600
X-45.51680 Y20.04060
X-45.51680 Y20.01520
X-45.51680 Y19.98980
X-45.51680 Y19.96440
X-45.51680 Y19.93900
X-45.51680 Y19.91360
X-45.51680 Y19.88820
X-45.51680 Y19.86280
X-45.51680 Y19.83740
X-45.51680 Y19.81200
X-45.51680 Y19.80390
Z5.00000
X-45.51680 Y19.78660
X-45.51680 Y19.76120
X-45.51680 Y19.73580
X-45.51680 Y19.71040
X-45.51680 Y19.68500
X-45.51680 Y19.65960
X-45.51680 Y19.63420
X-45.51680 Y19.60880
X-45.51680 Y19.58340
X-45.51680 Y19.55800
X-45.51680 Y19.53260
X-45.51680 Y19.50720
X-45.51680 Y19.48180
X-45.51680 Y19.45640
X-45.51680 Y19.43100
X-45.51680 Y19.40560
X-45.51680 Y19.38020
X-45.51680 Y19.35480
X-45.51680 Y19.32940
X-45.51680 Y19.30400
X-45.51680 Y19.27860
X-45.51680 Y19.25320
X-45.51680 Y19.22780
X-45.51680 Y19.20240
X-45.51680 Y19.17700
X-45.51680 Y19.15160
X-45.51680 Y19.12620
X-45.51680 Y19.10080
X-45.51680 Y19.07540
X-45.51680 Y19.05000
X-45.51680 Y19.02460
X-45.51680 Y18.99920
X-45.51680 Y18.97380
X-45.51680 Y18.94840
X-45.51680 Y18.92300
X-45.51680 Y18.89760
X-45.51680 Y18.87220
X-45.51680 Y18.84680
X-45.51680 Y18.82140
X-45.51680 Y18.79600
X-45.51680 Y18.77060
X-45.51680 Y18.74520
X-45.51680 Y18.71980
X-45.51680 Y18.69440
X-45.51680 Y18.66900
X-45.51680 Y18.64360
X-45.51680 Y18.61820
X-45.51680 Y18.59280
X-45.51680 Y18.56740
X-45.51680 Y18.54200
X-45.51680 Y18.51660
X-45.51680 Y18.49120
X-45.51680 Y18.46580
X-45.51680 Y18.44040
X-45.51680 Y18.41500
X-45.51680 Y18.38960
X-45.51680 Y18.36420
X-45.51680 Y18.33880
X-45.51680 Y18.31340
X-45.51680 Y18.28800
X-45.51680 Y18.26260
X-45.51680 Y18.23720
X-45.51680 Y18.21180
X-45.51680 Y18.18640
X-45.51680 Y18.16100
X-45.51680 Y18.13560
X-45.51680 Y18.11020
X-45.51680 Y18.08480
X-45.51680 Y18.05940
X-45.51680 Y18.03400
X-45.51680 Y18.00860
X-45.51680 Y17.98320
X-45.51680 Y17.95780
X-45.51680 Y17.93240
X-45.51680 Y17.90700
X-45.51680 Y17.88160
X-45.51680 Y17.85620
X-45.51680 Y17.83080
X-45.51680 Y17.80540
X-45.51680 Y17.78000
X-45.51680 Y17.75460
X-45.51680 Y17.72920
X-45.51680 Y17.70380
X-45.51680 Y17.67840
X-45.51680 Y17.65300
X-45.51680 Y17.62760
X-45.51680 Y17.60220
X-45.51680 Y17.57680
X-45.51680 Y17.55140
X-45.51680 Y17.52600
X-45.51680 Y17.50060
X-45.51680 Y17.47520
X-45.51680 Y17.44980
X-45.51680 Y17.42440
X-45.51680 Y17.39900
X-45.51680 Y17.37360
X-45.51680 Y17.34820
X-45.51680 Y17.32280
X-45.51680 Y17.29740
X-45.51680 Y17.27200
X-45.51680 Y17.24660
X-45.51680 Y17.22120
X-45.51680 Y17.20390
Z0.00000
X-45.51680 Y17.19580
X-45.51680 Y17.17040
X-45.51680 Y17.14500
X-45.51680 Y17.11960
X-45.51680 Y17.09420
X-45.51680 Y17.06880
X-45.51680 Y17.04340
X-45.51680 Y17.01800
X-45.51680 Y16.99260
X-45.51680 Y16.96720
X-45.51680 Y16.94180
X-45.51680 Y16.91640
X-45.51680 Y16.89100
X-45.51680 Y16.86560
X-45.51680 Y16.84020
X-45.51680 Y16.81480
X-45.51680 Y16.78940
X-45.51680 Y16.76400
X-45.51680 Y16.73860
X-45.51680 Y16.71320
X-45.51680 Y16.68780
X-45.51680 Y16.66240
X-45.51680 Y16.63700
X-45.51680 Y16.61160
X-45.51680 Y16.58620
X-45.51680 Y16.56080
X-45.51680 Y16.53540
X-45.51680 Y16.51000
X-45.51680 Y16.48460
X-45.51680 Y16.45920
X-45.51680 Y16.43380
X-45.51680 Y16.40840
X-45.51680 Y16.38300
X-45.51680 Y16.35760
X-45.51680 Y16.33220
X-45.51680 Y16.30680
X-45.51680 Y16.28140
X-45.51680 Y16.25600
X-45.51680 Y16.23060
X-45.51680 Y16.20520
X-45.51680 Y16.17980
X-45.51680 Y16.15440
X-45.51680 Y16.12900
X-45.51680 Y16.10360
X-45.51680 Y16.07820
X-45.51680 Y16.05280
X-45.51680 Y16.02740
X-45.51680 Y16.00200
X-45.51680 Y15.97660
X-45.51680 Y15.95120
X-45.51680 Y15.92580
X-45.51680 Y15.90040
X-45.51680 Y15.87500
X-45.51680 Y15.84960
X-45.51680 Y15.82420
X-45.51680 Y15.79880
X-45.51680 Y15.77340
X-45.51680 Y15.74800
X-45.51680 Y15.72260
X-45.51680 Y15.69720
X-45.51680 Y15.67180
X-45.51680 Y15.64640
X-45.51680 Y15.62100
X-45.51680 Y15.59560
X-45.51680 Y15.57020
X-45.51680 Y15.54480
X-45.51680 Y15.51940
X-45.51680 Y15.49400
X-45.51680 Y15.46860
X-45.51680 Y15.44320
X-45.51680 Y15.41780
X-45.51680 Y15.39240
X-45.51680 Y15.36700
X-45.51680 Y15.34160
X-45.51680 Y15.31620
X-45.51680 Y15.29080
X-45.51680 Y15.26540
X-45.51680 Y15.24000
X-45.51680 Y15.21460
X-45.51680 Y15.18920
X-45.51680 Y15.16380
X-45.51680 Y15.13840
X-45.51680 Y15.11300
X-45.51680 Y15.08760
X-45.51680 Y15.06220
X-45.51680 Y15.03680
X-45.51680 Y15.01140
X-45.51680 Y14.98600
X-45.51680 Y14.96060
X-45.51680 Y14.93520
X-45.51680 Y14.90980
X-45.51680 Y14.88440
X-45.51680 Y14.85900
X-45.51680 Y14.83360
X-45.51680 Y14.80820
X-45.51680 Y14.78280
X-45.51680 Y14.75740
X-45.51680 Y14.73200
X-45.51680 Y14.70660
X-45.51680 Y14.68120
X-45.51680 Y14.65580
X-45.51680 Y14.63040
X-45.51680 Y14.60500
X-45.51680 Y14.57960
X-45.51680 Y14.55420
X-45.51680 Y14.52880
X-45.51680 Y14.50340
X-45.51680 Y14.47800
X-45.51680 Y14.45260
X-45.51680 Y14.42720
X-45.51680 Y14.40180
X-45.51680 Y14.37640
X-45.51680 Y14.35100
X-45.51680 Y14.32560
X-45.51680 Y14.30020
X-45.51680 Y14.27480
X-45.51680 Y14.24940
X-45.51680 Y14.22400
X-45.51680 Y14.19860
X-45.51680 Y14.17320
X-45.51680 Y14.14780
X-45.51680 Y14.12240
X-45.51680 Y14.09700
X-45.51680 Y14.07160
X-45.51680 Y14.04620
X-45.51680 Y14.02080
X-45.51680 Y13.99540
X-45.51680 Y13.97000
X-45.51680 Y13.94460
X-45.51680 Y13.91920
X-45.51680 Y13.89380
X-45.51680 Y13.86840
X-45.51680 Y13.84300
X-45.51680 Y13.81760
X-45.51680 Y13.79220
X-45.51680 Y13.76680
X-45.51680 Y13.74140
X-45.51680 Y13.71600
X-45.51680 Y13.69060
X-45.51680 Y13.66520
X-45.51680 Y13.63980
X-45.51680 Y13.61440
X-45.51680 Y13.58900
X-45.51680 Y13.56360
X-45.51680 Y13.53820
X-45.51680 Y13.51280
X-45.51680 Y13.48740
X-45.51680 Y13.46200
X-45.51680 Y13.43660
X-45.51680 Y13.41120
X-45.51680 Y13.38580
X-45.51680 Y13.36040
X-45.51680 Y13.33500
X-45.51680 Y13.30960
X-45.51680 Y13.28420
X-45.51680 Y13.25880
X-45.51680 Y13.23340
X-45.51680 Y13.20800
X-45.51680 Y13.18260
X-45.51680 Y13.15720
X-45.51680 Y13.13180
X-45.51680 Y13.10640
X-45.51680 Y13.08100
X-45.51680 Y13.05560
X-45.51680 Y13.03020
X-45.51680 Y13.00480
X-45.51680 Y12.97940
X-45.51680 Y12.95400
X-45.51680 Y12.92860
X-45.51680 Y12.90320
X-45.51680 Y12.87780
X-45.51680 Y12.85240
X-45.51680 Y12.82700
X-45.51680 Y12.80160
X-45.51680 Y12.77620
X-45.51680 Y12.75080
X-45.51680 Y12.72540
X-45.51680 Y12.70000
X-45.51680 Y12.67460
X-45.51680 Y12.64920
X-45.51680 Y12.62380
X-45.51680 Y12.59840
X-45.51680 Y12.57300
X-45.51680 Y12.54760
X-45.51680 Y12.52220
X-45.51680 Y12.49680
X-45.51680 Y12.47140
X-45.51680 Y12.44600
X-45.51680 Y12.42060
X-45.51680 Y12.39520
X-45.51680 Y12.36980
X-45.51680 Y12.34440
X-45.51680 Y12.31900
X-45.51680 Y12.29360
X-45.51680 Y12.26820
X-45.51680 Y12.24280
X-45.51680 Y12.21740
X-45.51680 Y12.19200
X-45.51680 Y12.16660
X-45.51680 Y12.14120
X-45.51680 Y12.11580
X-45.51680 Y12.09040
X-45.51680 Y12.06500
X-45.51680 Y12.03960
X-45.51680 Y12.01420
X-45.51680 Y11.98880
X-45.51680 Y11.96340
X-45.51680 Y11.93800
X-45.51680 Y11.91260
X-45.51680 Y11.88720
X-45.51680 Y11.86180
X-45.51680 Y11.83640
X-45.51680 Y11.81100
X-45.51680 Y11.78560
X-45.51680 Y11.76020
X-45.51680 Y11.73480
X-45.51680 Y11.70940
X-45.51680 Y11.68400
X-45.51680 Y11.65860
X-45.51680 Y11.63320
X-45.51680 Y11.60780
X-45.51680 Y11.58240
X-45.51680 Y11.55700
X-45.51680 Y11.53160
X-45.51680 Y11.50620
X-45.51680 Y11.48080
X-45.51680 Y11.45540
X-45.51680 Y11.43000
X-45.51680 Y11.40460
X-45.51680 Y11.37920
X-45.51680 Y11.35380
X-45.51680 Y11.32840
X-45.51680 Y11.30300
X-45.51680 Y11.27760
X-45.51680 Y11.25220
X-45.51680 Y11.22680
X-45.51680 Y11.20140
X-45.51680 Y11.17600
X-45.51680 Y11.15060
X-45.51680 Y11.12520
X-45.51680 Y11.09980
X-45.51680 Y11.07440
X-45.51680 Y11.04900
X-45.51680 Y11.02360
X-45.51680 Y10.99820
X-45.51680 Y10.97280
X-45.51680 Y10.94740
X-45.51680 Y10.92200
X-45.51680 Y10.89660
X-45.51680 Y10.87120
X-45.51680 Y10.84580
X-45.51680 Y10.82040
X-45.51680 Y10.79500
X-45.51680 Y10.76960
X-45.51680 Y10.74420
X-45.51680 Y10.71880
X-45.51680 Y10.69340
X-45.51680 Y10.66800
X-45.51680 Y10.64260
X-45.51680 Y10.61720
X-45.51680 Y10.59180
X-45.51680 Y10.56640
X-45.51680 Y10.54100
X-45.51680 Y10.51560
X-45.51680 Y10.49020
X-45.51680 Y10.46480
X-45.51680 Y10.43940
X-45.51680 Y10.41400
X-45.51680 Y10.38860
X-45.51680 Y10.36320
X-45.51680 Y10.33780
X-45.51680 Y10.31240
X-45.51680 Y10.28700
X-45.51680 Y10.26160
X-45.51680 Y10.23620
X-45.51680 Y10.21080
X-45.51680 Y10.18540
X-45.51680 Y10.16000
X-45.51680 Y10.13460
X-45.51680 Y10.10920
X-45.51680 Y10.08380
X-45.51680 Y10.05840
X-45.51680 Y10.03300
X-45.51680 Y10.00760
X-45.51680 Y9.98220
X-45.51680 Y9.95680
X-45.51680 Y9.93140
X-45.51680 Y9.90600
X-45.51680 Y9.88060
X-45.51680 Y9.85520
X-45.51680 Y9.82980
X-45.51680 Y9.80440
X-45.51680 Y9.77900
X-45.51680 Y9.75360
X-45.51680 Y9.72820
X-45.51680 Y9.70280
X-45.51680 Y9.67740
X-45.51680 Y9.65200
X-45.51680 Y9.62660
X-45.51680 Y9.60120
X-45.51680 Y9.57580
X-45.51680 Y9.55040
X-45.51680 Y9.52500
X-45.51680 Y9.49960
X-45.51680 Y9.47420
X-45.51680 Y9.44880
X-45.51680 Y9.42340
X-45.51680 Y9.39800
X-45.51680 Y9.37260
X-45.51680 Y9.34720
X-45.51680 Y9.32180
X-45.51680 Y9.29640
X-45.51680 Y9.27100
X-45.51680 Y9.24560
X-45.51680 Y9.22020
X-45.51680 Y9.19480
X-45.51680 Y9.16940
X-45.51680 Y9.14400
X-45.51680 Y9.11860
X-45.51680 Y9.09320
X-45.51680 Y9.06780
X-45.51680 Y9.04240
X-45.51680 Y9.01700
X-45.51680 Y8.99160
X-45.51680 Y8.96620
X-45.51680 Y8.94080
X-45.51680 Y8.91540
X-45.51680 Y8.89000
X-45.51680 Y8.86460
X-45.51680 Y8.83920
X-45.51680 Y8.81380
X-45.51680 Y8.78840
X-45.51680 Y8.76300
X-45.51680 Y8.73760
X-45.51680 Y8.71220
X-45.51680 Y8.68680
X-45.51680 Y8.66140
X-45.51680 Y8.63600
X-45.51680 Y8.61060
X-45.51680 Y8.58520
X-45.51680 Y8.55980
X-45.51680 Y8.53440
X-45.51680 Y8.50900
X-45.51680 Y8.48360
X-45.51680 Y8.45820
X-45.51680 Y8.43280
X-45.51680 Y8.40740
X-45.51680 Y8.38200
X-45.51680 Y8.35660
X-45.51680 Y8.33120
X-45.51680 Y8.30580
X-45.51680 Y8.28040
X-45.51680 Y8.25500
X-45.51680 Y8.22960
X-45.51680 Y8.20420
X-45.51680 Y8.17880
X-45.51680 Y8.15340
X-45.51680 Y8.12800
X-45.51680 Y8.10260
X-45.51680 Y8.07720
X-45.51680 Y8.05180
X-45.51680 Y8.02640
X-45.51680 Y8.00100
X-45.51680 Y7.97560
X-45.51680 Y7.95020
X-45.51680 Y7.92480
X-45.51680 Y7.89940
X-45.51680 Y7.87400
X-45.51680 Y7.84860
X-45.51680 Y7.82320
X-45.51680 Y7.79780
X-45.51680 Y7.77240
X-45.51680 Y7.74700
X-45.51680 Y7.72160
X-45.51680 Y7.69620
X-45.51680 Y7.67080
X-45.51680 Y7.64540
X-45.51680 Y7.62000
X-45.51680 Y7.59460
X-45.51680 Y7.56920
X-45.51680 Y7.54380
X-45.51680 Y7.51840
X-45.51680 Y7.49300
X-45.51680 Y7.46760
X-45.51680 Y7.44220
X-45.51680 Y7.41680
X-45.51680 Y7.39140
X-45.51680 Y7.36600
X-45.51680 Y7.34060
X-45.51680 Y7.31520
X-45.51680 Y7.28980
X-45.51680 Y7.26440
X-45.51680 Y7.23900
X-45.51680 Y7.21360
X-45.51680 Y7.18820
X-45.51680 Y7.16280
X-45.51680 Y7.13740
X-45.51680 Y7.11200
X-45.51680 Y7.08660
X-45.51680 Y7.06120
X-45.51680 Y7.03580
X-45.51680 Y7.01040
X-45.51680 Y6.98500
X-45.51680 Y6.95960
X-45.51680 Y6.93420
X-45.51680 Y6.90880
X-45.51680 Y6.88340
X-45.51680 Y6.85800
X-45.51680 Y6.83260
X-45.51680 Y6.80720
X-45.51680 Y6.78180
X-45.51680 Y6.75640
X-45.51680 Y6.73100
X-45.51680 Y6.70560
X-45.51680 Y6.68020
X-45.51680 Y6.65480
X-45.51680 Y6.62940
X-45.51680 Y6.60400
X-45.51680 Y6.57860
X-45.51680 Y6.55320
X-45.51680 Y6.52780
X-45.51680 Y6.50240
X-45.51680 Y6.47700
X-45.51680 Y6.45160
X-45.51680 Y6.42620
X-45.51680 Y6.40080
X-45.51680 Y6.37540
X-45.51680 Y6.35000
X-45.51680 Y6.32460
X-45.51680 Y6.29920
X-45.51680 Y6.27380
X-45.51680 Y6.24840
X-45.51680 Y6.22300
X-45.51680 Y6.19760
X-45.51680 Y6.17220
X-45.51680 Y6.14680
X-45.51680 Y6.12140
X-45.51680 Y6.09600
X-45.51680 Y6.07060
X-45.51680 Y6.04520
X-45.51680 Y6.01980
X-45.51680 Y5.99440
X-45.51680 Y5.96900
X-45.51680 Y5.94360
X-45.51680 Y5.91820
X-45.51680 Y5.89280
X-45.51680 Y5.86740
X-45.51680 Y5.84200
X-45.51680 Y5.81660
X-45.51680 Y5.79120
X-45.51680 Y5.76580
X-45.51680 Y5.74040
X-45.51680 Y5.71500
X-45.51680 Y5.68960
X-45.51680 Y5.66420
X-45.51680 Y5.63880
X-45.51680 Y5.61340
X-45.51680 Y5.58800
X-45.51680 Y5.56260
X-45.51680 Y5.53720
X-45.51680 Y5.51180
X-45.51680 Y5.48640
X-45.51680 Y5.46100
X-45.51680 Y5.43560
X-45.51680 Y5.41020
X-45.51680 Y5.38480
X-45.51680 Y5.35940
X-45.51680 Y5.33400
X-45.51680 Y5.30860
X-45.51680 Y5.28320
X-45.51680 Y5.25780
X-45.51680 Y5.23240
X-45.51680 Y5.20700
X-45.51680 Y5.18160
X-45.51680 Y5.15620
X-45.51680 Y5.13080
X-45.51680 Y5.10540
X-45.51680 Y5.08000
X-45.51680 Y5.05460
X-45.51680 Y5.02920
X-45.51680 Y5.00380
X-45.51680 Y4.97840
X-45.51680 Y4.95300
X-45.51680 Y4.92760
X-45.51680 Y4.90220
X-45.51680 Y4.87680
X-45.51680 Y4.85140
X-45.51680 Y4.82600
X-45.51680 Y4.80060
X-45.51680 Y4.77520
X-45.51680 Y4.74980
X-45.51680 Y4.72440
X-45.51680 Y4.69900
X-45.51680 Y4.67360
X-45.51680 Y4.64820
X-45.51680 Y4.62280
X-45.51680 Y4.59740
X-45.51680 Y4.57200
X-45.51680 Y4.54660
X-45.51680 Y4.52120
X-45.51680 Y4.49580
X-45.51680 Y4.47040
X-45.51680 Y4.44500
X-45.51680 Y4.41960
X-45.51680 Y4.39420
X-45.51680 Y4.36880
X-45.51680 Y4.34340
X-45.51680 Y4.31800
X-45.51680 Y4.29260
X-45.51680 Y4.26720
X-45.51680 Y4.24180
X-45.51680 Y4.21640
X-45.51680 Y4.19100
X-45.51680 Y4.16560
X-45.51680 Y4.14020
X-45.51680 Y4.11480
X-45.51680 Y4.08940
X-45.51680 Y4.06400
X-45.51680 Y4.03860
X-45.51680 Y4.01320
X-45.51680 Y3.98780
X-45.51680 Y3.96240
X-45.51680 Y3.93700
X-45.51680 Y3.91160
X-45.51680 Y3.88620
X-45.51680 Y3.86080
X-45.51680 Y3.83540
X-45.51680 Y3.81000
X-45.51680 Y3.78460
X-45.51680 Y3.75920
X-45.51680 Y3.73380
X-45.51680 Y3.70840
X-45.51680 Y3.68300
X-45.51680 Y3.65760
X-45.51680 Y3.63220
X-45.51680 Y3.60680
X-45.51680 Y3.58140
X-45.51680 Y3.55600
X-45.51680 Y3.53060
X-45.51680 Y3.50520
X-45.51680 Y3.47980
X-45.51680 Y3.45440
X-45.51680 Y3.42900
X-45.51680 Y3.40360
X-45.51680 Y3.37820
X-45.51680 Y3.35280
X-45.51680 Y3.32740
X-45.51680 Y3.30200
X-45.51680 Y3.27660
X-45.51680 Y3.25120
X-45.51680 Y3.22580
X-45.51680 Y3.20040
X-45.51680 Y3.17500
X-45.51680 Y3.14960
X-45.51680 Y3.12420
X-45.51680 Y3.09880
X-45.51680 Y3.07340
X-45.51680 Y3.04800
X-45.51680 Y3.02260
X-45.51680 Y2.99720
X-45.51680 Y2.97180
X-45.51680 Y2.94640
X-45.51680 Y2.92100
X-45.51680 Y2.89560
X-45.51680 Y2.87020
X-45.51680 Y2.84480
X-45.51680 Y2.81940
X-45.51680 Y2.79400
X-45.51680 Y2.76860
X-45.51680 Y2.74320
X-45.51680 Y2.71780
X-45.51680 Y2.69240
X-45.51680 Y2.66700
X-45.51680 Y2.64160
X-45.51680 Y2.61620
X-45.51680 Y2.59080
X-45.51680 Y2.56540
X-45.51680 Y2.54000
X-45.51680 Y2.51460
X-45.51680 Y2.48920
X-45.51680 Y2.46380
X-45.51680 Y2.43840
X-45.51680 Y2.41300
X-45.51680 Y2.38760
X-45.51680 Y2.36220
X-45.51680 Y2.33680
X-45.51680 Y2.31140
X-45.51680 Y2.28600
X-45.51680 Y2.26060
X-45.51680 Y2.23520
X-45.51680 Y2.20980
X-45.51680 Y2.18440
X-45.51680 Y2.15900
X-45.51680 Y2.13360
X-45.51680 Y2.10820
X-45.51680 Y2.08280
X-45.51680 Y2.05740
X-45.51680 Y2.03200
X-45.51680 Y2.00660
X-45.51680 Y1.98120
X-45.51680 Y1.95580
X-45.51680 Y1.93040
X-45.51680 Y1.90500
X-45.51680 Y1.87960
X-45.51680 Y1.85420
X-45.51680 Y1.82880
X-45.51680 Y1.80340
X-45.51680 Y1.77800
X-45.51680 Y1.75260
X-45.51680 Y1.72720
X-45.51680 Y1.70180
X-45.51680 Y1.67640
X-45.51680 Y1.65100
X-45.51680 Y1.62560
X-45.51680 Y1.60020
X-45.51680 Y1.57480
X-45.51680 Y1.54940
X-45.51680 Y1.52400
X-45.51680 Y1.49860
X-45.51680 Y1.47320
X-45.51680 Y1.44780
X-45.51680 Y1.42240
X-45.51680 Y1.39700
X-45.51680 Y1.37160
X-45.51680 Y1.34620
X-45.51680 Y1.32080
X-45.51680 Y1.29540
X-45.51680 Y1.27000
X-45.51680 Y1.24460
X-45.51680 Y1.21920
X-45.51680 Y1.19380
X-45.51680 Y1.16840
X-45.51680 Y1.14300
X-45.51680 Y1.11760
X-45.51680 Y1.09220
X-45.51680 Y1.06680
X-45.51680 Y1.04140
X-45.51680 Y1.01600
X-45.51680 Y0.99060
X-45.51680 Y0.96520
X-45.51680 Y0.93980
X-45.51680 Y0.91440
X-45.51680 Y0.88900
X-45.51680 Y0.86360
X-45.51680 Y0.83820
X-45.51680 Y0.81280
X-45.51680 Y0.78740
X-45.51680 Y0.76200
X-45.51680 Y0.73660
X-45.51680 Y0.71120
X-45.51680 Y0.68580
X-45.51680 Y0.66040
X-45.51680 Y0.63500
X-45.51680 Y0.60960
X-45.51680 Y0.58420
X-45.51680 Y0.55880
X-45.51680 Y0.53340
X-45.51680 Y0.50800
X-45.51680 Y0.48260
X-45.51680 Y0.45720
X-45.51680 Y0.43180
X-45.51680 Y0.40640
X-45.51680 Y0.38100
X-45.51680 Y0.35560
X-45.51680 Y0.33020
X-45.51680 Y0.30480
X-45.51680 Y0.27940
X-45.51680 Y0.25400
X-45.51680 Y0.22860
X-45.51680 Y0.20320
X-45.51680 Y0.17780
X-45.51680 Y0.15240
X-45.51680 Y0.12700
X-45.51680 Y0.10160
X-45.51680 Y0.07620
X-45.51680 Y0.05080
X-45.51680 Y0.02540
X-45.51680 Y0.00000
X-45.51680 Y-0.02540
X-45.51680 Y-0.05080
X-45.51680 Y-0.07620
X-45.51680 Y-0.10160
X-45.51680 Y-0.12700
X-45.51680 Y-0.15240
X-45.51680 Y-0.17780
X-45.51680 Y-0.20320
X-45.51680 Y-0.22860
X-45.51680 Y-0.25400
X-45.51680 Y-0.27940
X-45.51680 Y-0.30480
X-45.51680 Y-0.33020
X-45.51680 Y-0.35560
X-45.51680 Y-0.38100
X-45.51680 Y-0.40640
X-45.51680 Y-0.43180
X-45.51680 Y-0.45720
X-45.51680 Y-0.48260
X-45.51680 Y-0.50800
X-45.51680 Y-0.53340
X-45.51680 Y-0.55880
X-45.51680 Y-0.55880
X-45.49140 Y-0.55880
X-45.46600 Y-0.55880
X-45.44060 Y-0.55880
X-45.41520 Y-0.55880
X-45.38980 Y-0.55880
X-45.36440 Y-0.55880
X-45.33900 Y-0.55880
X-45.31360 Y-0.55880
X-45.28820 Y-0.55880
X-45.26280 Y-0.55880
X-45.23740 Y-0.55880
X-45.21200 Y-0.55880
X-45.18660 Y-0.55880
X-45.16120 Y-0.55880
X-45.13580 Y-0.55880
X-45.11040 Y-0.55880
X-45.08500 Y-0.55880
X-45.05960 Y-0.55880
X-45.03420 Y-0.55880
X-45.00880 Y-0.55880
X-44.98340 Y-0.55880
X-44.95800 Y-0.55880
X-44.93260 Y-0.55880
X-44.90720 Y-0.55880
X-44.88180 Y-0.55880
X-44.85640 Y-0.55880
X-44.83100 Y-0.55880
X-44.80560 Y-0.55880
X-44.78020 Y-0.55880
X-44.75480 Y-0.55880
X-44.72940 Y-0.55880
X-44.70400 Y-0.55880
X-44.67860 Y-0.55880
X-44.65320 Y-0.55880
X-44.62780 Y-0.55880
X-44.60240 Y-0.55880
X-44.57700 Y-0.55880
X-44.55160 Y-0.55880
X-44.52620 Y-0.55880
X-44.50080 Y-0.55880
X-44.47540 Y-0.55880
X-44.45000 Y-0.55880
X-44.42460 Y-0.55880
X-44.39920 Y-0.55880
X-44.37380 Y-0.55880
X-44.34840 Y-0.55880
X-44.32300 Y-0.55880
X-44.29760 Y-0.55880
X-44.27220 Y-0.55880
X-44.24680 Y-0.55880
X-44.22140 Y-0.55880
X-44.19600 Y-0.55880
X-44.17060 Y-0.55880
X-44.14520 Y-0.55880
X-44.11980 Y-0.55880
X-44.09440 Y-0.55880
X-44.06900 Y-0.55880
X-44.04360 Y-0.55880
X-44.01820 Y-0.55880
X-43.99280 Y-0.55880
X-43.96740 Y-0.55880
X-43.94200 Y-0.55880
X-43.91660 Y-0.55880
X-43.89120 Y-0.55880
X-43.86580 Y-0.55880
X-43.84040 Y-0.55880
X-43.81500 Y-0.55880
X-43.78960 Y-0.55880
X-43.76420 Y-0.55880
X-43.73880 Y-0.55880
X-43.71340 Y-0.55880
X-43.68800 Y-0.55880
X-43.66260 Y-0.55880
X-43.63720 Y-0.55880
X-43.61180 Y-0.55880
X-43.58640 Y-0.55880
X-43.56100 Y-0.55880
X-43.53560 Y-0.55880
X-43.51020 Y-0.55880
X-43.48480 Y-0.55880
X-43.45940 Y-0.55880
X-43.43400 Y-0.55880
X-43.40860 Y-0.55880
X-43.38320 Y-0.55880
X-43.35780 Y-0.55880
X-43.33240 Y-0.55880
X-43.30700 Y-0.55880
X-43.28160 Y-0.55880
X-43.25620 Y-0.55880
X-43.23080 Y-0.55880
X-43.20540 Y-0.55880
X-43.18000 Y-0.55880
X-43.15460 Y-0.55880
X-43.12920 Y-0.55880
X-43.10380 Y-0.55880
X-43.07840 Y-0.55880
X-43.05300 Y-0.55880
X-43.02760 Y-0.55880
X-43.00220 Y-0.55880
X-42.97680 Y-0.55880
X-42.95140 Y-0.55880
X-42.92600 Y-0.55880
X-42.90060 Y-0.55880
X-42.87520 Y-0.55880
X-42.84980 Y-0.55880
X-42.82440 Y-0.55880
X-42.79900 Y-0.55880
X-42.77360 Y-0.55880
X-42.74820 Y-0.55880
X-42.72280 Y-0.55880
X-42.69740 Y-0.55880
X-42.67200 Y-0.55880
X-42.64660 Y-0.55880
X-42.62120 Y-0.55880
X-42.59580 Y-0.55880
X-42.57040 Y-0.55880
X-42.54500 Y-0.55880
X-42.51960 Y-0.55880
X-42.49420 Y-0.55880
X-42.46880 Y-0.55880
X-42.44340 Y-0.55880
X-42.41800 Y-0.55880
X-42.39260 Y-0.55880
X-42.36720 Y-0.55880
X-42.34180 Y-0.55880
X-42.31640 Y-0.55880
X-42.29100 Y-0.55880
X-42.26560 Y-0.55880
X-42.24020 Y-0.55880
X-42.21480 Y-0.55880
X-42.18940 Y-0.55880
X-42.16400 Y-0.55880
X-42.13860 Y-0.55880
X-42.11320 Y-0.55880
X-42.08780 Y-0.55880
X-42.06240 Y-0.55880
X-42.03700 Y-0.55880
X-42.01160 Y-0.55880
X-41.98620 Y-0.55880
X-41.96080 Y-0.55880
X-41.93540 Y-0.55880
X-41.91000 Y-0.55880
X-41.88460 Y-0.55880
X-41.85920 Y-0.55880
X-41.83380 Y-0.55880
X-41.80840 Y-0.55880
X-41.78300 Y-0.55880
X-41.75760 Y-0.55880
X-41.73220 Y-0.55880
X-41.70680 Y-0.55880
X-41.68140 Y-0.55880
X-41.65600 Y-0.55880
X-41.63060 Y-0.55880
X-41.60520 Y-0.55880
X-41.57980 Y-0.55880
X-41.55440 Y-0.55880
X-41.52900 Y-0.55880
X-41.50360 Y-0.55880
X-41.47820 Y-0.55880
X-41.45280 Y-0.55880
X-41.42740 Y-0.55880
X-41.40200 Y-0.55880
X-41.37660 Y-0.55880
X-41.35120 Y-0.55880
X-41.32580 Y-0.55880
X-41.30040 Y-0.55880
X-41.27500 Y-0.55880
X-41.24960 Y-0.55880
X-41.22420 Y-0.55880
X-41.19880 Y-0.55880
X-41.17340 Y-0.55880
X-41.14800 Y-0.55880
X-41.12260 Y-0.55880
X-41.09720 Y-0.55880
X-41.07180 Y-0.55880
X-41.04640 Y-0.55880
X-41.02100 Y-0.55880
X-40.99560 Y-0.55880
X-40.97020 Y-0.55880
X-40.94480 Y-0.55880
X-40.91940 Y-0.55880
X-40.89400 Y-0.55880
X-40.86860 Y-0.55880
X-40.84320 Y-0.55880
X-40.81780 Y-0.55880
X-40.79240 Y-0.55880
X-40.76700 Y-0.55880
X-40.74160 Y-0.55880
X-40.71620 Y-0.55880
X-40.69080 Y-0.55880
X-40.66540 Y-0.55880
X-40.64000 Y-0.55880
X-40.61460 Y-0.55880
X-40.58920 Y-0.55880
X-40.56380 Y-0.55880
X-40.53840 Y-0.55880
X-40.51300 Y-0.55880
X-40.48760 Y-0.55880
X-40.46220 Y-0.55880
X-40.43680 Y-0.55880
X-40.41140 Y-0.55880
X-40.38600 Y-0.55880
X-40.36060 Y-0.55880
X-40.33520 Y-0.55880
X-40.30980 Y-0.55880
X-40.28440 Y-0.55880
X-40.25900 Y-0.55880
X-40.23360 Y-0.55880
X-40.20820 Y-0.55880
X-40.18280 Y-0.55880
X-40.15740 Y-0.55880
X-40.13200 Y-0.55880
X-40.10660 Y-0.55880
X-40.08120 Y-0.55880
X-40.05580 Y-0.55880
X-40.03040 Y-0.55880
X-40.00500 Y-0.55880
X-39.97960 Y-0.55880
X-39.95420 Y-0.55880
X-39.92880 Y-0.55880
X-39.90340 Y-0.55880
X-39.87800 Y-0.55880
X-39.85260 Y-0.55880
X-39.82720 Y-0.55880
X-39.80180 Y-0.55880
X-39.77640 Y-0.55880
X-39.75100 Y-0.55880
X-39.72560 Y-0.55880
X-39.70020 Y-0.55880
X-39.67480 Y-0.55880
X-39.64940 Y-0.55880
X-39.62400 Y-0.55880
X-39.59860 Y-0.55880
X-39.57320 Y-0.55880
X-39.54780 Y-0.55880
X-39.52240 Y-0.55880
X-39.49700 Y-0.55880
X-39.47160 Y-0.55880
X-39.44620 Y-0.55880
X-39.42080 Y-0.55880
X-39.39540 Y-0.55880
X-39.37000 Y-0.55880
X-39.34460 Y-0.55880
X-39.31920 Y-0.55880
X-39.29380 Y-0.55880
X-39.26840 Y-0.55880
X-39.24300 Y-0.55880
X-39.21760 Y-0.55880
X-39.19220 Y-0.55880
X-39.16680 Y-0.55880
X-39.14140 Y-0.55880
X-39.11600 Y-0.55880
X-39.09060 Y-0.55880
X-39.06520 Y-0.55880
X-39.03980 Y-0.55880
X-39.01440 Y-0.55880
X-38.98900 Y-0.55880
X-38.96360 Y-0.55880
X-38.93820 Y-0.55880
X-38.91280 Y-0.55880
X-38.88740 Y-0.55880
X-38.86200 Y-0.55880
X-38.83660 Y-0.55880
X-38.81120 Y-0.55880
X-38.78580 Y-0.55880
X-38.76040 Y-0.55880
X-38.73500 Y-0.55880
X-38.70960 Y-0.55880
X-38.68420 Y-0.55880
X-38.65880 Y-0.55880
X-38.63340 Y-0.55880
X-38.60800 Y-0.55880
X-38.58260 Y-0.55880
X-38.55720 Y-0.55880
X-38.53180 Y-0.55880
X-38.50640 Y-0.55880
X-38.48100 Y-0.55880
X-38.45560 Y-0.55880
X-38.43020 Y-0.55880
X-38.40480 Y-0.55880
X-38.37940 Y-0.55880
X-38.35400 Y-0.55880
X-38.32860 Y-0.55880
X-38.30320 Y-0.55880
X-38.27780 Y-0.55880
X-38.25240 Y-0.55880
X-38.22700 Y-0.55880
X-38.20160 Y-0.55880
X-38.17620 Y-0.55880
X-38.15080 Y-0.55880
X-38.12540 Y-0.55880
X-38.10000 Y-0.55880
X-38.07460 Y-0.55880
X-38.04920 Y-0.55880
X-38.02380 Y-0.55880
X-37.99840 Y-0.55880
X-37.97300 Y-0.55880
X-37.94760 Y-0.55880
X-37.92220 Y-0.55880
X-37.89680 Y-0.55880
X-37.87140 Y-0.55880
X-37.84600 Y-0.55880
X-37.82060 Y-0.55880
X-37.79520 Y-0.55880
X-37.76980 Y-0.55880
X-37.74440 Y-0.55880
X-37.71900 Y-0.55880
X-37.69360 Y-0.55880
X-37.66820 Y-0.55880
X-37.64280 Y-0.55880
X-37.61740 Y-0.55880
X-37.59200 Y-0.55880
X-37.56660 Y-0.55880
X-37.54120 Y-0.55880
X-37.51580 Y-0.55880
X-37.49040 Y-0.55880
X-37.46500 Y-0.55880
X-37.43960 Y-0.55880
X-37.41420 Y-0.55880
X-37.38880 Y-0.55880
X-37.36340 Y-0.55880
X-37.33800 Y-0.55880
X-37.31260 Y-0.55880
X-37.28720 Y-0.55880
X-37.26180 Y-0.55880
X-37.23640 Y-0.55880
X-37.21100 Y-0.55880
X-37.18560 Y-0.55880
X-37.16020 Y-0.55880
X-37.13480 Y-0.55880
X-37.10940 Y-0.55880
X-37.08400 Y-0.55880
X-37.05860 Y-0.55880
X-37.03320 Y-0.55880
X-37.00780 Y-0.55880
X-36.98240 Y-0.55880
X-36.95700 Y-0.55880
X-36.93160 Y-0.55880
X-36.90620 Y-0.55880
X-36.88080 Y-0.55880
X-36.85540 Y-0.55880
X-36.83000 Y-0.55880
X-36.80460 Y-0.55880
X-36.77920 Y-0.55880
X-36.75380 Y-0.55880
X-36.72840 Y-0.55880
X-36.70300 Y-0.55880
X-36.67760 Y-0.55880
X-36.65220 Y-0.55880
X-36.62680 Y-0.55880
X-36.60140 Y-0.55880
X-36.57600 Y-0.55880
X-36.55060 Y-0.55880
X-36.52520 Y-0.55880
X-36.49980 Y-0.55880
X-36.47440 Y-0.55880
X-36.44900 Y-0.55880
X-36.42360 Y-0.55880
X-36.39820 Y-0.55880
X-36.37280 Y-0.55880
X-36.34740 Y-0.55880
X-36.32200 Y-0.55880
X-36.29660 Y-0.55880
X-36.27120 Y-0.55880
X-36.24580 Y-0.55880
X-36.22040 Y-0.55880
X-36.19500 Y-0.55880
X-36.16960 Y-0.55880
X-36.14420 Y-0.55880
X-36.11880 Y-0.55880
X-36.09340 Y-0.55880
X-36.06800 Y-0.55880
X-36.04260 Y-0.55880
X-36.01720 Y-0.55880
X-35.99180 Y-0.55880
X-35.96640 Y-0.55880
X-35.94100 Y-0.55880
X-35.91560 Y-0.55880
X-35.89020 Y-0.55880
X-35.86480 Y-0.55880
X-35.83940 Y-0.55880
X-35.81400 Y-0.55880
X-35.78860 Y-0.55880
X-35.76320 Y-0.55880
X-35.73780 Y-0.55880
X-35.71240 Y-0.55880
X-35.68700 Y-0.55880
X-35.66160 Y-0.55880
X-35.63620 Y-0.55880
X-35.61080 Y-0.55880
X-35.58540 Y-0.55880
X-35.56000 Y-0.55880
X-35.53460 Y-0.55880
X-35.50920 Y-0.55880
X-35.48380 Y-0.55880
X-35.45840 Y-0.55880
X-35.43300 Y-0.55880
X-35.40760 Y-0.55880
X-35.38220 Y-0.55880
X-35.35680 Y-0.55880
X-35.33140 Y-0.55880
X-35.30600 Y-0.55880
X-35.28060 Y-0.55880
X-35.25520 Y-0.55880
X-35.22980 Y-0.55880
X-35.20440 Y-0.55880
X-35.17900 Y-0.55880
X-35.15360 Y-0.55880
X-35.12820 Y-0.55880
X-35.10280 Y-0.55880
X-35.07740 Y-0.55880
X-35.05200 Y-0.55880
X-35.02660 Y-0.55880
X-35.00120 Y-0.55880
X-34.97580 Y-0.55880
X-34.95040 Y-0.55880
X-34.92500 Y-0.55880
X-34.89960 Y-0.55880
X-34.87420 Y-0.55880
X-34.84880 Y-0.55880
X-34.82340 Y-0.55880
X-34.79800 Y-0.55880
X-34.77260 Y-0.55880
X-34.74720 Y-0.55880
X-34.72180 Y-0.55880
X-34.69640 Y-0.55880
X-34.67100 Y-0.55880
X-34.64560 Y-0.55880
X-34.62020 Y-0.55880
X-34.59480 Y-0.55880
X-34.56940 Y-0.55880
X-34.54400 Y-0.55880
X-34.51860 Y-0.55880
X-34.49320 Y-0.55880
X-34.46780 Y-0.55880
X-34.44240 Y-0.55880
X-34.41700 Y-0.55880
X-34.39160 Y-0.55880
X-34.36620 Y-0.55880
X-34.34080 Y-0.55880
X-34.31540 Y-0.55880
X-34.29000 Y-0.55880
X-34.26460 Y-0.55880
X-34.23920 Y-0.55880
X-34.21380 Y-0.55880
X-34.18840 Y-0.55880
X-34.16300 Y-0.55880
X-34.13760 Y-0.55880
X-34.11220 Y-0.55880
X-34.08680 Y-0.55880
X-34.06140 Y-0.55880
X-34.03600 Y-0.55880
X-34.01060 Y-0.55880
X-33.98520 Y-0.55880
X-33.95980 Y-0.55880
X-33.93440 Y-0.55880
X-33.90900 Y-0.55880
X-33.88360 Y-0.55880
X-33.85820 Y-0.55880
X-33.83280 Y-0.55880
X-33.80740 Y-0.55880
X-33.78200 Y-0.55880
X-33.75660 Y-0.55880
X-33.73120 Y-0.55880
X-33.70580 Y-0.55880
X-33.68040 Y-0.55880
X-33.65500 Y-0.55880
X-33.62960 Y-0.55880
X-33.60420 Y-0.55880
X-33.57880 Y-0.55880
X-33.55340 Y-0.55880
X-33.52800 Y-0.55880
X-33.50260 Y-0.55880
X-33.47720 Y-0.55880
X-33.45180 Y-0.55880
X-33.42640 Y-0.55880
X-33.40100 Y-0.55880
X-33.37560 Y-0.55880
X-33.35020 Y-0.55880
X-33.32480 Y-0.55880
X-33.29940 Y-0.55880
X-33.27400 Y-0.55880
X-33.24860 Y-0.55880
X-33.22320 Y-0.55880
X-33.19780 Y-0.55880
X-33.17240 Y-0.55880
X-33.14700 Y-0.55880
X-33.12160 Y-0.55880
X-33.09620 Y-0.55880
X-33.07080 Y-0.55880
X-33.04540 Y-0.55880
X-33.02000 Y-0.55880
X-32.99460 Y-0.55880
X-32.96920 Y-0.55880
X-32.94380 Y-0.55880
X-32.91840 Y-0.55880
X-32.89300 Y-0.55880
X-32.86760 Y-0.55880
X-32.84220 Y-0.55880
X-32.81680 Y-0.55880
X-32.79140 Y-0.55880
X-32.76600 Y-0.55880
X-32.74060 Y-0.55880
X-32.71520 Y-0.55880
X-32.68980 Y-0.55880
X-32.66440 Y-0.55880
X-32.63900 Y-0.55880
X-32.61360 Y-0.55880
X-32.58820 Y-0.55880
X-32.56280 Y-0.55880
X-32.53740 Y-0.55880
X-32.51200 Y-0.55880
X-32.48660 Y-0.55880
X-32.46120 Y-0.55880
X-32.43580 Y-0.55880
X-32.41040 Y-0.55880
X-32.38500 Y-0.55880
X-32.35960 Y-0.55880
X-32.33420 Y-0.55880
X-32.30880 Y-0.55880
X-32.28340 Y-0.55880
X-32.25800 Y-0.55880
X-32.23260 Y-0.55880
X-32.20720 Y-0.55880
X-32.18180 Y-0.55880
X-32.15640 Y-0.55880
X-32.13100 Y-0.55880
X-32.10560 Y-0.55880
X-32.08020 Y-0.55880
X-32.05480 Y-0.55880
X-32.02940 Y-0.55880
X-32.00400 Y-0.55880
X-31.97860 Y-0.55880
X-31.95320 Y-0.55880
X-31.92780 Y-0.55880
X-31.90240 Y-0.55880
X-31.87700 Y-0.55880
X-31.85160 Y-0.55880
X-31.82620 Y-0.55880
X-31.80080 Y-0.55880
X-31.77540 Y-0.55880
X-31.75000 Y-0.55880
X-31.72460 Y-0.55880
X-31.69920 Y-0.55880
X-31.67380 Y-0.55880
X-31.64840 Y-0.55880
X-31.62300 Y-0.55880
X-31.59760 Y-0.55880
X-31.57220 Y-0.55880
X-31.54680 Y-0.55880
X-31.52140 Y-0.55880
X-31.49600 Y-0.55880
X-31.47060 Y-0.55880
X-31.44520 Y-0.55880
X-31.41980 Y-0.55880
X-31.39440 Y-0.55880
X-31.36900 Y-0.55880
X-31.34360 Y-0.55880
X-31.31820 Y-0.55880
X-31.29280 Y-0.55880
X-31.26740 Y-0.55880
X-31.24200 Y-0.55880
X-31.21660 Y-0.55880
X-31.19120 Y-0.55880
X-31.16580 Y-0.55880
X-31.14040 Y-0.55880
X-31.11500 Y-0.55880
X-31.08960 Y-0.55880
X-31.06420 Y-0.55880
X-31.03880 Y-0.55880
X-31.01340 Y-0.55880
X-30.98800 Y-0.55880
X-30.96260 Y-0.55880
X-30.93720 Y-0.55880
X-30.91180 Y-0.55880
X-30.88640 Y-0.55880
X-30.86100 Y-0.55880
X-30.83560 Y-0.55880
X-30.81020 Y-0.55880
X-30.78480 Y-0.55880
X-30.75940 Y-0.55880
X-30.73400 Y-0.55880
X-30.70860 Y-0.55880
X-30.68320 Y-0.55880
X-30.65780 Y-0.55880
X-30.63240 Y-0.55880
X-30.60700 Y-0.55880
X-30.58160 Y-0.55880
X-30.55620 Y-0.55880
X-30.53080 Y-0.55880
X-30.50540 Y-0.55880
X-30.48000 Y-0.55880
X-30.45460 Y-0.55880
X-30.42920 Y-0.55880
X-30.40380 Y-0.55880
X-30.37840 Y-0.55880
X-30.35300 Y-0.55880
X-30.32760 Y-0.55880
X-30.30220 Y-0.55880
X-30.27680 Y-0.55880
X-30.25140 Y-0.55880
X-30.22600 Y-0.55880
X-30.20060 Y-0.55880
X-30.17520 Y-0.55880
X-30.14980 Y-0.55880
X-30.12440 Y-0.55880
X-30.09900 Y-0.55880
X-30.07360 Y-0.55880
X-30.04820 Y-0.55880
X-30.02280 Y-0.55880
X-29.99740 Y-0.55880
X-29.97200 Y-0.55880
X-29.94660 Y-0.55880
X-29.92120 Y-0.55880
X-29.89580 Y-0.55880
X-29.87040 Y-0.55880
X-29.84500 Y-0.55880
X-29.81960 Y-0.55880
X-29.79420 Y-0.55880
X-29.76880 Y-0.55880
X-29.74340 Y-0.55880
X-29.71800 Y-0.55880
X-29.69260 Y-0.55880
X-29.66720 Y-0.55880
X-29.64180 Y-0.55880
X-29.61640 Y-0.55880
X-29.59100 Y-0.55880
X-29.56560 Y-0.55880
X-29.54020 Y-0.55880
X-29.51480 Y-0.55880
X-29.48940 Y-0.55880
X-29.46400 Y-0.55880
X-29.43860 Y-0.55880
X-29.41320 Y-0.55880
X-29.38780 Y-0.55880
X-29.36240 Y-0.55880
X-29.33700 Y-0.55880
X-29.31160 Y-0.55880
X-29.28620 Y-0.55880
X-29.26080 Y-0.55880
X-29.23540 Y-0.55880
X-29.21000 Y-0.55880
X-29.18460 Y-0.55880
X-29.15920 Y-0.55880
X-29.13380 Y-0.55880
X-29.10840 Y-0.55880
X-29.08300 Y-0.55880
X-29.05760 Y-0.55880
X-29.03220 Y-0.55880
X-29.00680 Y-0.55880
X-28.98140 Y-0.55880
X-28.95600 Y-0.55880
X-28.93060 Y-0.55880
X-28.90520 Y-0.55880
X-28.87980 Y-0.55880
X-28.85440 Y-0.55880
X-28.82900 Y-0.55880
X-28.80360 Y-0.55880
X-28.77820 Y-0.55880
X-28.75280 Y-0.55880
X-28.72740 Y-0.55880
X-28.70200 Y-0.55880
X-28.67660 Y-0.55880
X-28.65120 Y-0.55880
X-28.62580 Y-0.55880
X-28.60040 Y-0.55880
X-28.57500 Y-0.55880
X-28.54960 Y-0.55880
X-28.52420 Y-0.55880
X-28.49880 Y-0.55880
X-28.47340 Y-0.55880
X-28.44800 Y-0.55880
X-28.42260 Y-0.55880
X-28.39720 Y-0.55880
X-28.37180 Y-0.55880
X-28.34640 Y-0.55880
X-28.32100 Y-0.55880
X-28.29560 Y-0.55880
X-28.27020 Y-0.55880
X-28.24480 Y-0.55880
X-28.21940 Y-0.55880
X-28.19400 Y-0.55880
X-28.16860 Y-0.55880
X-28.14320 Y-0.55880
X-28.11780 Y-0.55880
X-28.09240 Y-0.55880
X-28.06700 Y-0.55880
X-28.04160 Y-0.55880
X-28.01620 Y-0.55880
X-27.99080 Y-0.55880
X-27.96540 Y-0.55880
X-27.94000 Y-0.55880
X-27.91460 Y-0.55880
X-27.88920 Y-0.55880
X-27.86380 Y-0.55880
X-27.83840 Y-0.55880
X-27.81300 Y-0.55880
X-27.78760 Y-0.55880
X-27.76220 Y-0.55880
X-27.73680 Y-0.55880
X-27.71140 Y-0.55880
X-27.68600 Y-0.55880
X-27.66060 Y-0.55880
X-27.63520 Y-0.55880
X-27.60980 Y-0.55880
X-27.58440 Y-0.55880
X-27.55900 Y-0.55880
X-27.53360 Y-0.55880
X-27.50820 Y-0.55880
X-27.48280 Y-0.55880
X-27.45740 Y-0.55880
X-27.43200 Y-0.55880
X-27.40660 Y-0.55880
X-27.38120 Y-0.55880
X-27.35580 Y-0.55880
X-27.33040 Y-0.55880
X-27.30500 Y-0.55880
X-27.27960 Y-0.55880
X-27.25420 Y-0.55880
X-27.22880 Y-0.55880
X-27.20340 Y-0.55880
X-27.17800 Y-0.55880
X-27.15260 Y-0.55880
X-27.12720 Y-0.55880
X-27.10180 Y-0.55880
X-27.07640 Y-0.55880
X-27.05100 Y-0.55880
X-27.02560 Y-0.55880
X-27.00020 Y-0.55880
X-26.97480 Y-0.55880
X-26.94940 Y-0.55880
X-26.92400 Y-0.55880
X-26.89860 Y-0.55880
X-26.87320 Y-0.55880
X-26.84780 Y-0.55880
X-26.82240 Y-0.55880
X-26.79700 Y-0.55880
X-26.77160 Y-0.55880
X-26.74620 Y-0.55880
X-26.72080 Y-0.55880
X-26.69540 Y-0.55880
X-26.67000 Y-0.55880
X-26.64460 Y-0.55880
X-26.61920 Y-0.55880
X-26.59380 Y-0.55880
X-26.56840 Y-0.55880
X-26.54300 Y-0.55880
X-26.51760 Y-0.55880
X-26.49220 Y-0.55880
X-26.46680 Y-0.55880
X-26.44140 Y-0.55880
X-26.41600 Y-0.55880
X-26.39060 Y-0.55880
X-26.36520 Y-0.55880
X-26.33980 Y-0.55880
X-26.31440 Y-0.55880
X-26.28900 Y-0.55880
X-26.26360 Y-0.55880
X-26.23820 Y-0.55880
X-26.21280 Y-0.55880
X-26.18740 Y-0.55880
X-26.16200 Y-0.55880
X-26.13660 Y-0.55880
X-26.11120 Y-0.55880
X-26.08580 Y-0.55880
X-26.06040 Y-0.55880
X-26.03500 Y-0.55880
X-26.00960 Y-0.55880
X-25.98420 Y-0.55880
X-25.95880 Y-0.55880
X-25.93340 Y-0.55880
X-25.90800 Y-0.55880
X-25.88260 Y-0.55880
X-25.85720 Y-0.55880
X-25.83180 Y-0.55880
X-25.80640 Y-0.55880
X-25.78100 Y-0.55880
X-25.75560 Y-0.55880
X-25.73020 Y-0.55880
X-25.70480 Y-0.55880
X-25.67940 Y-0.55880
X-25.65400 Y-0.55880
X-25.62860 Y-0.55880
X-25.60320 Y-0.55880
X-25.57780 Y-0.55880
X-25.55240 Y-0.55880
X-25.52700 Y-0.55880
X-25.50160 Y-0.55880
X-25.47620 Y-0.55880
X-25.45080 Y-0.55880
X-25.42540 Y-0.55880
X-25.40000 Y-0.55880
X-25.37460 Y-0.55880
X-25.34920 Y-0.55880
X-25.32380 Y-0.55880
X-25.29840 Y-0.55880
X-25.27300 Y-0.55880
X-25.24760 Y-0.55880
X-25.22220 Y-0.55880
X-25.19680 Y-0.55880
X-25.17140 Y-0.55880
X-25.14600 Y-0.55880
X-25.12060 Y-0.55880
X-25.09520 Y-0.55880
X-25.06980 Y-0.55880
X-25.04440 Y-0.55880
X-25.01900 Y-0.55880
X-24.99360 Y-0.55880
X-24.96820 Y-0.55880
X-24.94280 Y-0.55880
X-24.91740 Y-0.55880
X-24.89200 Y-0.55880
X-24.86660 Y-0.55880
X-24.84120 Y-0.55880
X-24.81580 Y-0.55880
X-24.79040 Y-0.55880
X-24.76500 Y-0.55880
X-24.73960 Y-0.55880
X-24.71420 Y-0.55880
X-24.68880 Y-0.55880
X-24.66340 Y-0.55880
X-24.63800 Y-0.55880
X-24.61260 Y-0.55880
X-24.58720 Y-0.55880
X-24.56180 Y-0.55880
X-24.53640 Y-0.55880
X-24.51100 Y-0.55880
X-24.48560 Y-0.55880
X-24.46020 Y-0.55880
X-24.43480 Y-0.55880
X-24.40940 Y-0.55880
X-24.38400 Y-0.55880
X-24.35860 Y-0.55880
X-24.33320 Y-0.55880
X-24.30780 Y-0.55880
X-24.28240 Y-0.55880
X-24.25700 Y-0.55880
X-24.23160 Y-0.55880
X-24.20620 Y-0.55880
X-24.18080 Y-0.55880
X-24.15540 Y-0.55880
X-24.13000 Y-0.55880
X-24.10460 Y-0.55880
X-24.07920 Y-0.55880
X-24.05380 Y-0.55880
X-24.02840 Y-0.55880
X-24.00300 Y-0.55880
X-23.97760 Y-0.55880
X-23.95220 Y-0.55880
X-23.92680 Y-0.55880
X-23.90140 Y-0.55880
X-23.87600 Y-0.55880
X-23.85060 Y-0.55880
X-23.82520 Y-0.55880
X-23.79980 Y-0.55880
X-23.77440 Y-0.55880
X-23.74900 Y-0.55880
X-23.72360 Y-0.55880
X-23.69820 Y-0.55880
X-23.67280 Y-0.55880
X-23.64740 Y-0.55880
X-23.62200 Y-0.55880
X-23.59660 Y-0.55880
X-23.57120 Y-0.55880
X-23.54580 Y-0.55880
X-23.52040 Y-0.55880
X-23.49500 Y-0.55880
X-23.46960 Y-0.55880
X-23.44420 Y-0.55880
X-23.41880 Y-0.55880
X-23.39340 Y-0.55880
X-23.36800 Y-0.55880
X-23.34260 Y-0.55880
X-23.31720 Y-0.55880
X-23.29180 Y-0.55880
X-23.26640 Y-0.55880
X-23.24100 Y-0.55880
X-23.21560 Y-0.55880
X-23.19020 Y-0.55880
X-23.16480 Y-0.55880
X-23.13940 Y-0.55880
X-23.11400 Y-0.55880
X-23.08860 Y-0.55880
X-23.06320 Y-0.55880
X-23.03780 Y-0.55880
X-23.01240 Y-0.55880
X-22.98700 Y-0.55880
X-22.96160 Y-0.55880
X-22.93620 Y-0.55880
X-22.91080 Y-0.55880
X-22.88540 Y-0.55880
X-22.86000 Y-0.55880
X-22.83460 Y-0.55880
X-22.80920 Y-0.55880
X-22.78380 Y-0.55880
X-22.75840 Y-0.55880
X-22.73300 Y-0.55880
X-22.70760 Y-0.55880
X-22.68220 Y-0.55880
X-22.65680 Y-0.55880
X-22.63140 Y-0.55880
X-22.60600 Y-0.55880
X-22.58060 Y-0.55880
X-22.55520 Y-0.55880
X-22.52980 Y-0.55880
X-22.50440 Y-0.55880
X-22.47900 Y-0.55880
X-22.45360 Y-0.55880
X-22.42820 Y-0.55880
X-22.40280 Y-0.55880
X-22.37740 Y-0.55880
X-22.35200 Y-0.55880
X-22.32660 Y-0.55880
X-22.30120 Y-0.55880
X-22.27580 Y-0.55880
X-22.25040 Y-0.55880
X-22.22500 Y-0.55880
X-22.19960 Y-0.55880
X-22.17420 Y-0.55880
X-22.14880 Y-0.55880
X-22.12340 Y-0.55880
X-22.09800 Y-0.55880
X-22.07260 Y-0.55880
X-22.04720 Y-0.55880
X-22.02180 Y-0.55880
X-21.99640 Y-0.55880
X-21.97100 Y-0.55880
X-21.94560 Y-0.55880
X-21.92020 Y-0.55880
X-21.89480 Y-0.55880
X-21.86940 Y-0.55880
X-21.84400 Y-0.55880
X-21.81860 Y-0.55880
X-21.79320 Y-0.55880
X-21.76780 Y-0.55880
X-21.74240 Y-0.55880
X-21.71700 Y-0.55880
X-21.69160 Y-0.55880
X-21.66620 Y-0.55880
X-21.64080 Y-0.55880
X-21.61540 Y-0.55880
X-21.59000 Y-0.55880
X-21.56460 Y-0.55880
X-21.53920 Y-0.55880
X-21.51380 Y-0.55880
X-21.48840 Y-0.55880
X-21.46300 Y-0.55880
X-21.43760 Y-0.55880
X-21.41220 Y-0.55880
X-21.38680 Y-0.55880
X-21.36140 Y-0.55880
X-21.33600 Y-0.55880
X-21.31060 Y-0.55880
X-21.28520 Y-0.55880
X-21.25980 Y-0.55880
X-21.23440 Y-0.55880
X-21.20900 Y-0.55880
X-21.18360 Y-0.55880
X-21.15820 Y-0.55880
X-21.13280 Y-0.55880
X-21.10740 Y-0.55880
X-21.08200 Y-0.55880
X-21.05660 Y-0.55880
X-21.03120 Y-0.55880
X-21.00580 Y-0.55880
X-20.98040 Y-0.55880
X-20.95500 Y-0.55880
X-20.92960 Y-0.55880
X-20.90420 Y-0.55880
X-20.87880 Y-0.55880
X-20.85340 Y-0.55880
X-20.82800 Y-0.55880
X-20.80260 Y-0.55880
X-20.77720 Y-0.55880
X-20.75180 Y-0.55880
X-20.72640 Y-0.55880
X-20.70100 Y-0.55880
X-20.67560 Y-0.55880
X-20.65020 Y-0.55880
X-20.62480 Y-0.55880
X-20.59940 Y-0.55880
X-20.57400 Y-0.55880
X-20.54860 Y-0.55880
X-20.52320 Y-0.55880
X-20.49780 Y-0.55880
X-20.47240 Y-0.55880
X-20.44700 Y-0.55880
X-20.42160 Y-0.55880
X-20.39620 Y-0.55880
X-20.37080 Y-0.55880
X-20.34540 Y-0.55880
X-20.32000 Y-0.55880
X-20.29460 Y-0.55880
X-20.26920 Y-0.55880
X-20.24380 Y-0.55880
X-20.21840 Y-0.55880
X-20.19300 Y-0.55880
X-20.16760 Y-0.55880
X-20.14220 Y-0.55880
X-20.11680 Y-0.55880
X-20.09140 Y-0.55880
X-20.06600 Y-0.55880
X-20.04060 Y-0.55880
X-20.01520 Y-0.55880
X-19.98980 Y-0.55880
X-19.96440 Y-0.55880
X-19.93900 Y-0.55880
X-19.91360 Y-0.55880
X-19.88820 Y-0.55880
X-19.86280 Y-0.55880
X-19.83740 Y-0.55880
X-19.81200 Y-0.55880
X-19.78660 Y-0.55880
X-19.76120 Y-0.55880
X-19.73580 Y-0.55880
X-19.71040 Y-0.55880
X-19.68500 Y-0.55880
X-19.65960 Y-0.55880
X-19.63420 Y-0.55880
X-19.60880 Y-0.55880
X-19.58340 Y-0.55880
X-19.55800 Y-0.55880
X-19.53260 Y-0.55880
X-19.50720 Y-0.55880
X-19.48180 Y-0.55880
X-19.45640 Y-0.55880
X-19.43100 Y-0.55880
X-19.40560 Y-0.55880
X-19.38020 Y-0.55880
X-19.35480 Y-0.55880
X-19.32940 Y-0.55880
X-19.30400 Y-0.55880
X-19.27860 Y-0.55880
X-19.25320 Y-0.55880
X-19.22780 Y-0.55880
X-19.20240 Y-0.55880
X-19.17700 Y-0.55880
X-19.15160 Y-0.55880
X-19.12620 Y-0.55880
X-19.10080 Y-0.55880
X-19.07540 Y-0.55880
X-19.05000 Y-0.55880
X-19.02460 Y-0.55880
X-18.99920 Y-0.55880
X-18.97380 Y-0.55880
X-18.94840 Y-0.55880
X-18.92300 Y-0.55880
X-18.89760 Y-0.55880
X-18.87220 Y-0.55880
X-18.84680 Y-0.55880
X-18.82140 Y-0.55880
X-18.79600 Y-0.55880
X-18.77060 Y-0.55880
X-18.74520 Y-0.55880
X-18.71980 Y-0.55880
X-18.69440 Y-0.55880
X-18.66900 Y-0.55880
X-18.64360 Y-0.55880
X-18.61820 Y-0.55880
X-18.59280 Y-0.55880
X-18.56740 Y-0.55880
X-18.54200 Y-0.55880
X-18.51660 Y-0.55880
X-18.49120 Y-0.55880
X-18.46580 Y-0.55880
X-18.44040 Y-0.55880
X-18.41500 Y-0.55880
X-18.38960 Y-0.55880
X-18.36420 Y-0.55880
X-18.33880 Y-0.55880
X-18.31340 Y-0.55880
X-18.28800 Y-0.55880
X-18.26260 Y-0.55880
X-18.23720 Y-0.55880
X-18.21180 Y-0.55880
X-18.18640 Y-0.55880
X-18.16100 Y-0.55880
X-18.13560 Y-0.55880
X-18.11020 Y-0.55880
X-18.08480 Y-0.55880
X-18.05940 Y-0.55880
X-18.03400 Y-0.55880
X-18.00860 Y-0.55880
X-17.98320 Y-0.55880
X-17.95780 Y-0.55880
X-17.93240 Y-0.55880
X-17.90700 Y-0.55880
X-17.88160 Y-0.55880
X-17.85620 Y-0.55880
X-17.83080 Y-0.55880
X-17.80540 Y-0.55880
X-17.78000 Y-0.55880
X-17.75460 Y-0.55880
X-17.72920 Y-0.55880
X-17.70380 Y-0.55880
X-17.67840 Y-0.55880
X-17.65300 Y-0.55880
X-17.62760 Y-0.55880
X-17.60220 Y-0.55880
X-17.57680 Y-0.55880
X-17.55140 Y-0.55880
X-17.52600 Y-0.55880
X-17.50060 Y-0.55880
X-17.47520 Y-0.55880
X-17.44980 Y-0.55880
X-17.42440 Y-0.55880
X-17.39900 Y-0.55880
X-17.37360 Y-0.55880
X-17.34820 Y-0.55880
X-17.32280 Y-0.55880
X-17.29740 Y-0.55880
X-17.27200 Y-0.55880
X-17.24660 Y-0.55880
X-17.22120 Y-0.55880
X-17.19580 Y-0.55880
X-17.17040 Y-0.55880
X-17.14500 Y-0.55880
X-17.11960 Y-0.55880
X-17.09420 Y-0.55880
X-17.06880 Y-0.55880
X-17.04340 Y-0.55880
X-17.01800 Y-0.55880
X-16.99260 Y-0.55880
X-16.96720 Y-0.55880
X-16.94180 Y-0.55880
X-16.91640 Y-0.55880
X-16.89100 Y-0.55880
X-16.86560 Y-0.55880
X-16.84020 Y-0.55880
X-16.81480 Y-0.55880
X-16.78940 Y-0.55880
X-16.76400 Y-0.55880
X-16.73860 Y-0.55880
X-16.71320 Y-0.55880
X-16.68780 Y-0.55880
X-16.66240 Y-0.55880
X-16.63700 Y-0.55880
X-16.61160 Y-0.55880
X-16.58620 Y-0.55880
X-16.56080 Y-0.55880
X-16.53540 Y-0.55880
X-16.51000 Y-0.55880
X-16.48460 Y-0.55880
X-16.45920 Y-0.55880
X-16.43380 Y-0.55880
X-16.40840 Y-0.55880
X-16.38300 Y-0.55880
X-16.35760 Y-0.55880
X-16.33220 Y-0.55880
X-16.30680 Y-0.55880
X-16.28140 Y-0.55880
X-16.25600 Y-0.55880
X-16.23060 Y-0.55880
X-16.20520 Y-0.55880
X-16.17980 Y-0.55880
X-16.15440 Y-0.55880
X-16.12900 Y-0.55880
X-16.10360 Y-0.55880
X-16.07820 Y-0.55880
X-16.05280 Y-0.55880
X-16.02740 Y-0.55880
X-16.00200 Y-0.55880
X-15.97660 Y-0.55880
X-15.95120 Y-0.55880
X-15.92580 Y-0.55880
X-15.90040 Y-0.55880
X-15.87500 Y-0.55880
X-15.84960 Y-0.55880
X-15.82420 Y-0.55880
X-15.79880 Y-0.55880
X-15.77340 Y-0.55880
X-15.74800 Y-0.55880
X-15.72260 Y-0.55880
X-15.69720 Y-0.55880
X-15.67180 Y-0.55880
X-15.64640 Y-0.55880
X-15.62100 Y-0.55880
X-15.59560 Y-0.55880
X-15.57020 Y-0.55880
X-15.54480 Y-0.55880
X-15.51940 Y-0.55880
X-15.49400 Y-0.55880
X-15.46860 Y-0.55880
X-15.44320 Y-0.55880
X-15.41780 Y-0.55880
X-15.39240 Y-0.55880
X-15.36700 Y-0.55880
X-15.34160 Y-0.55880
X-15.31620 Y-0.55880
X-15.29080 Y-0.55880
X-15.26540 Y-0.55880
X-15.24000 Y-0.55880
X-15.21460 Y-0.55880
X-15.18920 Y-0.55880
X-15.16380 Y-0.55880
X-15.13840 Y-0.55880
X-15.11300 Y-0.55880
X-15.08760 Y-0.55880
X-15.06220 Y-0.55880
X-15.03680 Y-0.55880
X-15.01140 Y-0.55880
X-14.98600 Y-0.55880
X-14.96060 Y-0.55880
X-14.93520 Y-0.55880
X-14.90980 Y-0.55880
X-14.88440 Y-0.55880
X-14.85900 Y-0.55880
X-14.83360 Y-0.55880
X-14.80820 Y-0.55880
X-14.78280 Y-0.55880
X-14.75740 Y-0.55880
X-14.73200 Y-0.55880
X-14.70660 Y-0.55880
X-14.68120 Y-0.55880
X-14.65580 Y-0.55880
X-14.63040 Y-0.55880
X-14.60500 Y-0.55880
X-14.57960 Y-0.55880
X-14.55420 Y-0.55880
X-14.52880 Y-0.55880
X-14.50340 Y-0.55880
X-14.47800 Y-0.55880
X-14.45260 Y-0.55880
X-14.42720 Y-0.55880
X-14.40180 Y-0.55880
X-14.37640 Y-0.55880
X-14.35100 Y-0.55880
X-14.32560 Y-0.55880
X-14.30020 Y-0.55880
X-14.27480 Y-0.55880
X-14.24940 Y-0.55880
X-14.22400 Y-0.55880
X-14.19860 Y-0.55880
X-14.17320 Y-0.55880
X-14.14780 Y-0.55880
X-14.12240 Y-0.55880
X-14.09700 Y-0.55880
X-14.07160 Y-0.55880
X-14.04620 Y-0.55880
X-14.02080 Y-0.55880
X-13.99540 Y-0.55880
X-13.97000 Y-0.55880
X-13.94460 Y-0.55880
X-13.91920 Y-0.55880
X-13.89380 Y-0.55880
X-13.86840 Y-0.55880
X-13.84300 Y-0.55880
X-13.81760 Y-0.55880
X-13.79220 Y-0.55880
X-13.76680 Y-0.55880
X-13.74140 Y-0.55880
X-13.71600 Y-0.55880
X-13.69060 Y-0.55880
X-13.66520 Y-0.55880
X-13.63980 Y-0.55880
X-13.61440 Y-0.55880
X-13.58900 Y-0.55880
X-13.56360 Y-0.55880
X-13.53820 Y-0.55880
X-13.51280 Y-0.55880
X-13.48740 Y-0.55880
X-13.46200 Y-0.55880
X-13.43660 Y-0.55880
X-13.41120 Y-0.55880
X-13.38580 Y-0.55880
X-13.36040 Y-0.55880
X-13.33500 Y-0.55880
X-13.30960 Y-0.55880
X-13.28420 Y-0.55880
X-13.25880 Y-0.55880
X-13.23340 Y-0.55880
X-13.20800 Y-0.55880
X-13.18260 Y-0.55880
X-13.15720 Y-0.55880
X-13.13180 Y-0.55880
X-13.10640 Y-0.55880
X-13.08100 Y-0.55880
X-13.05560 Y-0.55880
X-13.03020 Y-0.55880
X-13.00480 Y-0.55880
X-12.97940 Y-0.55880
X-12.95400 Y-0.55880
X-12.92860 Y-0.55880
X-12.90320 Y-0.55880
X-12.87780 Y-0.55880
X-12.85240 Y-0.55880
X-12.82700 Y-0.55880
X-12.80160 Y-0.55880
X-12.77620 Y-0.55880
X-12.75080 Y-0.55880
X-12.72540 Y-0.55880
X-12.70000 Y-0.55880
X-12.67460 Y-0.55880
X-12.64920 Y-0.55880
X-12.62380 Y-0.55880
X-12.59840 Y-0.55880
X-12.57300 Y-0.55880
X-12.54760 Y-0.55880
X-12.52220 Y-0.55880
X-12.49680 Y-0.55880
X-12.47140 Y-0.55880
X-12.44600 Y-0.55880
X-12.42060 Y-0.55880
X-12.39520 Y-0.55880
X-12.36980 Y-0.55880
X-12.34440 Y-0.55880
X-12.31900 Y-0.55880
X-12.29360 Y-0.55880
X-12.26820 Y-0.55880
X-12.24280 Y-0.55880
X-12.21740 Y-0.55880
X-12.19200 Y-0.55880
X-12.16660 Y-0.55880
X-12.14120 Y-0.55880
X-12.11580 Y-0.55880
X-12.09040 Y-0.55880
X-12.06500 Y-0.55880
X-12.03960 Y-0.55880
X-12.01420 Y-0.55880
X-11.98880 Y-0.55880
X-11.96340 Y-0.55880
X-11.93800 Y-0.55880
X-11.91260 Y-0.55880
X-11.88720 Y-0.55880
X-11.86180 Y-0.55880
X-11.83640 Y-0.55880
X-11.81100 Y-0.55880
X-11.78560 Y-0.55880
X-11.76020 Y-0.55880
X-11.73480 Y-0.55880
X-11.70940 Y-0.55880
X-11.68400 Y-0.55880
X-11.65860 Y-0.55880
X-11.63320 Y-0.55880
X-11.60780 Y-0.55880
X-11.58240 Y-0.55880
X-11.55700 Y-0.55880
X-11.53160 Y-0.55880
X-11.50620 Y-0.55880
X-11.48080 Y-0.55880
X-11.45540 Y-0.55880
X-11.43000 Y-0.55880
X-11.40460 Y-0.55880
X-11.37920 Y-0.55880
X-11.35380 Y-0.55880
X-11.32840 Y-0.55880
X-11.30300 Y-0.55880
X-11.27760 Y-0.55880
X-11.25220 Y-0.55880
X-11.22680 Y-0.55880
X-11.20140 Y-0.55880
X-11.17600 Y-0.55880
X-11.15060 Y-0.55880
X-11.12520 Y-0.55880
X-11.09980 Y-0.55880
X-11.07440 Y-0.55880
X-11.04900 Y-0.55880
X-11.02360 Y-0.55880
X-10.99820 Y-0.55880
X-10.97280 Y-0.55880
X-10.94740 Y-0.55880
X-10.92200 Y-0.55880
X-10.89660 Y-0.55880
X-10.87120 Y-0.55880
X-10.84580 Y-0.55880
X-10.82040 Y-0.55880
X-10.79500 Y-0.55880
X-10.76960 Y-0.55880
X-10.74420 Y-0.55880
X-10.71880 Y-0.55880
X-10.69340 Y-0.55880
X-10.66800 Y-0.55880
X-10.64260 Y-0.55880
X-10.61720 Y-0.55880
X-10.59180 Y-0.55880
X-10.56640 Y-0.55880
X-10.54100 Y-0.55880
X-10.51560 Y-0.55880
X-10.49020 Y-0.55880
X-10.46480 Y-0.55880
X-10.43940 Y-0.55880
X-10.41400 Y-0.55880
X-10.38860 Y-0.55880
X-10.36320 Y-0.55880
X-10.33780 Y-0.55880
X-10.31240 Y-0.55880
X-10.28700 Y-0.55880
X-10.26160 Y-0.55880
X-10.23620 Y-0.55880
X-10.21080 Y-0.55880
X-10.18540 Y-0.55880
X-10.16000 Y-0.55880
X-10.13460 Y-0.55880
X-10.10920 Y-0.55880
X-10.08380 Y-0.55880
X-10.05840 Y-0.55880
X-10.03300 Y-0.55880
X-10.00760 Y-0.55880
X-9.98220 Y-0.55880
X-9.95680 Y-0.55880
X-9.93140 Y-0.55880
X-9.90600 Y-0.55880
X-9.88060 Y-0.55880
X-9.85520 Y-0.55880
X-9.82980 Y-0.55880
X-9.80440 Y-0.55880
X-9.77900 Y-0.55880
X-9.75360 Y-0.55880
X-9.72820 Y-0.55880
X-9.70280 Y-0.55880
X-9.67740 Y-0.55880
X-9.65200 Y-0.55880
X-9.62660 Y-0.55880
X-9.60120 Y-0.55880
X-9.57580 Y-0.55880
X-9.55040 Y-0.55880
X-9.52500 Y-0.55880
X-9.49960 Y-0.55880
X-9.47420 Y-0.55880
X-9.44880 Y-0.55880
X-9.42340 Y-0.55880
X-9.39800 Y-0.55880
X-9.37260 Y-0.55880
X-9.34720 Y-0.55880
X-9.32180 Y-0.55880
X-9.29640 Y-0.55880
X-9.27100 Y-0.55880
X-9.24560 Y-0.55880
X-9.22020 Y-0.55880
X-9.19480 Y-0.55880
X-9.16940 Y-0.55880
X-9.14400 Y-0.55880
X-9.11860 Y-0.55880
X-9.09320 Y-0.55880
X-9.06780 Y-0.55880
X-9.04240 Y-0.55880
X-9.01700 Y-0.55880
X-8.99160 Y-0.55880
X-8.96620 Y-0.55880
X-8.94080 Y-0.55880
X-8.91540 Y-0.55880
X-8.89000 Y-0.55880
X-8.86460 Y-0.55880
X-8.83920 Y-0.55880
X-8.81380 Y-0.55880
X-8.78840 Y-0.55880
X-8.76300 Y-0.55880
X-8.73760 Y-0.55880
X-8.71220 Y-0.55880
X-8.68680 Y-0.55880
X-8.66140 Y-0.55880
X-8.63600 Y-0.55880
X-8.61060 Y-0.55880
X-8.58520 Y-0.55880
X-8.55980 Y-0.55880
X-8.53440 Y-0.55880
X-8.50900 Y-0.55880
X-8.48360 Y-0.55880
X-8.45820 Y-0.55880
X-8.43280 Y-0.55880
X-8.40740 Y-0.55880
X-8.38200 Y-0.55880
X-8.35660 Y-0.55880
X-8.33120 Y-0.55880
X-8.30580 Y-0.55880
X-8.28040 Y-0.55880
X-8.25500 Y-0.55880
X-8.22960 Y-0.55880
X-8.20420 Y-0.55880
X-8.17880 Y-0.55880
X-8.15340 Y-0.55880
X-8.12800 Y-0.55880
X-8.10260 Y-0.55880
X-8.07720 Y-0.55880
X-8.05180 Y-0.55880
X-8.02640 Y-0.55880
X-8.00100 Y-0.55880
X-7.97560 Y-0.55880
X-7.95020 Y-0.55880
X-7.92480 Y-0.55880
X-7.89940 Y-0.55880
X-7.87400 Y-0.55880
X-7.84860 Y-0.55880
X-7.82320 Y-0.55880
X-7.79780 Y-0.55880
X-7.77240 Y-0.55880
X-7.74700 Y-0.55880
X-7.72160 Y-0.55880
X-7.69620 Y-0.55880
X-7.67080 Y-0.55880
X-7.64540 Y-0.55880
X-7.62000 Y-0.55880
X-7.59460 Y-0.55880
X-7.56920 Y-0.55880
X-7.54380 Y-0.55880
X-7.51840 Y-0.55880
X-7.49300 Y-0.55880
X-7.46760 Y-0.55880
X-7.44220 Y-0.55880
X-7.41680 Y-0.55880
X-7.39140 Y-0.55880
X-7.36600 Y-0.55880
X-7.34060 Y-0.55880
X-7.31520 Y-0.55880
X-7.28980 Y-0.55880
X-7.26440 Y-0.55880
X-7.23900 Y-0.55880
X-7.21360 Y-0.55880
X-7.18820 Y-0.55880
X-7.16280 Y-0.55880
X-7.13740 Y-0.55880
X-7.11200 Y-0.55880
X-7.08660 Y-0.55880
X-7.06120 Y-0.55880
X-7.03580 Y-0.55880
X-7.01040 Y-0.55880
X-6.98500 Y-0.55880
X-6.95960 Y-0.55880
X-6.93420 Y-0.55880
X-6.90880 Y-0.55880
X-6.88340 Y-0.55880
X-6.85800 Y-0.55880
X-6.83260 Y-0.55880
X-6.80720 Y-0.55880
X-6.78180 Y-0.55880
X-6.75640 Y-0.55880
X-6.73100 Y-0.55880
X-6.70560 Y-0.55880
X-6.68020 Y-0.55880
X-6.65480 Y-0.55880
X-6.62940 Y-0.55880
X-6.60400 Y-0.55880
X-6.57860 Y-0.55880
X-6.55320 Y-0.55880
X-6.52780 Y-0.55880
X-6.50240 Y-0.55880
X-6.47700 Y-0.55880
X-6.45160 Y-0.55880
X-6.42620 Y-0.55880
X-6.40080 Y-0.55880
X-6.37540 Y-0.55880
X-6.35000 Y-0.55880
X-6.32460 Y-0.55880
X-6.29920 Y-0.55880
X-6.27380 Y-0.55880
X-6.24840 Y-0.55880
X-6.22300 Y-0.55880
X-6.19760 Y-0.55880
X-6.17220 Y-0.55880
X-6.14680 Y-0.55880
X-6.12140 Y-0.55880
X-6.09600 Y-0.55880
X-6.07060 Y-0.55880
X-6.04520 Y-0.55880
X-6.01980 Y-0.55880
X-5.99440 Y-0.55880
X-5.96900 Y-0.55880
X-5.94360 Y-0.55880
X-5.91820 Y-0.55880
X-5.89280 Y-0.55880
X-5.86740 Y-0.55880
X-5.84200 Y-0.55880
X-5.81660 Y-0.55880
X-5.79120 Y-0.55880
X-5.76580 Y-0.55880
X-5.74040 Y-0.55880
X-5.71500 Y-0.55880
X-5.68960 Y-0.55880
X-5.66420 Y-0.55880
X-5.63880 Y-0.55880
X-5.61340 Y-0.55880
X-5.58800 Y-0.55880
X-5.56260 Y-0.55880
X-5.53720 Y-0.55880
X-5.51180 Y-0.55880
X-5.48640 Y-0.55880
X-5.46100 Y-0.55880
X-5.43560 Y-0.55880
X-5.41020 Y-0.55880
X-5.38480 Y-0.55880
X-5.35940 Y-0.55880
X-5.33400 Y-0.55880
X-5.30860 Y-0.55880
X-5.28320 Y-0.55880
X-5.25780 Y-0.55880
X-5.23240 Y-0.55880
X-5.20700 Y-0.55880
X-5.18160 Y-0.55880
X-5.15620 Y-0.55880
X-5.13080 Y-0.55880
X-5.10540 Y-0.55880
X-5.08000 Y-0.55880
X-5.05460 Y-0.55880
X-5.02920 Y-0.55880
X-5.00380 Y-0.55880
X-4.97840 Y-0.55880
X-4.95300 Y-0.55880
X-4.92760 Y-0.55880
X-4.90220 Y-0.55880
X-4.87680 Y-0.55880
X-4.85140 Y-0.55880
X-4.82600 Y-0.55880
X-4.80060 Y-0.55880
X-4.77520 Y-0.55880
X-4.74980 Y-0.55880
X-4.72440 Y-0.55880
X-4.69900 Y-0.55880
X-4.67360 Y-0.55880
X-4.64820 Y-0.55880
X-4.62280 Y-0.55880
X-4.59740 Y-0.55880
X-4.57200 Y-0.55880
X-4.54660 Y-0.55880
X-4.52120 Y-0.55880
X-4.49580 Y-0.55880
X-4.47040 Y-0.55880
X-4.44500 Y-0.55880
X-4.41960 Y-0.55880
X-4.39420 Y-0.55880
X-4.36880 Y-0.55880
X-4.34340 Y-0.55880
X-4.31800 Y-0.55880
X-4.29260 Y-0.55880
X-4.26720 Y-0.55880
X-4.24180 Y-0.55880
X-4.21640 Y-0.55880
X-4.19100 Y-0.55880
X-4.16560 Y-0.55880
X-4.14020 Y-0.55880
X-4.11480 Y-0.55880
X-4.08940 Y-0.55880
X-4.06400 Y-0.55880
X-4.03860 Y-0.55880
X-4.01320 Y-0.55880
X-3.98780 Y-0.55880
X-3.96240 Y-0.55880
X-3.93700 Y-0.55880
X-3.91160 Y-0.55880
X-3.88620 Y-0.55880
X-3.86080 Y-0.55880
X-3.83540 Y-0.55880
X-3.81000 Y-0.55880
X-3.78460 Y-0.55880
X-3.75920 Y-0.55880
X-3.73380 Y-0.55880
X-3.70840 Y-0.55880
X-3.68300 Y-0.55880
X-3.65760 Y-0.55880
X-3.63220 Y-0.55880
X-3.60680 Y-0.55880
X-3.58140 Y-0.55880
X-3.55600 Y-0.55880
X-3.53060 Y-0.55880
X-3.50520 Y-0.55880
X-3.47980 Y-0.55880
X-3.45440 Y-0.55880
X-3.42900 Y-0.55880
X-3.40360 Y-0.55880
X-3.37820 Y-0.55880
X-3.35280 Y-0.55880
X-3.32740 Y-0.55880
X-3.30200 Y-0.55880
X-3.27660 Y-0.55880
X-3.25120 Y-0.55880
X-3.22580 Y-0.55880
X-3.20040 Y-0.55880
X-3.17500 Y-0.55880
X-3.14960 Y-0.55880
X-3.12420 Y-0.55880
X-3.09880 Y-0.55880
X-3.07340 Y-0.55880
X-3.04800 Y-0.55880
X-3.02260 Y-0.55880
X-2.99720 Y-0.55880
X-2.97180 Y-0.55880
X-2.94640 Y-0.55880
X-2.92100 Y-0.55880
X-2.89560 Y-0.55880
X-2.87020 Y-0.55880
X-2.84480 Y-0.55880
X-2.81940 Y-0.55880
X-2.79400 Y-0.55880
X-2.76860 Y-0.55880
X-2.74320 Y-0.55880
X-2.71780 Y-0.55880
X-2.69240 Y-0.55880
X-2.66700 Y-0.55880
X-2.64160 Y-0.55880
X-2.61620 Y-0.55880
X-2.59080 Y-0.55880
X-2.56540 Y-0.55880
X-2.54000 Y-0.55880
X-2.51460 Y-0.55880
X-2.48920 Y-0.55880
X-2.46380 Y-0.55880
X-2.43840 Y-0.55880
X-2.41300 Y-0.55880
X-2.38760 Y-0.55880
X-2.36220 Y-0.55880
X-2.33680 Y-0.55880
X-2.31140 Y-0.55880
X-2.28600 Y-0.55880
X-2.26060 Y-0.55880
X-2.23520 Y-0.55880
X-2.20980 Y-0.55880
X-2.18440 Y-0.55880
X-2.15900 Y-0.55880
X-2.13360 Y-0.55880
X-2.10820 Y-0.55880
X-2.08280 Y-0.55880
X-2.05740 Y-0.55880
X-2.03200 Y-0.55880
X-2.00660 Y-0.55880
X-1.98120 Y-0.55880
X-1.95580 Y-0.55880
X-1.93040 Y-0.55880
X-1.90500 Y-0.55880
X-1.87960 Y-0.55880
X-1.85420 Y-0.55880
X-1.82880 Y-0.55880
X-1.80340 Y-0.55880
X-1.77800 Y-0.55880
X-1.75260 Y-0.55880
X-1.72720 Y-0.55880
X-1.70180 Y-0.55880
X-1.67640 Y-0.55880
X-1.65100 Y-0.55880
X-1.62560 Y-0.55880
X-1.60020 Y-0.55880
X-1.57480 Y-0.55880
X-1.54940 Y-0.55880
X-1.52400 Y-0.55880
X-1.49860 Y-0.55880
X-1.47320 Y-0.55880
X-1.44780 Y-0.55880
X-1.42240 Y-0.55880
X-1.39700 Y-0.55880
X-1.37160 Y-0.55880
X-1.34620 Y-0.55880
X-1.32080 Y-0.55880
X-1.29540 Y-0.55880
X-1.27000 Y-0.55880
X-1.24460 Y-0.55880
X-1.21920 Y-0.55880
X-1.19380 Y-0.55880
X-1.16840 Y-0.55880
X-1.14300 Y-0.55880
X-1.11760 Y-0.55880
X-1.09220 Y-0.55880
X-1.06680 Y-0.55880
X-1.04140 Y-0.55880
X-1.01600 Y-0.55880
X-0.99060 Y-0.55880
X-0.96520 Y-0.55880
X-0.93980 Y-0.55880
X-0.91440 Y-0.55880
X-0.88900 Y-0.55880
X-0.86360 Y-0.55880
X-0.83820 Y-0.55880
X-0.81280 Y-0.55880
X-0.78740 Y-0.55880
X-0.76200 Y-0.55880
X-0.73660 Y-0.55880
X-0.71120 Y-0.55880
X-0.68580 Y-0.55880
X-0.66040 Y-0.55880
X-0.63500 Y-0.55880
X-0.60960 Y-0.55880
X-0.58420 Y-0.55880
X-0.55880 Y-0.55880
X-0.53340 Y-0.55880
X-0.50800 Y-0.55880
X-0.48260 Y-0.55880
X-0.45720 Y-0.55880
X-0.43180 Y-0.55880
X-0.40640 Y-0.55880
X-0.38100 Y-0.55880
X-0.35560 Y-0.55880
X-0.33020 Y-0.55880
X-0.30480 Y-0.55880
X-0.27940 Y-0.55880
X-0.25400 Y-0.55880
X-0.22860 Y-0.55880
X-0.20320 Y-0.55880
X-0.17780 Y-0.55880
X-0.15240 Y-0.55880
X-0.12700 Y-0.55880
X-0.10160 Y-0.55880
X-0.07620 Y-0.55880
X-0.05080 Y-0.55880
X-0.02540 Y-0.55880
X0.00000 Y-0.55880
X0.02540 Y-0.55880
X0.05080 Y-0.55880
X0.07620 Y-0.55880
X0.10160 Y-0.55880
X0.12700 Y-0.55880
X0.15240 Y-0.55880
X0.17780 Y-0.55880
X0.20320 Y-0.55880
X0.22860 Y-0.55880
X0.25400 Y-0.55880
X0.27940 Y-0.55880
X0.30480 Y-0.55880
X0.33020 Y-0.55880
X0.35560 Y-0.55880
X0.38100 Y-0.55880
X0.40640 Y-0.55880
X0.43180 Y-0.55880
X0.45720 Y-0.55880
X0.48260 Y-0.55880
X0.50800 Y-0.55880
X0.53340 Y-0.55880
X0.55880 Y-0.55880
X0.55880 Y-0.55880
X0.55880 Y-0.53340
X0.55880 Y-0.50800
X0.55880 Y-0.48260
X0.55880 Y-0.45720
X0.55880 Y-0.43180
X0.55880 Y-0.40640
X0.55880 Y-0.38100
X0.55880 Y-0.35560
X0.55880 Y-0.33020
X0.55880 Y-0.30480
X0.55880 Y-0.27940
X0.55880 Y-0.25400
X0.55880 Y-0.22860
X0.55880 Y-0.20320
X0.55880 Y-0.17780
X0.55880 Y-0.15240
X0.55880 Y-0.12700
X0.55880 Y-0.10160
X0.55880 Y-0.07620
X0.55880 Y-0.05080
X0.55880 Y-0.02540
X0.55880 Y0.00000
X0.55880 Y0.02540
X0.55880 Y0.05080
X0.55880 Y0.07620
X0.55880 Y0.10160
X0.55880 Y0.12700
X0.55880 Y0.15240
X0.55880 Y0.17780
X0.55880 Y0.20320
X0.55880 Y0.22860
X0.55880 Y0.25400
X0.55880 Y0.27940
X0.55880 Y0.30480
X0.55880 Y0.33020
X0.55880 Y0.35560
X0.55880 Y0.38100
X0.55880 Y0.40640
X0.55880 Y0.43180
X0.55880 Y0.45720
X0.55880 Y0.48260
X0.55880 Y0.50800
X0.55880 Y0.53340
X0.55880 Y0.55880
X0.55880 Y0.58420
X0.55880 Y0.60960
X0.55880 Y0.63500
X0.55880 Y0.66040
X0.55880 Y0.68580
X0.55880 Y0.71120
X0.55880 Y0.73660
X0.55880 Y0.76200
X0.55880 Y0.78740
X0.55880 Y0.81280
X0.55880 Y0.83820
X0.55880 Y0.86360
X0.55880 Y0.88900
X0.55880 Y0.91440
X0.55880 Y0.93980
X0.55880 Y0.96520
X0.55880 Y0.99060
X0.55880 Y1.01600
X0.55880 Y1.04140
X0.55880 Y1.06680
X0.55880 Y1.09220
X0.55880 Y1.11760
X0.55880 Y1.14300
X0.55880 Y1.16840
X0.55880 Y1.19380
X0.55880 Y1.21920
X0.55880 Y1.24460
X0.55880 Y1.27000
X0.55880 Y1.29540
X0.55880 Y1.32080
X0.55880 Y1.34620
X0.55880 Y1.37160
X0.55880 Y1.39700
X0.55880 Y1.42240
X0.55880 Y1.44780
X0.55880 Y1.47320
X0.55880 Y1.49860
X0.55880 Y1.52400
X0.55880 Y1.54940
X0.55880 Y1.57480
X0.55880 Y1.60020
X0.55880 Y1.62560
X0.55880 Y1.65100
X0.55880 Y1.67640
X0.55880 Y1.70180
X0.55880 Y1.72720
X0.55880 Y1.75260
X0.55880 Y1.77800
X0.55880 Y1.80340
X0.55880 Y1.82880
X0.55880 Y1.85420
X0.55880 Y1.87960
X0.55880 Y1.90500
X0.55880 Y1.93040
X0.55880 Y1.95580
X0.55880 Y1.98120
X0.55880 Y2.00660
X0.55880 Y2.03200
X0.55880 Y2.05740
X0.55880 Y2.08280
X0.55880 Y2.10820
X0.55880 Y2.13360
X0.55880 Y2.15900
X0.55880 Y2.18440
X0.55880 Y2.20980
X0.55880 Y2.23520
X0.55880 Y2.26060
X0.55880 Y2.28600
X0.55880 Y2.31140
X0.55880 Y2.33680
X0.55880 Y2.36220
X0.55880 Y2.38760
X0.55880 Y2.41300
X0.55880 Y2.43840
X0.55880 Y2.46380
X0.55880 Y2.48920
X0.55880 Y2.51460
X0.55880 Y2.54000
X0.55880 Y2.56540
X0.55880 Y2.59080
X0.55880 Y2.61620
X0.55880 Y2.64160
X0.55880 Y2.66700
X0.55880 Y2.69240
X0.55880 Y2.71780
X0.55880 Y2.74320
X0.55880 Y2.76860
X0.55880 Y2.79400
X0.55880 Y2.81940
X0.55880 Y2.84480
X0.55880 Y2.87020
X0.55880 Y2.89560
X0.55880 Y2.92100
X0.55880 Y2.94640
X0.55880 Y2.97180
X0.55880 Y2.99720
X0.55880 Y3.02260
X0.55880 Y3.04800
X0.55880 Y3.07340
X0.55880 Y3.09880
X0.55880 Y3.12420
X0.55880 Y3.14960
X0.55880 Y3.17500
X0.55880 Y3.20040
X0.55880 Y3.22580
X0.55880 Y3.25120
X0.55880 Y3.27660
X0.55880 Y3.30200
X0.55880 Y3.32740
X0.55880 Y3.35280
X0.55880 Y3.37820
X0.55880 Y3.40360
X0.55880 Y3.42900
X0.55880 Y3.45440
X0.55880 Y3.47980
X0.55880 Y3.50520
X0.55880 Y3.53060
X0.55880 Y3.55600
X0.55880 Y3.58140
X0.55880 Y3.60680
X0.55880 Y3.63220
X0.55880 Y3.65760
X0.55880 Y3.68300
X0.55880 Y3.70840
X0.55880 Y3.73380
X0.55880 Y3.75920
X0.55880 Y3.78460
X0.55880 Y3.81000
X0.55880 Y3.83540
X0.55880 Y3.86080
X0.55880 Y3.88620
X0.55880 Y3.91160
X0.55880 Y3.93700
X0.55880 Y3.96240
X0.55880 Y3.98780
X0.55880 Y4.01320
X0.55880 Y4.03860
X0.55880 Y4.06400
X0.55880 Y4.08940
X0.55880 Y4.11480
X0.55880 Y4.14020
X0.55880 Y4.16560
X0.55880 Y4.19100
X0.55880 Y4.21640
X0.55880 Y4.24180
X0.55880 Y4.26720
X0.55880 Y4.29260
X0.55880 Y4.31800
X0.55880 Y4.34340
X0.55880 Y4.36880
X0.55880 Y4.39420
X0.55880 Y4.41960
X0.55880 Y4.44500
X0.55880 Y4.47040
X0.55880 Y4.49580
X0.55880 Y4.52120
X0.55880 Y4.54660
X0.55880 Y4.57200
X0.55880 Y4.59740
X0.55880 Y4.62280
X0.55880 Y4.64820
X0.55880 Y4.67360
X0.55880 Y4.69900
X0.55880 Y4.72440
X0.55880 Y4.74980
X0.55880 Y4.77520
X0.55880 Y4.80060
X0.55880 Y4.82600
X0.55880 Y4.85140
X0.55880 Y4.87680
X0.55880 Y4.90220
X0.55880 Y4.92760
X0.55880 Y4.95300
X0.55880 Y4.97840
X0.55880 Y5.00380
X0.55880 Y5.02920
X0.55880 Y5.05460
X0.55880 Y5.08000
X0.55880 Y5.10540
X0.55880 Y5.13080
X0.55880 Y5.15620
X0.55880 Y5.18160
X0.55880 Y5.20700
X0.55880 Y5.23240
X0.55880 Y5.25780
X0.55880 Y5.28320
X0.55880 Y5.30860
X0.55880 Y5.33400
X0.55880 Y5.35940
X0.55880 Y5.38480
X0.55880 Y5.41020
X0.55880 Y5.43560
X0.55880 Y5.46100
X0.55880 Y5.48640
X0.55880 Y5.51180
X0.55880 Y5.53720
X0.55880 Y5.56260
X0.55880 Y5.58800
X0.55880 Y5.61340
X0.55880 Y5.63880
X0.55880 Y5.66420
X0.55880 Y5.68960
X0.55880 Y5.71500
X0.55880 Y5.74040
X0.55880 Y5.76580
X0.55880 Y5.79120
X0.55880 Y5.81660
X0.55880 Y5.84200
X0.55880 Y5.86740
X0.55880 Y5.89280
X0.55880 Y5.91820
X0.55880 Y5.94360
X0.55880 Y5.96900
X0.55880 Y5.99440
X0.55880 Y6.01980
X0.55880 Y6.04520
X0.55880 Y6.07060
X0.55880 Y6.09600
X0.55880 Y6.12140
X0.55880 Y6.14680
X0.55880 Y6.17220
X0.55880 Y6.19760
X0.55880 Y6.22300
X0.55880 Y6.24840
X0.55880 Y6.27380
X0.55880 Y6.29920
X0.55880 Y6.32460
X0.55880 Y6.35000
X0.55880 Y6.37540
X0.55880 Y6.40080
X0.55880 Y6.42620
X0.55880 Y6.45160
X0.55880 Y6.47700
X0.55880 Y6.50240
X0.55880 Y6.52780
X0.55880 Y6.55320
X0.55880 Y6.57860
X0.55880 Y6.60400
X0.55880 Y6.62940
X0.55880 Y6.65480
X0.55880 Y6.68020
X0.55880 Y6.70560
X0.55880 Y6.73100
X0.55880 Y6.75640
X0.55880 Y6.78180
X0.55880 Y6.80720
X0.55880 Y6.83260
X0.55880 Y6.85800
X0.55880 Y6.88340
X0.55880 Y6.90880
X0.55880 Y6.93420
X0.55880 Y6.95960
X0.55880 Y6.98500
X0.55880 Y7.01040
X0.55880 Y7.03580
X0.55880 Y7.06120
X0.55880 Y7.08660
X0.55880 Y7.11200
X0.55880 Y7.13740
X0.55880 Y7.16280
X0.55880 Y7.18820
X0.55880 Y7.21360
X0.55880 Y7.23900
X0.55880 Y7.26440
X0.55880 Y7.28980
X0.55880 Y7.31520
X0.55880 Y7.34060
X0.55880 Y7.36600
X0.55880 Y7.39140
X0.55880 Y7.41680
X0.55880 Y7.44220
X0.55880 Y7.46760
X0.55880 Y7.49300
X0.55880 Y7.51840
X0.55880 Y7.54380
X0.55880 Y7.56920
X0.55880 Y7.59460
X0.55880 Y7.62000
X0.55880 Y7.64540
X0.55880 Y7.67080
X0.55880 Y7.69620
X0.55880 Y7.72160
X0.55880 Y7.74700
X0.55880 Y7.77240
X0.55880 Y7.79780
X0.55880 Y7.82320
X0.55880 Y7.84860
X0.55880 Y7.87400
X0.55880 Y7.89940
X0.55880 Y7.92480
X0.55880 Y7.95020
X0.55880 Y7.97560
X0.55880 Y8.00100
X0.55880 Y8.02640
X0.55880 Y8.05180
X0.55880 Y8.07720
X0.55880 Y8.10260
X0.55880 Y8.12800
X0.55880 Y8.15340
X0.55880 Y8.17880
X0.55880 Y8.20420
X0.55880 Y8.22960
X0.55880 Y8.25500
X0.55880 Y8.28040
X0.55880 Y8.30580
X0.55880 Y8.33120
X0.55880 Y8.35660
X0.55880 Y8.38200
X0.55880 Y8.40740
X0.55880 Y8.43280
X0.55880 Y8.45820
X0.55880 Y8.48360
X0.55880 Y8.50900
X0.55880 Y8.53440
X0.55880 Y8.55980
X0.55880 Y8.58520
X0.55880 Y8.61060
X0.55880 Y8.63600
X0.55880 Y8.66140
X0.55880 Y8.68680
X0.55880 Y8.71220
X0.55880 Y8.73760
X0.55880 Y8.76300
X0.55880 Y8.78840
X0.55880 Y8.81380
X0.55880 Y8.83920
X0.55880 Y8.86460
X0.55880 Y8.89000
X0.55880 Y8.91540
X0.55880 Y8.94080
X0.55880 Y8.96620
X0.55880 Y8.99160
X0.55880 Y9.01700
X0.55880 Y9.04240
X0.55880 Y9.06780
X0.55880 Y9.09320
X0.55880 Y9.11860
X0.55880 Y9.14400
X0.55880 Y9.16940
X0.55880 Y9.19480
X0.55880 Y9.22020
X0.55880 Y9.24560
X0.55880 Y9.27100
X0.55880 Y9.29640
X0.55880 Y9.32180
X0.55880 Y9.34720
X0.55880 Y9.37260
X0.55880 Y9.39800
X0.55880 Y9.42340
X0.55880 Y9.44880
X0.55880 Y9.47420
X0.55880 Y9.49960
X0.55880 Y9.52500
X0.55880 Y9.55040
X0.55880 Y9.57580
X0.55880 Y9.60120
X0.55880 Y9.62660
X0.55880 Y9.65200
X0.55880 Y9.67740
X0.55880 Y9.70280
X0.55880 Y9.72820
X0.55880 Y9.75360
X0.55880 Y9.77900
X0.55880 Y9.80440
X0.55880 Y9.82980
X0.55880 Y9.85520
X0.55880 Y9.88060
X0.55880 Y9.90600
X0.55880 Y9.93140
X0.55880 Y9.95680
X0.55880 Y9.98220
X0.55880 Y10.00760
X0.55880 Y10.03300
X0.55880 Y10.05840
X0.55880 Y10.08380
X0.55880 Y10.10920
X0.55880 Y10.13460
X0.55880 Y10.16000
X0.55880 Y10.18540
X0.55880 Y10.21080
X0.55880 Y10.23620
X0.55880 Y10.26160
X0.55880 Y10.28700
X0.55880 Y10.31240
X0.55880 Y10.33780
X0.55880 Y10.36320
X0.55880 Y10.38860
X0.55880 Y10.41400
X0.55880 Y10.43940
X0.55880 Y10.46480
X0.55880 Y10.49020
X0.55880 Y10.51560
X0.55880 Y10.54100
X0.55880 Y10.56640
X0.55880 Y10.59180
X0.55880 Y10.61720
X0.55880 Y10.64260
X0.55880 Y10.66800
X0.55880 Y10.69340
X0.55880 Y10.71880
X0.55880 Y10.74420
X0.55880 Y10.76960
X0.55880 Y10.79500
X0.55880 Y10.82040
X0.55880 Y10.84580
X0.55880 Y10.87120
X0.55880 Y10.89660
X0.55880 Y10.92200
X0.55880 Y10.94740
X0.55880 Y10.97280
X0.55880 Y10.99820
X0.55880 Y11.02360
X0.55880 Y11.04900
X0.55880 Y11.07440
X0.55880 Y11.09980
X0.55880 Y11.12520
X0.55880 Y11.15060
X0.55880 Y11.17600
X0.55880 Y11.20140
X0.55880 Y11.22680
X0.55880 Y11.25220
X0.55880 Y11.27760
X0.55880 Y11.30300
X0.55880 Y11.32840
X0.55880 Y11.35380
X0.55880 Y11.37920
X0.55880 Y11.40460
X0.55880 Y11.43000
X0.55880 Y11.45540
X0.55880 Y11.48080
X0.55880 Y11.50620
X0.55880 Y11.53160
X0.55880 Y11.55700
X0.55880 Y11.58240
X0.55880 Y11.60780
X0.55880 Y11.63320
X0.55880 Y11.65860
X0.55880 Y11.68400
X0.55880 Y11.70940
X0.55880 Y11.73480
X0.55880 Y11.76020
X0.55880 Y11.78560
X0.55880 Y11.81100
X0.55880 Y11.83640
X0.55880 Y11.86180
X0.55880 Y11.88720
X0.55880 Y11.91260
X0.55880 Y11.93800
X0.55880 Y11.96340
X0.55880 Y11.98880
X0.55880 Y12.01420
X0.55880 Y12.03960
X0.55880 Y12.06500
X0.55880 Y12.09040
X0.55880 Y12.11580
X0.55880 Y12.14120
X0.55880 Y12.16660
X0.55880 Y12.19200
X0.55880 Y12.21740
X0.55880 Y12.24280
X0.55880 Y12.26820
X0.55880 Y12.29360
X0.55880 Y12.31900
X0.55880 Y12.34440
X0.55880 Y12.36980
X0.55880 Y12.39520
X0.55880 Y12.42060
X0.55880 Y12.44600
X0.55880 Y12.47140
X0.55880 Y12.49680
X0.55880 Y12.52220
X0.55880 Y12.54760
X0.55880 Y12.57300
X0.55880 Y12.59840
X0.55880 Y12.62380
X0.55880 Y12.64920
X0.55880 Y12.67460
X0.55880 Y12.70000
X0.55880 Y12.72540
X0.55880 Y12.75080
X0.55880 Y12.77620
X0.55880 Y12.80160
X0.55880 Y12.82700
X0.55880 Y12.85240
X0.55880 Y12.87780
X0.55880 Y12.90320
X0.55880 Y12.92860
X0.55880 Y12.95400
X0.55880 Y12.97940
X0.55880 Y13.00480
X0.55880 Y13.03020
X0.55880 Y13.05560
X0.55880 Y13.08100
X0.55880 Y13.10640
X0.55880 Y13.13180
X0.55880 Y13.15720
X0.55880 Y13.18260
X0.55880 Y13.20800
X0.55880 Y13.23340
X0.55880 Y13.25880
X0.55880 Y13.28420
X0.55880 Y13.30960
X0.55880 Y13.33500
X0.55880 Y13.36040
X0.55880 Y13.38580
X0.55880 Y13.41120
X0.55880 Y13.43660
X0.55880 Y13.46200
X0.55880 Y13.48740
X0.55880 Y13.51280
X0.55880 Y13.53820
X0.55880 Y13.56360
X0.55880 Y13.58900
X0.55880 Y13.61440
X0.55880 Y13.63980
X0.55880 Y13.66520
X0.55880 Y13.69060
X0.55880 Y13.71600
X0.55880 Y13.74140
X0.55880 Y13.76680
X0.55880 Y13.79220
X0.55880 Y13.81760
X0.55880 Y13.84300
X0.55880 Y13.86840
X0.55880 Y13.89380
X0.55880 Y13.91920
X0.55880 Y13.94460
X0.55880 Y13.97000
X0.55880 Y13.99540
X0.55880 Y14.02080
X0.55880 Y14.04620
X0.55880 Y14.07160
X0.55880 Y14.09700
X0.55880 Y14.12240
X0.55880 Y14.14780
X0.55880 Y14.17320
X0.55880 Y14.19860
X0.55880 Y14.22400
X0.55880 Y14.24940
X0.55880 Y14.27480
X0.55880 Y14.30020
X0.55880 Y14.32560
X0.55880 Y14.35100
X0.55880 Y14.37640
X0.55880 Y14.40180
X0.55880 Y14.42720
X0.55880 Y14.45260
X0.55880 Y14.47800
X0.55880 Y14.50340
X0.55880 Y14.52880
X0.55880 Y14.55420
X0.55880 Y14.57960
X0.55880 Y14.60500
X0.55880 Y14.63040
X0.55880 Y14.65580
X0.55880 Y14.68120
X0.55880 Y14.70660
X0.55880 Y14.73200
X0.55880 Y14.75740
X0.55880 Y14.78280
X0.55880 Y14.80820
X0.55880 Y14.83360
X0.55880 Y14.85900
X0.55880 Y14.88440
X0.55880 Y14.90980
X0.55880 Y14.93520
X0.55880 Y14.96060
X0.55880 Y14.98600
X0.55880 Y15.01140
X0.55880 Y15.03680
X0.55880 Y15.06220
X0.55880 Y15.08760
X0.55880 Y15.11300
X0.55880 Y15.13840
X0.55880 Y15.16380
X0.55880 Y15.18920
X0.55880 Y15.21460
X0.55880 Y15.24000
X0.55880 Y15.26540
X0.55880 Y15.29080
X0.55880 Y15.31620
X0.55880 Y15.34160
X0.55880 Y15.36700
X0.55880 Y15.39240
X0.55880 Y15.41780
X0.55880 Y15.44320
X0.55880 Y15.46860
X0.55880 Y15.49400
X0.55880 Y15.51940
X0.55880 Y15.54480
X0.55880 Y15.57020
X0.55880 Y15.59560
X0.55880 Y15.62100
X0.55880 Y15.64640
X0.55880 Y15.67180
X0.55880 Y15.69720
X0.55880 Y15.72260
X0.55880 Y15.74800
X0.55880 Y15.77340
X0.55880 Y15.79880
X0.55880 Y15.82420
X0.55880 Y15.84960
X0.55880 Y15.87500
X0.55880 Y15.90040
X0.55880 Y15.92580
X0.55880 Y15.95120
X0.55880 Y15.97660
X0.55880 Y16.00200
X0.55880 Y16.02740
X0.55880 Y16.05280
X0.55880 Y16.07820
X0.55880 Y16.10360
X0.55880 Y16.12900
X0.55880 Y16.15440
X0.55880 Y16.17980
X0.55880 Y16.20520
X0.55880 Y16.23060
X0.55880 Y16.25600
X0.55880 Y16.28140
X0.55880 Y16.30680
X0.55880 Y16.33220
X0.55880 Y16.35760
X0.55880 Y16.38300
X0.55880 Y16.40840
X0.55880 Y16.43380
X0.55880 Y16.45920
X0.55880 Y16.48460
X0.55880 Y16.51000
X0.55880 Y16.53540
X0.55880 Y16.56080
X0.55880 Y16.58620
X0.55880 Y16.61160
X0.55880 Y16.63700
X0.55880 Y16.66240
X0.55880 Y16.68780
X0.55880 Y16.71320
X0.55880 Y16.73860
X0.55880 Y16.76400
X0.55880 Y16.78940
X0.55880 Y16.81480
X0.55880 Y16.84020
X0.55880 Y16.86560
X0.55880 Y16.89100
X0.55880 Y16.91640
X0.55880 Y16.94180
X0.55880 Y16.96720
X0.55880 Y16.99260
X0.55880 Y17.01800
X0.55880 Y17.04340
X0.55880 Y17.06880
X0.55880 Y17.09420
X0.55880 Y17.11960
X0.55880 Y17.14500
X0.55880 Y17.17040
X0.55880 Y17.19580
X0.55880 Y17.22120
X0.55880 Y17.24660
X0.55880 Y17.27200
X0.55880 Y17.29740
X0.55880 Y17.32280
X0.55880 Y17.34820
X0.55880 Y17.37360
X0.55880 Y17.39900
X0.55880 Y17.42440
X0.55880 Y17.44980
X0.55880 Y17.47520
X0.55880 Y17.50060
X0.55880 Y17.52600
X0.55880 Y17.55140
X0.55880 Y17.57680
X0.55880 Y17.60220
X0.55880 Y17.62760
X0.55880 Y17.65300
X0.55880 Y17.67840
X0.55880 Y17.70380
X0.55880 Y17.72920
X0.55880 Y17.75460
X0.55880 Y17.78000
X0.55880 Y17.80540
X0.55880 Y17.83080
X0.55880 Y17.85620
X0.55880 Y17.88160
X0.55880 Y17.90700
X0.55880 Y17.93240
X0.55880 Y17.95780
X0.55880 Y17.98320
X0.55880 Y18.00860
X0.55880 Y18.03400
X0.55880 Y18.05940
X0.55880 Y18.08480
X0.55880 Y18.11020
X0.55880 Y18.13560
X0.55880 Y18.16100
X0.55880 Y18.18640
X0.55880 Y18.21180
X0.55880 Y18.23720
X0.55880 Y18.26260
X0.55880 Y18.28800
X0.55880 Y18.31340
X0.55880 Y18.33880
X0.55880 Y18.36420
X0.55880 Y18.38960
X0.55880 Y18.41500
X0.55880 Y18.44040
X0.55880 Y18.46580
X0.55880 Y18.49120
X0.55880 Y18.51660
X0.55880 Y18.54200
X0.55880 Y18.56740
X0.55880 Y18.59280
X0.55880 Y18.61820
X0.55880 Y18.64360
X0.55880 Y18.66900
X0.55880 Y18.69440
X0.55880 Y18.71980
X0.55880 Y18.74520
X0.55880 Y18.77060
X0.55880 Y18.79600
X0.55880 Y18.82140
X0.55880 Y18.84680
X0.55880 Y18.87220
X0.55880 Y18.89760
X0.55880 Y18.92300
X0.55880 Y18.94840
X0.55880 Y18.97380
X0.55880 Y18.99920
X0.55880 Y19.02460
X0.55880 Y19.05000
X0.55880 Y19.07540
X0.55880 Y19.10080
X0.55880 Y19.12620
X0.55880 Y19.15160
X0.55880 Y19.17700
X0.55880 Y19.20240
X0.55880 Y19.22780
X0.55880 Y19.25320
X0.55880 Y19.27860
X0.55880 Y19.30400
X0.55880 Y19.32940
X0.55880 Y19.35480
X0.55880 Y19.38020
X0.55880 Y19.40560
X0.55880 Y19.43100
X0.55880 Y19.45640
X0.55880 Y19.48180
X0.55880 Y19.50720
X0.55880 Y19.53260
X0.55880 Y19.55800
X0.55880 Y19.58340
X0.55880 Y19.60880
X0.55880 Y19.63420
X0.55880 Y19.65960
X0.55880 Y19.68500
X0.55880 Y19.71040
X0.55880 Y19.73580
X0.55880 Y19.76120
X0.55880 Y19.78660
X0.55880 Y19.81200
X0.55880 Y19.83740
X0.55880 Y19.86280
X0.55880 Y19.88820
X0.55880 Y19.91360
X0.55880 Y19.93900
X0.55880 Y19.96440
X0.55880 Y19.98980
X0.55880 Y20.01520
X0.55880 Y20.04060
X0.55880 Y20.06600
X0.55880 Y20.09140
X0.55880 Y20.11680
X0.55880 Y20.14220
X0.55880 Y20.16760
X0.55880 Y20.19300
X0.55880 Y20.21840
X0.55880 Y20.24380
X0.55880 Y20.26920
X0.55880 Y20.29460
X0.55880 Y20.32000
X0.55880 Y20.34540
X0.55880 Y20.37080
X0.55880 Y20.39620
X0.55880 Y20.42160
X0.55880 Y20.44700
X0.55880 Y20.47240
X0.55880 Y20.49780
X0.55880 Y20.52320
X0.55880 Y20.54860
X0.55880 Y20.57400
X0.55880 Y20.59940
X0.55880 Y20.62480
X0.55880 Y20.65020
X0.55880 Y20.67560
X0.55880 Y20.70100
X0.55880 Y20.72640
X0.55880 Y20.75180
X0.55880 Y20.77720
X0.55880 Y20.80260
X0.55880 Y20.82800
X0.55880 Y20.85340
X0.55880 Y20.87880
X0.55880 Y20.90420
X0.55880 Y20.92960
X0.55880 Y20.95500
X0.55880 Y20.98040
X0.55880 Y21.00580
X0.55880 Y21.03120
X0.55880 Y21.05660
X0.55880 Y21.08200
X0.55880 Y21.10740
X0.55880 Y21.13280
X0.55880 Y21.15820
X0.55880 Y21.18360
X0.55880 Y21.20900
X0.55880 Y21.23440
X0.55880 Y21.25980
X0.55880 Y21.28520
X0.55880 Y21.31060
X0.55880 Y21.33600
X0.55880 Y21.36140
X0.55880 Y21.38680
X0.55880 Y21.41220
X0.55880 Y21.43760
X0.55880 Y21.46300
X0.55880 Y21.48840
X0.55880 Y21.51380
X0.55880 Y21.53920
X0.55880 Y21.56460
X0.55880 Y21.59000
X0.55880 Y21.61540
X0.55880 Y21.64080
X0.55880 Y21.66620
X0.55880 Y21.69160
X0.55880 Y21.71700
X0.55880 Y21.74240
X0.55880 Y21.76780
X0.55880 Y21.79320
X0.55880 Y21.81860
X0.55880 Y21.84400
X0.55880 Y21.86940
X0.55880 Y21.89480
X0.55880 Y21.92020
X0.55880 Y21.94560
X0.55880 Y21.97100
X0.55880 Y21.99640
X0.55880 Y22.02180
X0.55880 Y22.04720
X0.55880 Y22.07260
X0.55880 Y22.09800
X0.55880 Y22.12340
X0.55880 Y22.14880
X0.55880 Y22.17420
X0.55880 Y22.19960
X0.55880 Y22.22500
X0.55880 Y22.25040
X0.55880 Y22.27580
X0.55880 Y22.30120
X0.55880 Y22.32660
X0.55880 Y22.35200
X0.55880 Y22.37740
X0.55880 Y22.40280
X0.55880 Y22.42820
X0.55880 Y22.45360
X0.55880 Y22.47900
X0.55880 Y22.50440
X0.55880 Y22.52980
X0.55880 Y22.55520
X0.55880 Y22.58060
X0.55880 Y22.60600
X0.55880 Y22.63140
X0.55880 Y22.65680
X0.55880 Y22.68220
X0.55880 Y22.70760
X0.55880 Y22.73300
X0.55880 Y22.75840
X0.55880 Y22.78380
X0.55880 Y22.80920
X0.55880 Y22.83460
X0.55880 Y22.86000
X0.55880 Y22.88540
X0.55880 Y22.91080
X0.55880 Y22.93620
X0.55880 Y22.96160
X0.55880 Y22.98700
X0.55880 Y23.01240
X0.55880 Y23.03780
X0.55880 Y23.06320
X0.55880 Y23.08860
X0.55880 Y23.11400
X0.55880 Y23.13940
X0.55880 Y23.16480
X0.55880 Y23.19020
X0.55880 Y23.21560
X0.55880 Y23.24100
X0.55880 Y23.26640
X0.55880 Y23.29180
X0.55880 Y23.31720
X0.55880 Y23.34260
X0.55880 Y23.36800
X0.55880 Y23.39340
X0.55880 Y23.41880
X0.55880 Y23.44420
X0.55880 Y23.46960
X0.55880 Y23.49500
X0.55880 Y23.52040
X0.55880 Y23.54580
X0.55880 Y23.57120
X0.55880 Y23.59660
X0.55880 Y23.62200
X0.55880 Y23.64740
X0.55880 Y23.67280
X0.55880 Y23.69820
X0.55880 Y23.72360
X0.55880 Y23.74900
X0.55880 Y23.77440
X0.55880 Y23.79980
X0.55880 Y23.82520
X0.55880 Y23.85060
X0.55880 Y23.87600
X0.55880 Y23.90140
X0.55880 Y23.92680
X0.55880 Y23.95220
X0.55880 Y23.97760
X0.55880 Y24.00300
X0.55880 Y24.02840
X0.55880 Y24.05380
X0.55880 Y24.07920
X0.55880 Y24.10460
X0.55880 Y24.13000
X0.55880 Y24.15540
X0.55880 Y24.18080
X0.55880 Y24.20620
X0.55880 Y24.23160
X0.55880 Y24.25700
X0.55880 Y24.28240
X0.55880 Y24.30780
X0.55880 Y24.33320
X0.55880 Y24.35860
X0.55880 Y24.38400
X0.55880 Y24.40940
X0.55880 Y24.43480
X0.55880 Y24.46020
X0.55880 Y24.48560
X0.55880 Y24.51100
X0.55880 Y24.53640
X0.55880 Y24.56180
X0.55880 Y24.58720
X0.55880 Y24.61260
X0.55880 Y24.63800
X0.55880 Y24.66340
X0.55880 Y24.68880
X0.55880 Y24.71420
X0.55880 Y24.73960
X0.55880 Y24.76500
X0.55880 Y24.79040
X0.55880 Y24.81580
X0.55880 Y24.84120
X0.55880 Y24.86660
X0.55880 Y24.89200
X0.55880 Y24.91740
X0.55880 Y24.94280
X0.55880 Y24.96820
X0.55880 Y24.99360
X0.55880 Y25.01900
X0.55880 Y25.04440
X0.55880 Y25.06980
X0.55880 Y25.09520
X0.55880 Y25.12060
X0.55880 Y25.14600
X0.55880 Y25.17140
X0.55880 Y25.19680
X0.55880 Y25.22220
X0.55880 Y25.24760
X0.55880 Y25.27300
X0.55880 Y25.29840
X0.55880 Y25.32380
X0.55880 Y25.34920
X0.55880 Y25.37460
X0.55880 Y25.40000
X0.55880 Y25.42540
X0.55880 Y25.45080
X0.55880 Y25.47620
X0.55880 Y25.50160
X0.55880 Y25.52700
X0.55880 Y25.55240
X0.55880 Y25.57780
X0.55880 Y25.60320
X0.55880 Y25.62860
X0.55880 Y25.65400
X0.55880 Y25.67940
X0.55880 Y25.70480
X0.55880 Y25.73020
X0.55880 Y25.75560
X0.55880 Y25.78100
X0.55880 Y25.80640
X0.55880 Y25.83180
X0.55880 Y25.85720
X0.55880 Y25.88260
X0.55880 Y25.90800
X0.55880 Y25.93340
X0.55880 Y25.95880
X0.55880 Y25.98420
X0.55880 Y26.00960
X0.55880 Y26.03500
X0.55880 Y26.06040
X0.55880 Y26.08580
X0.55880 Y26.11120
X0.55880 Y26.13660
X0.55880 Y26.16200
X0.55880 Y26.18740
X0.55880 Y26.21280
X0.55880 Y26.23820
X0.55880 Y26.26360
X0.55880 Y26.28900
X0.55880 Y26.31440
X0.55880 Y26.33980
X0.55880 Y26.36520
X0.55880 Y26.39060
X0.55880 Y26.41600
X0.55880 Y26.44140
X0.55880 Y26.46680
X0.55880 Y26.49220
X0.55880 Y26.51760
X0.55880 Y26.54300
X0.55880 Y26.56840
X0.55880 Y26.59380
X0.55880 Y26.61920
X0.55880 Y26.64460
X0.55880 Y26.67000
X0.55880 Y26.69540
X0.55880 Y26.72080
X0.55880 Y26.74620
X0.55880 Y26.77160
X0.55880 Y26.79700
X0.55880 Y26.82240
X0.55880 Y26.84780
X0.55880 Y26.87320
X0.55880 Y26.89860
X0.55880 Y26.92400
X0.55880 Y26.94940
X0.55880 Y26.97480
X0.55880 Y27.00020
X0.55880 Y27.02560
X0.55880 Y27.05100
X0.55880 Y27.07640
X0.55880 Y27.10180
X0.55880 Y27.12720
X0.55880 Y27.15260
X0.55880 Y27.17800
X0.55880 Y27.20340
X0.55880 Y27.22880
X0.55880 Y27.25420
X0.55880 Y27.27960
X0.55880 Y27.30500
X0.55880 Y27.33040
X0.55880 Y27.35580
X0.55880 Y27.38120
X0.55880 Y27.40660
X0.55880 Y27.43200
X0.55880 Y27.45740
X0.55880 Y27.48280
X0.55880 Y27.50820
X0.55880 Y27.53360
X0.55880 Y27.55900
X0.55880 Y27.58440
X0.55880 Y27.60980
X0.55880 Y27.63520
X0.55880 Y27.66060
X0.55880 Y27.68600
X0.55880 Y27.71140
X0.55880 Y27.73680
X0.55880 Y27.76220
X0.55880 Y27.78760
X0.55880 Y27.81300
X0.55880 Y27.83840
X0.55880 Y27.86380
X0.55880 Y27.88920
X0.55880 Y27.91460
X0.55880 Y27.94000
X0.55880 Y27.96540
X0.55880 Y27.99080
X0.55880 Y28.01620
X0.55880 Y28.04160
X0.55880 Y28.06700
X0.55880 Y28.09240
X0.55880 Y28.11780
X0.55880 Y28.14320
X0.55880 Y28.16860
X0.55880 Y28.19400
X0.55880 Y28.21940
X0.55880 Y28.24480
X0.55880 Y28.27020
X0.55880 Y28.29560
X0.55880 Y28.32100
X0.55880 Y28.34640
X0.55880 Y28.37180
X0.55880 Y28.39720
X0.55880 Y28.42260
X0.55880 Y28.44800
X0.55880 Y28.47340
X0.55880 Y28.49880
X0.55880 Y28.52420
X0.55880 Y28.54960
X0.55880 Y28.57500
X0.55880 Y28.60040
X0.55880 Y28.62580
X0.55880 Y28.65120
X0.55880 Y28.67660
X0.55880 Y28.70200
X0.55880 Y28.72740
X0.55880 Y28.75280
X0.55880 Y28.77820
X0.55880 Y28.80360
X0.55880 Y28.82900
X0.55880 Y28.85440
X0.55880 Y28.87980
X0.55880 Y28.90520
X0.55880 Y28.93060
X0.55880 Y28.95600
X0.55880 Y28.98140
X0.55880 Y29.00680
X0.55880 Y29.03220
X0.55880 Y29.05760
X0.55880 Y29.08300
X0.55880 Y29.10840
X0.55880 Y29.13380
X0.55880 Y29.15920
X0.55880 Y29.18460
X0.55880 Y29.21000
X0.55880 Y29.23540
X0.55880 Y29.26080
X0.55880 Y29.28620
X0.55880 Y29.31160
X0.55880 Y29.33700
X0.55880 Y29.36240
X0.55880 Y29.38780
X0.55880 Y29.41320
X0.55880 Y29.43860
X0.55880 Y29.46400
X0.55880 Y29.48940
X0.55880 Y29.51480
X0.55880 Y29.54020
X0.55880 Y29.56560
X0.55880 Y29.59100
X0.55880 Y29.61640
X0.55880 Y29.64180
X0.55880 Y29.66720
X0.55880 Y29.69260
X0.55880 Y29.71800
X0.55880 Y29.74340
X0.55880 Y29.76880
X0.55880 Y29.79420
X0.55880 Y29.81960
X0.55880 Y29.84500
X0.55880 Y29.87040
X0.55880 Y29.89580
X0.55880 Y29.92120
X0.55880 Y29.94660
X0.55880 Y29.97200
X0.55880 Y29.99740
X0.55880 Y30.02280
X0.55880 Y30.04820
X0.55880 Y30.07360
X0.55880 Y30.09900
X0.55880 Y30.12440
X0.55880 Y30.14980
X0.55880 Y30.17520
X0.55880 Y30.20060
X0.55880 Y30.22600
X0.55880 Y30.25140
X0.55880 Y30.27680
X0.55880 Y30.30220
X0.55880 Y30.32760
X0.55880 Y30.35300
X0.55880 Y30.37840
X0.55880 Y30.40380
X0.55880 Y30.42920
X0.55880 Y30.45460
X0.55880 Y30.48000
X0.55880 Y30.50540
X0.55880 Y30.53080
X0.55880 Y30.55620
X0.55880 Y30.58160
X0.55880 Y30.60700
X0.55880 Y30.63240
X0.55880 Y30.65780
X0.55880 Y30.68320
X0.55880 Y30.70860
X0.55880 Y30.73400
X0.55880 Y30.75940
X0.55880 Y30.78480
X0.55880 Y30.81020
X0.55880 Y30.83560
X0.55880 Y30.86100
X0.55880 Y30.88640
X0.55880 Y30.91180
X0.55880 Y30.93720
X0.55880 Y30.96260
X0.55880 Y30.98800
X0.55880 Y31.01340
X0.55880 Y31.03880
X0.55880 Y31.06420
X0.55880 Y31.08960
X0.55880 Y31.11500
X0.55880 Y31.14040
X0.55880 Y31.16580
X0.55880 Y31.19120
X0.55880 Y31.21660
X0.55880 Y31.24200
X0.55880 Y31.26740
X0.55880 Y31.29280
X0.55880 Y31.31820
X0.55880 Y31.34360
X0.55880 Y31.36900
X0.55880 Y31.39440
X0.55880 Y31.41980
X0.55880 Y31.44520
X0.55880 Y31.47060
X0.55880 Y31.49600
X0.55880 Y31.52140
X0.55880 Y31.54680
X0.55880 Y31.57220
X0.55880 Y31.59760
X0.55880 Y31.62300
X0.55880 Y31.64840
X0.55880 Y31.67380
X0.55880 Y31.69920
X0.55880 Y31.72460
X0.55880 Y31.75000
X0.55880 Y31.77540
X0.55880 Y31.80080
X0.55880 Y31.82620
X0.55880 Y31.85160
X0.55880 Y31.87700
X0.55880 Y31.90240
X0.55880 Y31.92780
X0.55880 Y31.95320
X0.55880 Y31.97860
X0.55880 Y32.00400
X0.55880 Y32.02940
X0.55880 Y32.05480
X0.55880 Y32.08020
X0.55880 Y32.10560
X0.55880 Y32.13100
X0.55880 Y32.15640
X0.55880 Y32.18180
X0.55880 Y32.20720
X0.55880 Y32.23260
X0.55880 Y32.25800
X0.55880 Y32.28340
X0.55880 Y32.30880
X0.55880 Y32.33420
X0.55880 Y32.35960
X0.55880 Y32.38500
X0.55880 Y32.41040
X0.55880 Y32.43580
X0.55880 Y32.46120
X0.55880 Y32.48660
X0.55880 Y32.51200
X0.55880 Y32.53740
X0.55880 Y32.56280
X0.55880 Y32.58820
X0.55880 Y32.61360
X0.55880 Y32.63900
X0.55880 Y32.66440
X0.55880 Y32.68980
X0.55880 Y32.71520
X0.55880 Y32.74060
X0.55880 Y32.76600
X0.55880 Y32.79140
X0.55880 Y32.81680
X0.55880 Y32.84220
X0.55880 Y32.86760
X0.55880 Y32.89300
X0.55880 Y32.91840
X0.55880 Y32.94380
X0.55880 Y32.96920
X0.55880 Y32.99460
X0.55880 Y33.02000
X0.55880 Y33.04540
X0.55880 Y33.07080
X0.55880 Y33.09620
X0.55880 Y33.12160
X0.55880 Y33.14700
X0.55880 Y33.17240
X0.55880 Y33.19780
X0.55880 Y33.22320
X0.55880 Y33.24860
X0.55880 Y33.27400
X0.55880 Y33.29940
X0.55880 Y33.32480
X0.55880 Y33.35020
X0.55880 Y33.37560
X0.55880 Y33.40100
X0.55880 Y33.42640
X0.55880 Y33.45180
X0.55880 Y33.47720
X0.55880 Y33.50260
X0.55880 Y33.52800
X0.55880 Y33.55340
X0.55880 Y33.57880
X0.55880 Y33.60420
X0.55880 Y33.62960
X0.55880 Y33.65500
X0.55880 Y33.68040
X0.55880 Y33.70580
X0.55880 Y33.73120
X0.55880 Y33.75660
X0.55880 Y33.78200
X0.55880 Y33.80740
X0.55880 Y33.83280
X0.55880 Y33.85820
X0.55880 Y33.88360
X0.55880 Y33.90900
X0.55880 Y33.93440
X0.55880 Y33.95980
X0.55880 Y33.98520
X0.55880 Y34.01060
X0.55880 Y34.03600
X0.55880 Y34.06140
X0.55880 Y34.08680
X0.55880 Y34.11220
X0.55880 Y34.13760
X0.55880 Y34.16300
X0.55880 Y34.18840
X0.55880 Y34.21380
X0.55880 Y34.23920
X0.55880 Y34.26460
X0.55880 Y34.29000
X0.55880 Y34.31540
X0.55880 Y34.34080
X0.55880 Y34.36620
X0.55880 Y34.39160
X0.55880 Y34.41700
X0.55880 Y34.44240
X0.55880 Y34.46780
X0.55880 Y34.49320
X0.55880 Y34.51860
X0.55880 Y34.54400
X0.55880 Y34.56940
X0.55880 Y34.59480
X0.55880 Y34.62020
X0.55880 Y34.64560
X0.55880 Y34.67100
X0.55880 Y34.69640
X0.55880 Y34.72180
X0.55880 Y34.74720
X0.55880 Y34.77260
X0.55880 Y34.79800
X0.55880 Y34.82340
X0.55880 Y34.84880
X0.55880 Y34.87420
X0.55880 Y34.89960
X0.55880 Y34.92500
X0.55880 Y34.95040
X0.55880 Y34.97580
X0.55880 Y35.00120
X0.55880 Y35.02660
X0.55880 Y35.05200
X0.55880 Y35.07740
X0.55880 Y35.10280
X0.55880 Y35.12820
X0.55880 Y35.15360
X0.55880 Y35.17900
X0.55880 Y35.20440
X0.55880 Y35.22980
X0.55880 Y35.25520
X0.55880 Y35.28060
X0.55880 Y35.30600
X0.55880 Y35.33140
X0.55880 Y35.35680
X0.55880 Y35.38220
X0.55880 Y35.40760
X0.55880 Y35.43300
X0.55880 Y35.45840
X0.55880 Y35.48380
X0.55880 Y35.50920
X0.55880 Y35.53460
X0.55880 Y35.56000
X0.55880 Y35.58540
X0.55880 Y35.61080
X0.55880 Y35.63620
X0.55880 Y35.66160
X0.55880 Y35.68700
X0.55880 Y35.71240
X0.55880 Y35.73780
X0.55880 Y35.76320
X0.55880 Y35.78860
X0.55880 Y35.81400
X0.55880 Y35.83940
X0.55880 Y35.86480
X0.55880 Y35.89020
X0.55880 Y35.91560
X0.55880 Y35.94100
X0.55880 Y35.96640
X0.55880 Y35.99180
X0.55880 Y36.01720
X0.55880 Y36.04260
X0.55880 Y36.06800
X0.55880 Y36.09340
X0.55880 Y36.11880
X0.55880 Y36.14420
X0.55880 Y36.16960
X0.55880 Y36.19500
X0.55880 Y36.22040
X0.55880 Y36.24580
X0.55880 Y36.27120
X0.55880 Y36.29660
X0.55880 Y36.32200
X0.55880 Y36.34740
X0.55880 Y36.37280
X0.55880 Y36.39820
X0.55880 Y36.42360
X0.55880 Y36.44900
X0.55880 Y36.47440
X0.55880 Y36.49980
X0.55880 Y36.52520
X0.55880 Y36.55060
X0.55880 Y36.57600
X0.55880 Y36.60140
X0.55880 Y36.62680
X0.55880 Y36.65220
X0.55880 Y36.67760
X0.55880 Y36.70300
X0.55880 Y36.72840
X0.55880 Y36.75380
X0.55880 Y36.77920
X0.55880 Y36.80460
X0.55880 Y36.83000
X0.55880 Y36.85540
X0.55880 Y36.88080
X0.55880 Y36.90620
X0.55880 Y36.93160
X0.55880 Y36.95700
X0.55880 Y36.98240
X0.55880 Y37.00780
X0.55880 Y37.03320
X0.55880 Y37.05860
X0.55880 Y37.08400
X0.55880 Y37.10940
X0.55880 Y37.13480
X0.55880 Y37.16020
X0.55880 Y37.18560
X0.55880 Y37.21100
X0.55880 Y37.23640
X0.55880 Y37.26180
X0.55880 Y37.28720
X0.55880 Y37.31260
X0.55880 Y37.33800
X0.55880 Y37.36340
X0.55880 Y37.38880
X0.55880 Y37.41420
X0.55880 Y37.43960
X0.55880 Y37.46500
X0.55880 Y37.49040
X0.55880 Y37.51580
X0.55880 Y37.54120
X0.55880 Y37.56660
X0.55880 Y37.56660
X0.53340 Y37.56660
X0.50800 Y37.56660
X0.48260 Y37.56660
X0.45720 Y37.56660
X0.43180 Y37.56660
X0.40640 Y37.56660
X0.38100 Y37.56660
X0.35560 Y37.56660
X0.33020 Y37.56660
X0.30480 Y37.56660
X0.27940 Y37.56660
X0.25400 Y37.56660
X0.22860 Y37.56660
X0.20320 Y37.56660
X0.17780 Y37.56660
X0.15240 Y37.56660
X0.12700 Y37.56660
X0.10160 Y37.56660
X0.07620 Y37.56660
X0.05080 Y37.56660
X0.02540 Y37.56660
X0.00000 Y37.56660
X-0.02540 Y37.56660
X-0.05080 Y37.56660
X-0.07620 Y37.56660
X-0.10160 Y37.56660
X-0.12700 Y37.56660
X-0.15240 Y37.56660
X-0.17780 Y37.56660
X-0.20320 Y37.56660
X-0.22860 Y37.56660
X-0.25400 Y37.56660
X-0.27940 Y37.56660
X-0.30480 Y37.56660
X-0.33020 Y37.56660
X-0.35560 Y37.56660
X-0.38100 Y37.56660
X-0.40640 Y37.56660
X-0.43180 Y37.56660
X-0.45720 Y37.56660
X-0.48260 Y37.56660
X-0.50800 Y37.56660
X-0.53340 Y37.56660
X-0.55880 Y37.56660
X-0.58420 Y37.56660
X-0.60960 Y37.56660
X-0.63500 Y37.56660
X-0.66040 Y37.56660
X-0.68580 Y37.56660
X-0.71120 Y37.56660
X-0.73660 Y37.56660
X-0.76200 Y37.56660
X-0.78740 Y37.56660
X-0.81280 Y37.56660
X-0.83820 Y37.56660
X-0.86360 Y37.56660
X-0.88900 Y37.56660
X-0.91440 Y37.56660
X-0.93980 Y37.56660
X-0.96520 Y37.56660
X-0.99060 Y37.56660
X-1.01600 Y37.56660
X-1.04140 Y37.56660
X-1.06680 Y37.56660
X-1.09220 Y37.56660
X-1.11760 Y37.56660
X-1.14300 Y37.56660
X-1.16840 Y37.56660
X-1.19380 Y37.56660
X-1.21920 Y37.56660
X-1.24460 Y37.56660
X-1.27000 Y37.56660
X-1.29540 Y37.56660
X-1.32080 Y37.56660
X-1.34620 Y37.56660
X-1.37160 Y37.56660
X-1.39700 Y37.56660
X-1.42240 Y37.56660
X-1.44780 Y37.56660
X-1.47320 Y37.56660
X-1.49860 Y37.56660
X-1.52400 Y37.56660
X-1.54940 Y37.56660
X-1.57480 Y37.56660
X-1.60020 Y37.56660
X-1.62560 Y37.56660
X-1.65100 Y37.56660
X-1.67640 Y37.56660
X-1.70180 Y37.56660
X-1.72720 Y37.56660
X-1.75260 Y37.56660
X-1.77800 Y37.56660
X-1.80340 Y37.56660
X-1.82880 Y37.56660
X-1.85420 Y37.56660
X-1.87960 Y37.56660
X-1.90500 Y37.56660
X-1.93040 Y37.56660
X-1.95580 Y37.56660
X-1.98120 Y37.56660
X-2.00660 Y37.56660
X-2.03200 Y37.56660
X-2.05740 Y37.56660
X-2.08280 Y37.56660
X-2.10820 Y37.56660
X-2.13360 Y37.56660
X-2.15900 Y37.56660
X-2.18440 Y37.56660
X-2.20980 Y37.56660
X-2.23520 Y37.56660
X-2.26060 Y37.56660
X-2.28600 Y37.56660
X-2.31140 Y37.56660
X-2.33680 Y37.56660
X-2.36220 Y37.56660
X-2.38760 Y37.56660
X-2.41300 Y37.56660
X-2.43840 Y37.56660
X-2.46380 Y37.56660
X-2.48920 Y37.56660
X-2.51460 Y37.56660
X-2.54000 Y37.56660
X-2.56540 Y37.56660
X-2.59080 Y37.56660
X-2.61620 Y37.56660
X-2.64160 Y37.56660
X-2.66700 Y37.56660
X-2.69240 Y37.56660
X-2.71780 Y37.56660
X-2.74320 Y37.56660
X-2.76860 Y37.56660
X-2.79400 Y37.56660
X-2.81940 Y37.56660
X-2.84480 Y37.56660
X-2.87020 Y37.56660
X-2.89560 Y37.56660
X-2.92100 Y37.56660
X-2.94640 Y37.56660
X-2.97180 Y37.56660
X-2.99720 Y37.56660
X-3.02260 Y37.56660
X-3.04800 Y37.56660
X-3.07340 Y37.56660
X-3.09880 Y37.56660
X-3.12420 Y37.56660
X-3.14960 Y37.56660
X-3.17500 Y37.56660
X-3.20040 Y37.56660
X-3.22580 Y37.56660
X-3.25120 Y37.56660
X-3.27660 Y37.56660
X-3.30200 Y37.56660
