( pcb2gcode 1.1.5 )
      
M7 ( Coolant on. )

G94 ( Millimeters per minute feed rate. )
G21 ( Units == Millimeters. )

G90 ( Absolute coordinates. )
S20000 ( RPM spindle speed. )
F200.00000 ( Feedrate. )
G64 P0.00000 ( set maximum deviation from commanded toolpath )

M3 ( Spindle on clockwise. )
G04 P0 ( dwell for no time -- G64 should not smooth over this point )
G00 Z5.00000 ( retract )

G00 X-6.32460 Y29.29128 ( rapid move to begin. )
G01 Z0.00000
G04 P0 ( dwell for no time -- G64 should not smooth over this point )
X-6.32460 Y29.29128
X-6.35000 Y29.29128
X-6.35000 Y29.26588
X-6.37540 Y29.26588
X-6.37540 Y29.24048
X-6.40080 Y29.24048
X-6.40080 Y29.18968
X-6.42620 Y29.18968
X-6.42620 Y29.13888
X-6.45160 Y29.13888
X-6.45160 Y29.11348
X-6.47700 Y29.11348
X-6.47700 Y29.06268
X-6.50240 Y29.06268
X-6.50240 Y28.98648
X-6.52780 Y28.98648
X-6.52780 Y28.91028
X-6.55320 Y28.91028
X-6.55320 Y28.75788
X-6.57860 Y28.75788
X-6.57860 Y27.71648
X-6.55320 Y27.71648
X-6.55320 Y27.56408
X-6.52780 Y27.56408
X-6.52780 Y27.48788
X-6.50240 Y27.48788
X-6.50240 Y27.41168
X-6.47700 Y27.41168
X-6.47700 Y27.36088
X-6.45160 Y27.36088
X-6.45160 Y27.33548
X-6.42620 Y27.33548
X-6.42620 Y27.28468
X-6.40080 Y27.28468
X-6.40080 Y27.23388
X-6.37540 Y27.23388
X-6.37540 Y27.20848
X-6.35000 Y27.20848
X-6.35000 Y27.18308
X-6.32460 Y27.18308
X-6.32460 Y27.15768
X-6.29920 Y27.15768
X-6.29920 Y27.10688
X-6.27380 Y27.10688
X-6.27380 Y27.08148
X-6.24840 Y27.08148
X-6.24840 Y27.05608
X-6.22300 Y27.05608
X-6.22300 Y27.03068
X-6.17220 Y27.03068
X-6.17220 Y27.00528
X-6.14680 Y27.00528
X-6.14680 Y26.97988
X-6.12140 Y26.97988
X-6.12140 Y26.95448
X-6.07060 Y26.95448
X-6.07060 Y26.92908
X-6.04520 Y26.92908
X-6.04520 Y26.90368
X-5.96900 Y26.90368
X-5.96900 Y26.87828
X-5.91820 Y26.87828
X-5.91820 Y26.85288
X-5.86740 Y26.85288
X-5.86740 Y26.82748
X-5.76580 Y26.82748
X-5.76580 Y26.80208
X-5.66420 Y26.80208
X-5.66420 Y26.77668
X-2.43840 Y26.77668
X-2.43840 Y26.80208
X-2.33680 Y26.80208
X-2.33680 Y26.82748
X-2.23520 Y26.82748
X-2.23520 Y26.85288
X-2.18440 Y26.85288
X-2.18440 Y26.87828
X-2.13360 Y26.87828
X-2.13360 Y26.90368
X-2.05740 Y26.90368
X-2.05740 Y26.92908
X-2.03200 Y26.92908
X-2.03200 Y26.95448
X-1.98120 Y26.95448
X-1.98120 Y26.97988
X-1.95580 Y26.97988
X-1.95580 Y27.00528
X-1.93040 Y27.00528
X-1.93040 Y27.03068
X-1.87960 Y27.03068
X-1.87960 Y27.05608
X-1.85420 Y27.05608
X-1.85420 Y27.08148
X-1.82880 Y27.08148
X-1.82880 Y27.10688
X-1.80340 Y27.10688
X-1.80340 Y27.15768
X-1.77800 Y27.15768
X-1.77800 Y27.18308
X-1.75260 Y27.18308
X-1.75260 Y27.20848
X-1.72720 Y27.20848
X-1.72720 Y27.23388
X-1.70180 Y27.23388
X-1.70180 Y27.28468
X-1.67640 Y27.28468
X-1.67640 Y27.33548
X-1.65100 Y27.33548
X-1.65100 Y27.36088
X-1.62560 Y27.36088
X-1.62560 Y27.41168
X-1.60020 Y27.41168
X-1.60020 Y27.48788
X-1.57480 Y27.48788
X-1.57480 Y27.56408
X-1.54940 Y27.56408
X-1.54940 Y27.71648
X-1.52400 Y27.71648
X-1.52400 Y28.75788
X-1.54940 Y28.75788
X-1.54940 Y28.91028
X-1.57480 Y28.91028
X-1.57480 Y28.98648
X-1.60020 Y28.98648
X-1.60020 Y29.06268
X-1.62560 Y29.06268
X-1.62560 Y29.11348
X-1.65100 Y29.11348
X-1.65100 Y29.13888
X-1.67640 Y29.13888
X-1.67640 Y29.18968
X-1.70180 Y29.18968
X-1.70180 Y29.24048
X-1.72720 Y29.24048
X-1.72720 Y29.26588
X-1.75260 Y29.26588
X-1.75260 Y29.29128
X-1.77800 Y29.29128
X-1.77800 Y29.31668
X-1.80340 Y29.31668
X-1.80340 Y29.36748
X-1.82880 Y29.36748
X-1.82880 Y29.39288
X-1.85420 Y29.39288
X-1.85420 Y29.41828
X-1.87960 Y29.41828
X-1.87960 Y29.44368
X-1.93040 Y29.44368
X-1.93040 Y29.46908
X-1.95580 Y29.46908
X-1.95580 Y29.49448
X-1.98120 Y29.49448
X-1.98120 Y29.51988
X-2.03200 Y29.51988
X-2.03200 Y29.54528
X-2.05740 Y29.54528
X-2.05740 Y29.57068
X-2.13360 Y29.57068
X-2.13360 Y29.59608
X-2.18440 Y29.59608
X-2.18440 Y29.62148
X-2.23520 Y29.62148
X-2.23520 Y29.64688
X-2.33680 Y29.64688
X-2.33680 Y29.67228
X-2.43840 Y29.67228
X-2.43840 Y29.69768
X-5.66420 Y29.69768
X-5.66420 Y29.67228
X-5.76580 Y29.67228
X-5.76580 Y29.64688
X-5.86740 Y29.64688
X-5.86740 Y29.62148
X-5.91820 Y29.62148
X-5.91820 Y29.59608
X-5.96900 Y29.59608
X-5.96900 Y29.57068
X-6.04520 Y29.57068
X-6.04520 Y29.54528
X-6.07060 Y29.54528
X-6.07060 Y29.51988
X-6.12140 Y29.51988
X-6.12140 Y29.49448
X-6.14680 Y29.49448
X-6.14680 Y29.46908
X-6.17220 Y29.46908
X-6.17220 Y29.44368
X-6.22300 Y29.44368
X-6.22300 Y29.41828
X-6.24840 Y29.41828
X-6.24840 Y29.39288
X-6.27380 Y29.39288
X-6.27380 Y29.36748
X-6.29920 Y29.36748
X-6.29920 Y29.31668
X-6.32460 Y29.31668
X-6.32460 Y29.29128
G04 P0 ( dwell for no time -- G64 should not smooth over this point )
G00 Z5.00000 ( retract )

G00 X-19.02460 Y29.29128 ( rapid move to begin. )
G01 Z0.00000
G04 P0 ( dwell for no time -- G64 should not smooth over this point )
X-19.02460 Y29.29128
X-19.05000 Y29.29128
X-19.05000 Y29.26588
X-19.07540 Y29.26588
X-19.07540 Y29.24048
X-19.10080 Y29.24048
X-19.10080 Y29.18968
X-19.12620 Y29.18968
X-19.12620 Y29.13888
X-19.15160 Y29.13888
X-19.15160 Y29.11348
X-19.17700 Y29.11348
X-19.17700 Y29.06268
X-19.20240 Y29.06268
X-19.20240 Y28.98648
X-19.22780 Y28.98648
X-19.22780 Y28.91028
X-19.25320 Y28.91028
X-19.25320 Y28.75788
X-19.27860 Y28.75788
X-19.27860 Y27.71648
X-19.25320 Y27.71648
X-19.25320 Y27.56408
X-19.22780 Y27.56408
X-19.22780 Y27.48788
X-19.20240 Y27.48788
X-19.20240 Y27.41168
X-19.17700 Y27.41168
X-19.17700 Y27.36088
X-19.15160 Y27.36088
X-19.15160 Y27.33548
X-19.12620 Y27.33548
X-19.12620 Y27.28468
X-19.10080 Y27.28468
X-19.10080 Y27.23388
X-19.07540 Y27.23388
X-19.07540 Y27.20848
X-19.05000 Y27.20848
X-19.05000 Y27.18308
X-19.02460 Y27.18308
X-19.02460 Y27.15768
X-18.99920 Y27.15768
X-18.99920 Y27.10688
X-18.97380 Y27.10688
X-18.97380 Y27.08148
X-18.94840 Y27.08148
X-18.94840 Y27.05608
X-18.92300 Y27.05608
X-18.92300 Y27.03068
X-18.87220 Y27.03068
X-18.87220 Y27.00528
X-18.84680 Y27.00528
X-18.84680 Y26.97988
X-18.82140 Y26.97988
X-18.82140 Y26.95448
X-18.77060 Y26.95448
X-18.77060 Y26.92908
X-18.74520 Y26.92908
X-18.74520 Y26.90368
X-18.66900 Y26.90368
X-18.66900 Y26.87828
X-18.61820 Y26.87828
X-18.61820 Y26.85288
X-18.56740 Y26.85288
X-18.56740 Y26.82748
X-18.46580 Y26.82748
X-18.46580 Y26.80208
X-18.36420 Y26.80208
X-18.36420 Y26.77668
X-15.13840 Y26.77668
X-15.13840 Y26.80208
X-15.03680 Y26.80208
X-15.03680 Y26.82748
X-14.93520 Y26.82748
X-14.93520 Y26.85288
X-14.88440 Y26.85288
X-14.88440 Y26.87828
X-14.83360 Y26.87828
X-14.83360 Y26.90368
X-14.75740 Y26.90368
X-14.75740 Y26.92908
X-14.73200 Y26.92908
X-14.73200 Y26.95448
X-14.68120 Y26.95448
X-14.68120 Y26.97988
X-14.65580 Y26.97988
X-14.65580 Y27.00528
X-14.63040 Y27.00528
X-14.63040 Y27.03068
X-14.57960 Y27.03068
X-14.57960 Y27.05608
X-14.55420 Y27.05608
X-14.55420 Y27.08148
X-14.52880 Y27.08148
X-14.52880 Y27.10688
X-14.50340 Y27.10688
X-14.50340 Y27.15768
X-14.47800 Y27.15768
X-14.47800 Y27.18308
X-14.45260 Y27.18308
X-14.45260 Y27.20848
X-14.42720 Y27.20848
X-14.42720 Y27.23388
X-14.40180 Y27.23388
X-14.40180 Y27.28468
X-14.37640 Y27.28468
X-14.37640 Y27.33548
X-14.35100 Y27.33548
X-14.35100 Y27.36088
X-14.32560 Y27.36088
X-14.32560 Y27.41168
X-14.30020 Y27.41168
X-14.30020 Y27.48788
X-14.27480 Y27.48788
X-14.27480 Y27.56408
X-14.24940 Y27.56408
X-14.24940 Y27.71648
X-14.22400 Y27.71648
X-14.22400 Y28.75788
X-14.24940 Y28.75788
X-14.24940 Y28.91028
X-14.27480 Y28.91028
X-14.27480 Y28.98648
X-14.30020 Y28.98648
X-14.30020 Y29.06268
X-14.32560 Y29.06268
X-14.32560 Y29.11348
X-14.35100 Y29.11348
X-14.35100 Y29.13888
X-14.37640 Y29.13888
X-14.37640 Y29.18968
X-14.40180 Y29.18968
X-14.40180 Y29.24048
X-14.42720 Y29.24048
X-14.42720 Y29.26588
X-14.45260 Y29.26588
X-14.45260 Y29.29128
X-14.47800 Y29.29128
X-14.47800 Y29.31668
X-14.50340 Y29.31668
X-14.50340 Y29.36748
X-14.52880 Y29.36748
X-14.52880 Y29.39288
X-14.55420 Y29.39288
X-14.55420 Y29.41828
X-14.57960 Y29.41828
X-14.57960 Y29.44368
X-14.63040 Y29.44368
X-14.63040 Y29.46908
X-14.65580 Y29.46908
X-14.65580 Y29.49448
X-14.68120 Y29.49448
X-14.68120 Y29.51988
X-14.73200 Y29.51988
X-14.73200 Y29.54528
X-14.75740 Y29.54528
X-14.75740 Y29.57068
X-14.83360 Y29.57068
X-14.83360 Y29.59608
X-14.88440 Y29.59608
X-14.88440 Y29.62148
X-14.93520 Y29.62148
X-14.93520 Y29.64688
X-15.03680 Y29.64688
X-15.03680 Y29.67228
X-15.13840 Y29.67228
X-15.13840 Y29.69768
X-18.36420 Y29.69768
X-18.36420 Y29.67228
X-18.46580 Y29.67228
X-18.46580 Y29.64688
X-18.56740 Y29.64688
X-18.56740 Y29.62148
X-18.61820 Y29.62148
X-18.61820 Y29.59608
X-18.66900 Y29.59608
X-18.66900 Y29.57068
X-18.74520 Y29.57068
X-18.74520 Y29.54528
X-18.77060 Y29.54528
X-18.77060 Y29.51988
X-18.82140 Y29.51988
X-18.82140 Y29.49448
X-18.84680 Y29.49448
X-18.84680 Y29.46908
X-18.87220 Y29.46908
X-18.87220 Y29.44368
X-18.92300 Y29.44368
X-18.92300 Y29.41828
X-18.94840 Y29.41828
X-18.94840 Y29.39288
X-18.97380 Y29.39288
X-18.97380 Y29.36748
X-18.99920 Y29.36748
X-18.99920 Y29.31668
X-19.02460 Y29.31668
X-19.02460 Y29.29128
G04 P0 ( dwell for no time -- G64 should not smooth over this point )
G00 Z5.00000 ( retract )

G00 X-26.79700 Y29.13888 ( rapid move to begin. )
G01 Z0.00000
G04 P0 ( dwell for no time -- G64 should not smooth over this point )
X-26.79700 Y29.13888
X-26.82240 Y29.13888
X-26.82240 Y29.11348
X-26.84780 Y29.11348
X-26.84780 Y29.08808
X-26.87320 Y29.08808
X-26.87320 Y29.06268
X-26.89860 Y29.06268
X-26.89860 Y29.03728
X-26.92400 Y29.03728
X-26.92400 Y29.01188
X-26.94940 Y29.01188
X-26.94940 Y27.46248
X-26.92400 Y27.46248
X-26.92400 Y27.43708
X-26.89860 Y27.43708
X-26.89860 Y27.41168
X-26.87320 Y27.41168
X-26.87320 Y27.38628
X-26.84780 Y27.38628
X-26.84780 Y27.36088
X-26.82240 Y27.36088
X-26.82240 Y27.33548
X-26.79700 Y27.33548
X-26.79700 Y27.31008
X-26.77160 Y27.31008
X-26.77160 Y27.28468
X-26.74620 Y27.28468
X-26.74620 Y27.25928
X-26.72080 Y27.25928
X-26.72080 Y27.23388
X-26.69540 Y27.23388
X-26.69540 Y27.20848
X-26.67000 Y27.20848
X-26.67000 Y27.18308
X-26.64460 Y27.18308
X-26.64460 Y27.15768
X-26.61920 Y27.15768
X-26.61920 Y27.13228
X-26.59380 Y27.13228
X-26.59380 Y27.10688
X-26.56840 Y27.10688
X-26.56840 Y27.08148
X-26.54300 Y27.08148
X-26.54300 Y27.05608
X-26.51760 Y27.05608
X-26.51760 Y27.03068
X-26.49220 Y27.03068
X-26.49220 Y27.00528
X-26.46680 Y27.00528
X-26.46680 Y26.97988
X-26.44140 Y26.97988
X-26.44140 Y26.95448
X-26.41600 Y26.95448
X-26.41600 Y26.92908
X-24.86660 Y26.92908
X-24.86660 Y26.95448
X-24.84120 Y26.95448
X-24.84120 Y26.97988
X-24.81580 Y26.97988
X-24.81580 Y27.00528
X-24.79040 Y27.00528
X-24.79040 Y27.03068
X-24.76500 Y27.03068
X-24.76500 Y27.05608
X-24.73960 Y27.05608
X-24.73960 Y27.08148
X-24.71420 Y27.08148
X-24.71420 Y27.10688
X-24.68880 Y27.10688
X-24.68880 Y27.13228
X-24.66340 Y27.13228
X-24.66340 Y27.15768
X-24.63800 Y27.15768
X-24.63800 Y27.18308
X-24.61260 Y27.18308
X-24.61260 Y27.20848
X-24.58720 Y27.20848
X-24.58720 Y27.23388
X-24.56180 Y27.23388
X-24.56180 Y27.25928
X-24.53640 Y27.25928
X-24.53640 Y27.28468
X-24.51100 Y27.28468
X-24.51100 Y27.31008
X-24.48560 Y27.31008
X-24.48560 Y27.33548
X-24.46020 Y27.33548
X-24.46020 Y27.36088
X-24.43480 Y27.36088
X-24.43480 Y27.38628
X-24.40940 Y27.38628
X-24.40940 Y27.41168
X-24.38400 Y27.41168
X-24.38400 Y27.43708
X-24.35860 Y27.43708
X-24.35860 Y27.46248
X-24.33320 Y27.46248
X-24.33320 Y29.01188
X-24.35860 Y29.01188
X-24.35860 Y29.03728
X-24.38400 Y29.03728
X-24.38400 Y29.06268
X-24.40940 Y29.06268
X-24.40940 Y29.08808
X-24.43480 Y29.08808
X-24.43480 Y29.11348
X-24.46020 Y29.11348
X-24.46020 Y29.13888
X-24.48560 Y29.13888
X-24.48560 Y29.16428
X-24.51100 Y29.16428
X-24.51100 Y29.18968
X-24.53640 Y29.18968
X-24.53640 Y29.21508
X-24.56180 Y29.21508
X-24.56180 Y29.24048
X-24.58720 Y29.24048
X-24.58720 Y29.26588
X-24.61260 Y29.26588
X-24.61260 Y29.29128
X-24.63800 Y29.29128
X-24.63800 Y29.31668
X-24.66340 Y29.31668
X-24.66340 Y29.34208
X-24.68880 Y29.34208
X-24.68880 Y29.36748
X-24.71420 Y29.36748
X-24.71420 Y29.39288
X-24.73960 Y29.39288
X-24.73960 Y29.41828
X-24.76500 Y29.41828
X-24.76500 Y29.44368
X-24.79040 Y29.44368
X-24.79040 Y29.46908
X-24.81580 Y29.46908
X-24.81580 Y29.49448
X-24.84120 Y29.49448
X-24.84120 Y29.51988
X-24.86660 Y29.51988
X-24.86660 Y29.54528
X-26.41600 Y29.54528
X-26.41600 Y29.51988
X-26.44140 Y29.51988
X-26.44140 Y29.49448
X-26.46680 Y29.49448
X-26.46680 Y29.46908
X-26.49220 Y29.46908
X-26.49220 Y29.44368
X-26.51760 Y29.44368
X-26.51760 Y29.41828
X-26.54300 Y29.41828
X-26.54300 Y29.39288
X-26.56840 Y29.39288
X-26.56840 Y29.36748
X-26.59380 Y29.36748
X-26.59380 Y29.34208
X-26.61920 Y29.34208
X-26.61920 Y29.31668
X-26.64460 Y29.31668
X-26.64460 Y29.29128
X-26.67000 Y29.29128
X-26.67000 Y29.26588
X-26.69540 Y29.26588
X-26.69540 Y29.24048
X-26.72080 Y29.24048
X-26.72080 Y29.21508
X-26.74620 Y29.21508
X-26.74620 Y29.18968
X-26.77160 Y29.18968
X-26.77160 Y29.16428
X-26.79700 Y29.16428
X-26.79700 Y29.13888
G04 P0 ( dwell for no time -- G64 should not smooth over this point )
G00 Z5.00000 ( retract )

G00 X-36.95700 Y29.13888 ( rapid move to begin. )
G01 Z0.00000
G04 P0 ( dwell for no time -- G64 should not smooth over this point )
X-36.95700 Y29.13888
X-36.98240 Y29.13888
X-36.98240 Y29.11348
X-37.00780 Y29.11348
X-37.00780 Y29.08808
X-37.03320 Y29.08808
X-37.03320 Y29.06268
X-37.05860 Y29.06268
X-37.05860 Y29.03728
X-37.08400 Y29.03728
X-37.08400 Y29.01188
X-37.10940 Y29.01188
X-37.10940 Y27.46248
X-37.08400 Y27.46248
X-37.08400 Y27.43708
X-37.05860 Y27.43708
X-37.05860 Y27.41168
X-37.03320 Y27.41168
X-37.03320 Y27.38628
X-37.00780 Y27.38628
X-37.00780 Y27.36088
X-36.98240 Y27.36088
X-36.98240 Y27.33548
X-36.95700 Y27.33548
X-36.95700 Y27.31008
X-36.93160 Y27.31008
X-36.93160 Y27.28468
X-36.90620 Y27.28468
X-36.90620 Y27.25928
X-36.88080 Y27.25928
X-36.88080 Y27.23388
X-36.85540 Y27.23388
X-36.85540 Y27.20848
X-36.83000 Y27.20848
X-36.83000 Y27.18308
X-36.80460 Y27.18308
X-36.80460 Y27.15768
X-36.77920 Y27.15768
X-36.77920 Y27.13228
X-36.75380 Y27.13228
X-36.75380 Y27.10688
X-36.72840 Y27.10688
X-36.72840 Y27.08148
X-36.70300 Y27.08148
X-36.70300 Y27.05608
X-36.67760 Y27.05608
X-36.67760 Y27.03068
X-36.65220 Y27.03068
X-36.65220 Y27.00528
X-36.62680 Y27.00528
X-36.62680 Y26.97988
X-36.60140 Y26.97988
X-36.60140 Y26.95448
X-36.57600 Y26.95448
X-36.57600 Y26.92908
X-35.02660 Y26.92908
X-35.02660 Y26.95448
X-35.00120 Y26.95448
X-35.00120 Y26.97988
X-34.97580 Y26.97988
X-34.97580 Y27.00528
X-34.95040 Y27.00528
X-34.95040 Y27.03068
X-34.92500 Y27.03068
X-34.92500 Y27.05608
X-34.89960 Y27.05608
X-34.89960 Y27.08148
X-34.87420 Y27.08148
X-34.87420 Y27.10688
X-34.84880 Y27.10688
X-34.84880 Y27.13228
X-34.82340 Y27.13228
X-34.82340 Y27.15768
X-34.79800 Y27.15768
X-34.79800 Y27.18308
X-34.77260 Y27.18308
X-34.77260 Y27.20848
X-34.74720 Y27.20848
X-34.74720 Y27.23388
X-34.72180 Y27.23388
X-34.72180 Y27.25928
X-34.69640 Y27.25928
X-34.69640 Y27.28468
X-34.67100 Y27.28468
X-34.67100 Y27.31008
X-34.64560 Y27.31008
X-34.64560 Y27.33548
X-34.62020 Y27.33548
X-34.62020 Y27.36088
X-34.59480 Y27.36088
X-34.59480 Y27.38628
X-34.56940 Y27.38628
X-34.56940 Y27.41168
X-34.54400 Y27.41168
X-34.54400 Y27.43708
X-34.51860 Y27.43708
X-34.51860 Y27.46248
X-34.49320 Y27.46248
X-34.49320 Y29.01188
X-34.51860 Y29.01188
X-34.51860 Y29.03728
X-34.54400 Y29.03728
X-34.54400 Y29.06268
X-34.56940 Y29.06268
X-34.56940 Y29.08808
X-34.59480 Y29.08808
X-34.59480 Y29.11348
X-34.62020 Y29.11348
X-34.62020 Y29.13888
X-34.64560 Y29.13888
X-34.64560 Y29.16428
X-34.67100 Y29.16428
X-34.67100 Y29.18968
X-34.69640 Y29.18968
X-34.69640 Y29.21508
X-34.72180 Y29.21508
X-34.72180 Y29.24048
X-34.74720 Y29.24048
X-34.74720 Y29.26588
X-34.77260 Y29.26588
X-34.77260 Y29.29128
X-34.79800 Y29.29128
X-34.79800 Y29.31668
X-34.82340 Y29.31668
X-34.82340 Y29.34208
X-34.84880 Y29.34208
X-34.84880 Y29.36748
X-34.87420 Y29.36748
X-34.87420 Y29.39288
X-34.89960 Y29.39288
X-34.89960 Y29.41828
X-34.92500 Y29.41828
X-34.92500 Y29.44368
X-34.95040 Y29.44368
X-34.95040 Y29.46908
X-34.97580 Y29.46908
X-34.97580 Y29.49448
X-35.00120 Y29.49448
X-35.00120 Y29.51988
X-35.02660 Y29.51988
X-35.02660 Y29.54528
X-36.57600 Y29.54528
X-36.57600 Y29.51988
X-36.60140 Y29.51988
X-36.60140 Y29.49448
X-36.62680 Y29.49448
X-36.62680 Y29.46908
X-36.65220 Y29.46908
X-36.65220 Y29.44368
X-36.67760 Y29.44368
X-36.67760 Y29.41828
X-36.70300 Y29.41828
X-36.70300 Y29.39288
X-36.72840 Y29.39288
X-36.72840 Y29.36748
X-36.75380 Y29.36748
X-36.75380 Y29.34208
X-36.77920 Y29.34208
X-36.77920 Y29.31668
X-36.80460 Y29.31668
X-36.80460 Y29.29128
X-36.83000 Y29.29128
X-36.83000 Y29.26588
X-36.85540 Y29.26588
X-36.85540 Y29.24048
X-36.88080 Y29.24048
X-36.88080 Y29.21508
X-36.90620 Y29.21508
X-36.90620 Y29.18968
X-36.93160 Y29.18968
X-36.93160 Y29.16428
X-36.95700 Y29.16428
X-36.95700 Y29.13888
G04 P0 ( dwell for no time -- G64 should not smooth over this point )
G00 Z5.00000 ( retract )

G00 X-38.20160 Y25.88768 ( rapid move to begin. )
G01 Z0.00000
G04 P0 ( dwell for no time -- G64 should not smooth over this point )
X-38.20160 Y25.88768
X-38.22700 Y25.88768
X-38.22700 Y25.86228
X-38.25240 Y25.86228
X-38.25240 Y25.81148
X-38.27780 Y25.81148
X-38.27780 Y25.76068
X-38.30320 Y25.76068
X-38.30320 Y25.70988
X-38.32860 Y25.70988
X-38.32860 Y25.63368
X-38.35400 Y25.63368
X-38.35400 Y22.50948
X-38.32860 Y22.50948
X-38.32860 Y22.43328
X-38.30320 Y22.43328
X-38.30320 Y22.38248
X-38.27780 Y22.38248
X-38.27780 Y22.33168
X-38.25240 Y22.33168
X-38.25240 Y22.28088
X-38.22700 Y22.28088
X-38.22700 Y22.25548
X-38.20160 Y22.25548
X-38.20160 Y22.20468
X-38.17620 Y22.20468
X-38.17620 Y22.17928
X-38.15080 Y22.17928
X-38.15080 Y22.15388
X-38.12540 Y22.15388
X-38.12540 Y22.12848
X-38.10000 Y22.12848
X-38.10000 Y22.10308
X-38.07460 Y22.10308
X-38.07460 Y22.07768
X-38.04920 Y22.07768
X-38.04920 Y22.05228
X-38.02380 Y22.05228
X-38.02380 Y22.02688
X-37.97300 Y22.02688
X-37.97300 Y22.00148
X-37.94760 Y22.00148
X-37.94760 Y21.97608
X-37.89680 Y21.97608
X-37.89680 Y21.95068
X-37.84600 Y21.95068
X-37.84600 Y21.92528
X-37.79520 Y21.92528
X-37.79520 Y21.89988
X-37.71900 Y21.89988
X-37.71900 Y21.87448
X-37.56660 Y21.87448
X-37.56660 Y21.84908
X-36.57600 Y21.84908
X-36.57600 Y21.87448
X-36.42360 Y21.87448
X-36.42360 Y21.89988
X-36.34740 Y21.89988
X-36.34740 Y21.92528
X-36.29660 Y21.92528
X-36.29660 Y21.95068
X-36.24580 Y21.95068
X-36.24580 Y21.97608
X-36.19500 Y21.97608
X-36.19500 Y22.00148
X-36.16960 Y22.00148
X-36.16960 Y22.02688
X-36.11880 Y22.02688
X-36.11880 Y22.05228
X-36.09340 Y22.05228
X-36.09340 Y22.07768
X-36.06800 Y22.07768
X-36.06800 Y22.10308
X-36.04260 Y22.10308
X-36.04260 Y22.12848
X-36.01720 Y22.12848
X-36.01720 Y22.15388
X-35.99180 Y22.15388
X-35.99180 Y22.17928
X-35.96640 Y22.17928
X-35.96640 Y22.20468
X-35.94100 Y22.20468
X-35.94100 Y22.25548
X-35.91560 Y22.25548
X-35.91560 Y22.28088
X-35.89020 Y22.28088
X-35.89020 Y22.33168
X-35.86480 Y22.33168
X-35.86480 Y22.38248
X-35.83940 Y22.38248
X-35.83940 Y22.43328
X-35.81400 Y22.43328
X-35.81400 Y22.50948
X-35.78860 Y22.50948
X-35.78860 Y22.66188
X-35.76320 Y22.66188
X-35.76320 Y25.48128
X-35.78860 Y25.48128
X-35.78860 Y25.63368
X-35.81400 Y25.63368
X-35.81400 Y25.70988
X-35.83940 Y25.70988
X-35.83940 Y25.76068
X-35.86480 Y25.76068
X-35.86480 Y25.81148
X-35.89020 Y25.81148
X-35.89020 Y25.86228
X-35.91560 Y25.86228
X-35.91560 Y25.88768
X-35.94100 Y25.88768
X-35.94100 Y25.93848
X-35.96640 Y25.93848
X-35.96640 Y25.96388
X-35.99180 Y25.96388
X-35.99180 Y25.98928
X-36.01720 Y25.98928
X-36.01720 Y26.01468
X-36.04260 Y26.01468
X-36.04260 Y26.04008
X-36.06800 Y26.04008
X-36.06800 Y26.06548
X-36.09340 Y26.06548
X-36.09340 Y26.09088
X-36.11880 Y26.09088
X-36.11880 Y26.11628
X-36.16960 Y26.11628
X-36.16960 Y26.14168
X-36.19500 Y26.14168
X-36.19500 Y26.16708
X-36.24580 Y26.16708
X-36.24580 Y26.19248
X-36.29660 Y26.19248
X-36.29660 Y26.21788
X-36.34740 Y26.21788
X-36.34740 Y26.24328
X-36.42360 Y26.24328
X-36.42360 Y26.26868
X-36.57600 Y26.26868
X-36.57600 Y26.29408
X-37.56660 Y26.29408
X-37.56660 Y26.26868
X-37.71900 Y26.26868
X-37.71900 Y26.24328
X-37.79520 Y26.24328
X-37.79520 Y26.21788
X-37.84600 Y26.21788
X-37.84600 Y26.19248
X-37.89680 Y26.19248
X-37.89680 Y26.16708
X-37.94760 Y26.16708
X-37.94760 Y26.14168
X-37.97300 Y26.14168
X-37.97300 Y26.11628
X-38.02380 Y26.11628
X-38.02380 Y26.09088
X-38.04920 Y26.09088
X-38.04920 Y26.06548
X-38.07460 Y26.06548
X-38.07460 Y26.04008
X-38.10000 Y26.04008
X-38.10000 Y26.01468
X-38.12540 Y26.01468
X-38.12540 Y25.98928
X-38.15080 Y25.98928
X-38.15080 Y25.96388
X-38.17620 Y25.96388
X-38.17620 Y25.93848
X-38.20160 Y25.93848
X-38.20160 Y25.88768
G04 P0 ( dwell for no time -- G64 should not smooth over this point )
G00 Z5.00000 ( retract )

G00 X-40.74160 Y25.88768 ( rapid move to begin. )
G01 Z0.00000
G04 P0 ( dwell for no time -- G64 should not smooth over this point )
X-40.74160 Y25.88768
X-40.76700 Y25.88768
X-40.76700 Y25.86228
X-40.79240 Y25.86228
X-40.79240 Y25.81148
X-40.81780 Y25.81148
X-40.81780 Y25.76068
X-40.84320 Y25.76068
X-40.84320 Y25.70988
X-40.86860 Y25.70988
X-40.86860 Y25.63368
X-40.89400 Y25.63368
X-40.89400 Y22.50948
X-40.86860 Y22.50948
X-40.86860 Y22.43328
X-40.84320 Y22.43328
X-40.84320 Y22.38248
X-40.81780 Y22.38248
X-40.81780 Y22.33168
X-40.79240 Y22.33168
X-40.79240 Y22.28088
X-40.76700 Y22.28088
X-40.76700 Y22.25548
X-40.74160 Y22.25548
X-40.74160 Y22.20468
X-40.71620 Y22.20468
X-40.71620 Y22.17928
X-40.69080 Y22.17928
X-40.69080 Y22.15388
X-40.66540 Y22.15388
X-40.66540 Y22.12848
X-40.64000 Y22.12848
X-40.64000 Y22.10308
X-40.61460 Y22.10308
X-40.61460 Y22.07768
X-40.58920 Y22.07768
X-40.58920 Y22.05228
X-40.56380 Y22.05228
X-40.56380 Y22.02688
X-40.51300 Y22.02688
X-40.51300 Y22.00148
X-40.48760 Y22.00148
X-40.48760 Y21.97608
X-40.43680 Y21.97608
X-40.43680 Y21.95068
X-40.38600 Y21.95068
X-40.38600 Y21.92528
X-40.33520 Y21.92528
X-40.33520 Y21.89988
X-40.25900 Y21.89988
X-40.25900 Y21.87448
X-40.10660 Y21.87448
X-40.10660 Y21.84908
X-39.11600 Y21.84908
X-39.11600 Y21.87448
X-38.96360 Y21.87448
X-38.96360 Y21.89988
X-38.88740 Y21.89988
X-38.88740 Y21.92528
X-38.83660 Y21.92528
X-38.83660 Y21.95068
X-38.78580 Y21.95068
X-38.78580 Y21.97608
X-38.73500 Y21.97608
X-38.73500 Y22.00148
X-38.70960 Y22.00148
X-38.70960 Y22.02688
X-38.65880 Y22.02688
X-38.65880 Y22.05228
X-38.63340 Y22.05228
X-38.63340 Y22.07768
X-38.60800 Y22.07768
X-38.60800 Y22.10308
X-38.58260 Y22.10308
X-38.58260 Y22.12848
X-38.55720 Y22.12848
X-38.55720 Y22.15388
X-38.53180 Y22.15388
X-38.53180 Y22.17928
X-38.50640 Y22.17928
X-38.50640 Y22.20468
X-38.48100 Y22.20468
X-38.48100 Y22.25548
X-38.45560 Y22.25548
X-38.45560 Y22.28088
X-38.43020 Y22.28088
X-38.43020 Y22.33168
X-38.40480 Y22.33168
X-38.40480 Y22.38248
X-38.37940 Y22.38248
X-38.37940 Y22.43328
X-38.35400 Y22.43328
X-38.35400 Y25.70988
X-38.37940 Y25.70988
X-38.37940 Y25.76068
X-38.40480 Y25.76068
X-38.40480 Y25.81148
X-38.43020 Y25.81148
X-38.43020 Y25.86228
X-38.45560 Y25.86228
X-38.45560 Y25.88768
X-38.48100 Y25.88768
X-38.48100 Y25.93848
X-38.50640 Y25.93848
X-38.50640 Y25.96388
X-38.53180 Y25.96388
X-38.53180 Y25.98928
X-38.55720 Y25.98928
X-38.55720 Y26.01468
X-38.58260 Y26.01468
X-38.58260 Y26.04008
X-38.60800 Y26.04008
X-38.60800 Y26.06548
X-38.63340 Y26.06548
X-38.63340 Y26.09088
X-38.65880 Y26.09088
X-38.65880 Y26.11628
X-38.70960 Y26.11628
X-38.70960 Y26.14168
X-38.73500 Y26.14168
X-38.73500 Y26.16708
X-38.78580 Y26.16708
X-38.78580 Y26.19248
X-38.83660 Y26.19248
X-38.83660 Y26.21788
X-38.88740 Y26.21788
X-38.88740 Y26.24328
X-38.96360 Y26.24328
X-38.96360 Y26.26868
X-39.11600 Y26.26868
X-39.11600 Y26.29408
X-40.10660 Y26.29408
X-40.10660 Y26.26868
X-40.25900 Y26.26868
X-40.25900 Y26.24328
X-40.33520 Y26.24328
X-40.33520 Y26.21788
X-40.38600 Y26.21788
X-40.38600 Y26.19248
X-40.43680 Y26.19248
X-40.43680 Y26.16708
X-40.48760 Y26.16708
X-40.48760 Y26.14168
X-40.51300 Y26.14168
X-40.51300 Y26.11628
X-40.56380 Y26.11628
X-40.56380 Y26.09088
X-40.58920 Y26.09088
X-40.58920 Y26.06548
X-40.61460 Y26.06548
X-40.61460 Y26.04008
X-40.64000 Y26.04008
X-40.64000 Y26.01468
X-40.66540 Y26.01468
X-40.66540 Y25.98928
X-40.69080 Y25.98928
X-40.69080 Y25.96388
X-40.71620 Y25.96388
X-40.71620 Y25.93848
X-40.74160 Y25.93848
X-40.74160 Y25.88768
G04 P0 ( dwell for no time -- G64 should not smooth over this point )
G00 Z5.00000 ( retract )

G00 X-43.28160 Y25.88768 ( rapid move to begin. )
G01 Z0.00000
G04 P0 ( dwell for no time -- G64 should not smooth over this point )
X-43.28160 Y25.88768
X-43.30700 Y25.88768
X-43.30700 Y25.86228
X-43.33240 Y25.86228
X-43.33240 Y25.81148
X-43.35780 Y25.81148
X-43.35780 Y25.76068
X-43.38320 Y25.76068
X-43.38320 Y25.70988
X-43.40860 Y25.70988
X-43.40860 Y25.63368
X-43.43400 Y25.63368
X-43.43400 Y25.48128
X-43.45940 Y25.48128
X-43.45940 Y22.66188
X-43.43400 Y22.66188
X-43.43400 Y22.50948
X-43.40860 Y22.50948
X-43.40860 Y22.43328
X-43.38320 Y22.43328
X-43.38320 Y22.38248
X-43.35780 Y22.38248
X-43.35780 Y22.33168
X-43.33240 Y22.33168
X-43.33240 Y22.28088
X-43.30700 Y22.28088
X-43.30700 Y22.25548
X-43.28160 Y22.25548
X-43.28160 Y22.20468
X-43.25620 Y22.20468
X-43.25620 Y22.17928
X-43.23080 Y22.17928
X-43.23080 Y22.15388
X-43.20540 Y22.15388
X-43.20540 Y22.12848
X-43.18000 Y22.12848
X-43.18000 Y22.10308
X-43.15460 Y22.10308
X-43.15460 Y22.07768
X-43.12920 Y22.07768
X-43.12920 Y22.05228
X-43.10380 Y22.05228
X-43.10380 Y22.02688
X-43.05300 Y22.02688
X-43.05300 Y22.00148
X-43.02760 Y22.00148
X-43.02760 Y21.97608
X-42.97680 Y21.97608
X-42.97680 Y21.95068
X-42.92600 Y21.95068
X-42.92600 Y21.92528
X-42.87520 Y21.92528
X-42.87520 Y21.89988
X-42.79900 Y21.89988
X-42.79900 Y21.87448
X-42.64660 Y21.87448
X-42.64660 Y21.84908
X-41.65600 Y21.84908
X-41.65600 Y21.87448
X-41.50360 Y21.87448
X-41.50360 Y21.89988
X-41.42740 Y21.89988
X-41.42740 Y21.92528
X-41.37660 Y21.92528
X-41.37660 Y21.95068
X-41.32580 Y21.95068
X-41.32580 Y21.97608
X-41.27500 Y21.97608
X-41.27500 Y22.00148
X-41.24960 Y22.00148
X-41.24960 Y22.02688
X-41.19880 Y22.02688
X-41.19880 Y22.05228
X-41.17340 Y22.05228
X-41.17340 Y22.07768
X-41.14800 Y22.07768
X-41.14800 Y22.10308
X-41.12260 Y22.10308
X-41.12260 Y22.12848
X-41.09720 Y22.12848
X-41.09720 Y22.15388
X-41.07180 Y22.15388
X-41.07180 Y22.17928
X-41.04640 Y22.17928
X-41.04640 Y22.20468
X-41.02100 Y22.20468
X-41.02100 Y22.25548
X-40.99560 Y22.25548
X-40.99560 Y22.28088
X-40.97020 Y22.28088
X-40.97020 Y22.33168
X-40.94480 Y22.33168
X-40.94480 Y22.38248
X-40.91940 Y22.38248
X-40.91940 Y22.43328
X-40.89400 Y22.43328
X-40.89400 Y25.70988
X-40.91940 Y25.70988
X-40.91940 Y25.76068
X-40.94480 Y25.76068
X-40.94480 Y25.81148
X-40.97020 Y25.81148
X-40.97020 Y25.86228
X-40.99560 Y25.86228
X-40.99560 Y25.88768
X-41.02100 Y25.88768
X-41.02100 Y25.93848
X-41.04640 Y25.93848
X-41.04640 Y25.96388
X-41.07180 Y25.96388
X-41.07180 Y25.98928
X-41.09720 Y25.98928
X-41.09720 Y26.01468
X-41.12260 Y26.01468
X-41.12260 Y26.04008
X-41.14800 Y26.04008
X-41.14800 Y26.06548
X-41.17340 Y26.06548
X-41.17340 Y26.09088
X-41.19880 Y26.09088
X-41.19880 Y26.11628
X-41.24960 Y26.11628
X-41.24960 Y26.14168
X-41.27500 Y26.14168
X-41.27500 Y26.16708
X-41.32580 Y26.16708
X-41.32580 Y26.19248
X-41.37660 Y26.19248
X-41.37660 Y26.21788
X-41.42740 Y26.21788
X-41.42740 Y26.24328
X-41.50360 Y26.24328
X-41.50360 Y26.26868
X-41.65600 Y26.26868
X-41.65600 Y26.29408
X-42.64660 Y26.29408
X-42.64660 Y26.26868
X-42.79900 Y26.26868
X-42.79900 Y26.24328
X-42.87520 Y26.24328
X-42.87520 Y26.21788
X-42.92600 Y26.21788
X-42.92600 Y26.19248
X-42.97680 Y26.19248
X-42.97680 Y26.16708
X-43.02760 Y26.16708
X-43.02760 Y26.14168
X-43.05300 Y26.14168
X-43.05300 Y26.11628
X-43.10380 Y26.11628
X-43.10380 Y26.09088
X-43.12920 Y26.09088
X-43.12920 Y26.06548
X-43.15460 Y26.06548
X-43.15460 Y26.04008
X-43.18000 Y26.04008
X-43.18000 Y26.01468
X-43.20540 Y26.01468
X-43.20540 Y25.98928
X-43.23080 Y25.98928
X-43.23080 Y25.96388
X-43.25620 Y25.96388
X-43.25620 Y25.93848
X-43.28160 Y25.93848
X-43.28160 Y25.88768
G04 P0 ( dwell for no time -- G64 should not smooth over this point )
G00 Z5.00000 ( retract )

G00 X-10.13460 Y24.21128 ( rapid move to begin. )
G01 Z0.00000
G04 P0 ( dwell for no time -- G64 should not smooth over this point )
X-10.13460 Y24.21128
X-10.16000 Y24.21128
X-10.16000 Y24.18588
X-10.18540 Y24.18588
X-10.18540 Y24.16048
X-10.21080 Y24.16048
X-10.21080 Y24.10968
X-10.23620 Y24.10968
X-10.23620 Y24.05888
X-10.26160 Y24.05888
X-10.26160 Y24.03348
X-10.28700 Y24.03348
X-10.28700 Y23.98268
X-10.31240 Y23.98268
X-10.31240 Y23.90648
X-10.33780 Y23.90648
X-10.33780 Y23.83028
X-10.36320 Y23.83028
X-10.36320 Y23.67788
X-10.38860 Y23.67788
X-10.38860 Y22.63648
X-10.36320 Y22.63648
X-10.36320 Y22.48408
X-10.33780 Y22.48408
X-10.33780 Y22.40788
X-10.31240 Y22.40788
X-10.31240 Y22.33168
X-10.28700 Y22.33168
X-10.28700 Y22.28088
X-10.26160 Y22.28088
X-10.26160 Y22.25548
X-10.23620 Y22.25548
X-10.23620 Y22.20468
X-10.21080 Y22.20468
X-10.21080 Y22.15388
X-10.18540 Y22.15388
X-10.18540 Y22.12848
X-10.16000 Y22.12848
X-10.16000 Y22.10308
X-10.13460 Y22.10308
X-10.13460 Y22.07768
X-10.10920 Y22.07768
X-10.10920 Y22.02688
X-10.08380 Y22.02688
X-10.08380 Y22.00148
X-10.05840 Y22.00148
X-10.05840 Y21.97608
X-10.03300 Y21.97608
X-10.03300 Y21.95068
X-9.98220 Y21.95068
X-9.98220 Y21.92528
X-9.95680 Y21.92528
X-9.95680 Y21.89988
X-9.93140 Y21.89988
X-9.93140 Y21.87448
X-9.88060 Y21.87448
X-9.88060 Y21.84908
X-9.85520 Y21.84908
X-9.85520 Y21.82368
X-9.77900 Y21.82368
X-9.77900 Y21.79828
X-9.72820 Y21.79828
X-9.72820 Y21.77288
X-9.67740 Y21.77288
X-9.67740 Y21.74748
X-9.57580 Y21.74748
X-9.57580 Y21.72208
X-9.47420 Y21.72208
X-9.47420 Y21.69668
X-6.24840 Y21.69668
X-6.24840 Y21.72208
X-6.14680 Y21.72208
X-6.14680 Y21.74748
X-6.04520 Y21.74748
X-6.04520 Y21.77288
X-5.99440 Y21.77288
X-5.99440 Y21.79828
X-5.94360 Y21.79828
X-5.94360 Y21.82368
X-5.86740 Y21.82368
X-5.86740 Y21.84908
X-5.84200 Y21.84908
X-5.84200 Y21.87448
X-5.79120 Y21.87448
X-5.79120 Y21.89988
X-5.76580 Y21.89988
X-5.76580 Y21.92528
X-5.74040 Y21.92528
X-5.74040 Y21.95068
X-5.68960 Y21.95068
X-5.68960 Y21.97608
X-5.66420 Y21.97608
X-5.66420 Y22.00148
X-5.63880 Y22.00148
X-5.63880 Y22.02688
X-5.61340 Y22.02688
X-5.61340 Y22.07768
X-5.58800 Y22.07768
X-5.58800 Y22.10308
X-5.56260 Y22.10308
X-5.56260 Y22.12848
X-5.53720 Y22.12848
X-5.53720 Y22.15388
X-5.51180 Y22.15388
X-5.51180 Y22.20468
X-5.48640 Y22.20468
X-5.48640 Y22.25548
X-5.46100 Y22.25548
X-5.46100 Y22.28088
X-5.43560 Y22.28088
X-5.43560 Y22.33168
X-5.41020 Y22.33168
X-5.41020 Y22.40788
X-5.38480 Y22.40788
X-5.38480 Y22.48408
X-5.35940 Y22.48408
X-5.35940 Y22.63648
X-5.33400 Y22.63648
X-5.33400 Y23.67788
X-5.35940 Y23.67788
X-5.35940 Y23.83028
X-5.38480 Y23.83028
X-5.38480 Y23.90648
X-5.41020 Y23.90648
X-5.41020 Y23.98268
X-5.43560 Y23.98268
X-5.43560 Y24.03348
X-5.46100 Y24.03348
X-5.46100 Y24.05888
X-5.48640 Y24.05888
X-5.48640 Y24.10968
X-5.51180 Y24.10968
X-5.51180 Y24.16048
X-5.53720 Y24.16048
X-5.53720 Y24.18588
X-5.56260 Y24.18588
X-5.56260 Y24.21128
X-5.58800 Y24.21128
X-5.58800 Y24.23668
X-5.61340 Y24.23668
X-5.61340 Y24.28748
X-5.63880 Y24.28748
X-5.63880 Y24.31288
X-5.66420 Y24.31288
X-5.66420 Y24.33828
X-5.68960 Y24.33828
X-5.68960 Y24.36368
X-5.74040 Y24.36368
X-5.74040 Y24.38908
X-5.76580 Y24.38908
X-5.76580 Y24.41448
X-5.79120 Y24.41448
X-5.79120 Y24.43988
X-5.84200 Y24.43988
X-5.84200 Y24.46528
X-5.86740 Y24.46528
X-5.86740 Y24.49068
X-5.94360 Y24.49068
X-5.94360 Y24.51608
X-5.99440 Y24.51608
X-5.99440 Y24.54148
X-6.04520 Y24.54148
X-6.04520 Y24.56688
X-6.14680 Y24.56688
X-6.14680 Y24.59228
X-6.24840 Y24.59228
X-6.24840 Y24.61768
X-9.47420 Y24.61768
X-9.47420 Y24.59228
X-9.57580 Y24.59228
X-9.57580 Y24.56688
X-9.67740 Y24.56688
X-9.67740 Y24.54148
X-9.72820 Y24.54148
X-9.72820 Y24.51608
X-9.77900 Y24.51608
X-9.77900 Y24.49068
X-9.85520 Y24.49068
X-9.85520 Y24.46528
X-9.88060 Y24.46528
X-9.88060 Y24.43988
X-9.93140 Y24.43988
X-9.93140 Y24.41448
X-9.95680 Y24.41448
X-9.95680 Y24.38908
X-9.98220 Y24.38908
X-9.98220 Y24.36368
X-10.03300 Y24.36368
X-10.03300 Y24.33828
X-10.05840 Y24.33828
X-10.05840 Y24.31288
X-10.08380 Y24.31288
X-10.08380 Y24.28748
X-10.10920 Y24.28748
X-10.10920 Y24.23668
X-10.13460 Y24.23668
X-10.13460 Y24.21128
G04 P0 ( dwell for no time -- G64 should not smooth over this point )
G00 Z5.00000 ( retract )

G00 X-22.83460 Y24.21128 ( rapid move to begin. )
G01 Z0.00000
G04 P0 ( dwell for no time -- G64 should not smooth over this point )
X-22.83460 Y24.21128
X-22.86000 Y24.21128
X-22.86000 Y24.18588
X-22.88540 Y24.18588
X-22.88540 Y24.16048
X-22.91080 Y24.16048
X-22.91080 Y24.10968
X-22.93620 Y24.10968
X-22.93620 Y24.05888
X-22.96160 Y24.05888
X-22.96160 Y24.03348
X-22.98700 Y24.03348
X-22.98700 Y23.98268
X-23.01240 Y23.98268
X-23.01240 Y23.90648
X-23.03780 Y23.90648
X-23.03780 Y23.83028
X-23.06320 Y23.83028
X-23.06320 Y23.67788
X-23.08860 Y23.67788
X-23.08860 Y22.63648
X-23.06320 Y22.63648
X-23.06320 Y22.48408
X-23.03780 Y22.48408
X-23.03780 Y22.40788
X-23.01240 Y22.40788
X-23.01240 Y22.33168
X-22.98700 Y22.33168
X-22.98700 Y22.28088
X-22.96160 Y22.28088
X-22.96160 Y22.25548
X-22.93620 Y22.25548
X-22.93620 Y22.20468
X-22.91080 Y22.20468
X-22.91080 Y22.15388
X-22.88540 Y22.15388
X-22.88540 Y22.12848
X-22.86000 Y22.12848
X-22.86000 Y22.10308
X-22.83460 Y22.10308
X-22.83460 Y22.07768
X-22.80920 Y22.07768
X-22.80920 Y22.02688
X-22.78380 Y22.02688
X-22.78380 Y22.00148
X-22.75840 Y22.00148
X-22.75840 Y21.97608
X-22.73300 Y21.97608
X-22.73300 Y21.95068
X-22.68220 Y21.95068
X-22.68220 Y21.92528
X-22.65680 Y21.92528
X-22.65680 Y21.89988
X-22.63140 Y21.89988
X-22.63140 Y21.87448
X-22.58060 Y21.87448
X-22.58060 Y21.84908
X-22.55520 Y21.84908
X-22.55520 Y21.82368
X-22.47900 Y21.82368
X-22.47900 Y21.79828
X-22.42820 Y21.79828
X-22.42820 Y21.77288
X-22.37740 Y21.77288
X-22.37740 Y21.74748
X-22.27580 Y21.74748
X-22.27580 Y21.72208
X-22.17420 Y21.72208
X-22.17420 Y21.69668
X-18.94840 Y21.69668
X-18.94840 Y21.72208
X-18.84680 Y21.72208
X-18.84680 Y21.74748
X-18.74520 Y21.74748
X-18.74520 Y21.77288
X-18.69440 Y21.77288
X-18.69440 Y21.79828
X-18.64360 Y21.79828
X-18.64360 Y21.82368
X-18.56740 Y21.82368
X-18.56740 Y21.84908
X-18.54200 Y21.84908
X-18.54200 Y21.87448
X-18.49120 Y21.87448
X-18.49120 Y21.89988
X-18.46580 Y21.89988
X-18.46580 Y21.92528
X-18.44040 Y21.92528
X-18.44040 Y21.95068
X-18.38960 Y21.95068
X-18.38960 Y21.97608
X-18.36420 Y21.97608
X-18.36420 Y22.00148
X-18.33880 Y22.00148
X-18.33880 Y22.02688
X-18.31340 Y22.02688
X-18.31340 Y22.07768
X-18.28800 Y22.07768
X-18.28800 Y22.10308
X-18.26260 Y22.10308
X-18.26260 Y22.12848
X-18.23720 Y22.12848
X-18.23720 Y22.15388
X-18.21180 Y22.15388
X-18.21180 Y22.20468
X-18.18640 Y22.20468
X-18.18640 Y22.25548
X-18.16100 Y22.25548
X-18.16100 Y22.28088
X-18.13560 Y22.28088
X-18.13560 Y22.33168
X-18.11020 Y22.33168
X-18.11020 Y22.40788
X-18.08480 Y22.40788
X-18.08480 Y22.48408
X-18.05940 Y22.48408
X-18.05940 Y22.63648
X-18.03400 Y22.63648
X-18.03400 Y23.67788
X-18.05940 Y23.67788
X-18.05940 Y23.83028
X-18.08480 Y23.83028
X-18.08480 Y23.90648
X-18.11020 Y23.90648
X-18.11020 Y23.98268
X-18.13560 Y23.98268
X-18.13560 Y24.03348
X-18.16100 Y24.03348
X-18.16100 Y24.05888
X-18.18640 Y24.05888
X-18.18640 Y24.10968
X-18.21180 Y24.10968
X-18.21180 Y24.16048
X-18.23720 Y24.16048
X-18.23720 Y24.18588
X-18.26260 Y24.18588
X-18.26260 Y24.21128
X-18.28800 Y24.21128
X-18.28800 Y24.23668
X-18.31340 Y24.23668
X-18.31340 Y24.28748
X-18.33880 Y24.28748
X-18.33880 Y24.31288
X-18.36420 Y24.31288
X-18.36420 Y24.33828
X-18.38960 Y24.33828
X-18.38960 Y24.36368
X-18.44040 Y24.36368
X-18.44040 Y24.38908
X-18.46580 Y24.38908
X-18.46580 Y24.41448
X-18.49120 Y24.41448
X-18.49120 Y24.43988
X-18.54200 Y24.43988
X-18.54200 Y24.46528
X-18.56740 Y24.46528
X-18.56740 Y24.49068
X-18.64360 Y24.49068
X-18.64360 Y24.51608
X-18.69440 Y24.51608
X-18.69440 Y24.54148
X-18.74520 Y24.54148
X-18.74520 Y24.56688
X-18.84680 Y24.56688
X-18.84680 Y24.59228
X-18.94840 Y24.59228
X-18.94840 Y24.61768
X-22.17420 Y24.61768
X-22.17420 Y24.59228
X-22.27580 Y24.59228
X-22.27580 Y24.56688
X-22.37740 Y24.56688
X-22.37740 Y24.54148
X-22.42820 Y24.54148
X-22.42820 Y24.51608
X-22.47900 Y24.51608
X-22.47900 Y24.49068
X-22.55520 Y24.49068
X-22.55520 Y24.46528
X-22.58060 Y24.46528
X-22.58060 Y24.43988
X-22.63140 Y24.43988
X-22.63140 Y24.41448
X-22.65680 Y24.41448
X-22.65680 Y24.38908
X-22.68220 Y24.38908
X-22.68220 Y24.36368
X-22.73300 Y24.36368
X-22.73300 Y24.33828
X-22.75840 Y24.33828
X-22.75840 Y24.31288
X-22.78380 Y24.31288
X-22.78380 Y24.28748
X-22.80920 Y24.28748
X-22.80920 Y24.23668
X-22.83460 Y24.23668
X-22.83460 Y24.21128
G04 P0 ( dwell for no time -- G64 should not smooth over this point )
G00 Z5.00000 ( retract )

G00 X-26.79700 Y24.05888 ( rapid move to begin. )
G01 Z0.00000
G04 P0 ( dwell for no time -- G64 should not smooth over this point )
X-26.79700 Y24.05888
X-26.82240 Y24.05888
X-26.82240 Y24.03348
X-26.84780 Y24.03348
X-26.84780 Y24.00808
X-26.87320 Y24.00808
X-26.87320 Y23.98268
X-26.89860 Y23.98268
X-26.89860 Y23.95728
X-26.92400 Y23.95728
X-26.92400 Y23.93188
X-26.94940 Y23.93188
X-26.94940 Y22.38248
X-26.92400 Y22.38248
X-26.92400 Y22.35708
X-26.89860 Y22.35708
X-26.89860 Y22.33168
X-26.87320 Y22.33168
X-26.87320 Y22.30628
X-26.84780 Y22.30628
X-26.84780 Y22.28088
X-26.82240 Y22.28088
X-26.82240 Y22.25548
X-26.79700 Y22.25548
X-26.79700 Y22.23008
X-26.77160 Y22.23008
X-26.77160 Y22.20468
X-26.74620 Y22.20468
X-26.74620 Y22.17928
X-26.72080 Y22.17928
X-26.72080 Y22.15388
X-26.69540 Y22.15388
X-26.69540 Y22.12848
X-26.67000 Y22.12848
X-26.67000 Y22.10308
X-26.64460 Y22.10308
X-26.64460 Y22.07768
X-26.61920 Y22.07768
X-26.61920 Y22.05228
X-26.59380 Y22.05228
X-26.59380 Y22.02688
X-26.56840 Y22.02688
X-26.56840 Y22.00148
X-26.54300 Y22.00148
X-26.54300 Y21.97608
X-26.51760 Y21.97608
X-26.51760 Y21.95068
X-26.49220 Y21.95068
X-26.49220 Y21.92528
X-26.46680 Y21.92528
X-26.46680 Y21.89988
X-26.44140 Y21.89988
X-26.44140 Y21.87448
X-26.41600 Y21.87448
X-26.41600 Y21.84908
X-24.86660 Y21.84908
X-24.86660 Y21.87448
X-24.84120 Y21.87448
X-24.84120 Y21.89988
X-24.81580 Y21.89988
X-24.81580 Y21.92528
X-24.79040 Y21.92528
X-24.79040 Y21.95068
X-24.76500 Y21.95068
X-24.76500 Y21.97608
X-24.73960 Y21.97608
X-24.73960 Y22.00148
X-24.71420 Y22.00148
X-24.71420 Y22.02688
X-24.68880 Y22.02688
X-24.68880 Y22.05228
X-24.66340 Y22.05228
X-24.66340 Y22.07768
X-24.63800 Y22.07768
X-24.63800 Y22.10308
X-24.61260 Y22.10308
X-24.61260 Y22.12848
X-24.58720 Y22.12848
X-24.58720 Y22.15388
X-24.56180 Y22.15388
X-24.56180 Y22.17928
X-24.53640 Y22.17928
X-24.53640 Y22.20468
X-24.51100 Y22.20468
X-24.51100 Y22.23008
X-24.48560 Y22.23008
X-24.48560 Y22.25548
X-24.46020 Y22.25548
X-24.46020 Y22.28088
X-24.43480 Y22.28088
X-24.43480 Y22.30628
X-24.40940 Y22.30628
X-24.40940 Y22.33168
X-24.38400 Y22.33168
X-24.38400 Y22.35708
X-24.35860 Y22.35708
X-24.35860 Y22.38248
X-24.33320 Y22.38248
X-24.33320 Y23.93188
X-24.35860 Y23.93188
X-24.35860 Y23.95728
X-24.38400 Y23.95728
X-24.38400 Y23.98268
X-24.40940 Y23.98268
X-24.40940 Y24.00808
X-24.43480 Y24.00808
X-24.43480 Y24.03348
X-24.46020 Y24.03348
X-24.46020 Y24.05888
X-24.48560 Y24.05888
X-24.48560 Y24.08428
X-24.51100 Y24.08428
X-24.51100 Y24.10968
X-24.53640 Y24.10968
X-24.53640 Y24.13508
X-24.56180 Y24.13508
X-24.56180 Y24.16048
X-24.58720 Y24.16048
X-24.58720 Y24.18588
X-24.61260 Y24.18588
X-24.61260 Y24.21128
X-24.63800 Y24.21128
X-24.63800 Y24.23668
X-24.66340 Y24.23668
X-24.66340 Y24.26208
X-24.68880 Y24.26208
X-24.68880 Y24.28748
X-24.71420 Y24.28748
X-24.71420 Y24.31288
X-24.73960 Y24.31288
X-24.73960 Y24.33828
X-24.76500 Y24.33828
X-24.76500 Y24.36368
X-24.79040 Y24.36368
X-24.79040 Y24.38908
X-24.81580 Y24.38908
X-24.81580 Y24.41448
X-24.84120 Y24.41448
X-24.84120 Y24.43988
X-24.86660 Y24.43988
X-24.86660 Y24.46528
X-26.41600 Y24.46528
X-26.41600 Y24.43988
X-26.44140 Y24.43988
X-26.44140 Y24.41448
X-26.46680 Y24.41448
X-26.46680 Y24.38908
X-26.49220 Y24.38908
X-26.49220 Y24.36368
X-26.51760 Y24.36368
X-26.51760 Y24.33828
X-26.54300 Y24.33828
X-26.54300 Y24.31288
X-26.56840 Y24.31288
X-26.56840 Y24.28748
X-26.59380 Y24.28748
X-26.59380 Y24.26208
X-26.61920 Y24.26208
X-26.61920 Y24.23668
X-26.64460 Y24.23668
X-26.64460 Y24.21128
X-26.67000 Y24.21128
X-26.67000 Y24.18588
X-26.69540 Y24.18588
X-26.69540 Y24.16048
X-26.72080 Y24.16048
X-26.72080 Y24.13508
X-26.74620 Y24.13508
X-26.74620 Y24.10968
X-26.77160 Y24.10968
X-26.77160 Y24.08428
X-26.79700 Y24.08428
X-26.79700 Y24.05888
G04 P0 ( dwell for no time -- G64 should not smooth over this point )
G00 Z5.00000 ( retract )

G00 X-10.13460 Y19.13128 ( rapid move to begin. )
G01 Z0.00000
G04 P0 ( dwell for no time -- G64 should not smooth over this point )
X-10.13460 Y19.13128
X-10.16000 Y19.13128
X-10.16000 Y19.10588
X-10.18540 Y19.10588
X-10.18540 Y19.08048
X-10.21080 Y19.08048
X-10.21080 Y19.02968
X-10.23620 Y19.02968
X-10.23620 Y18.97888
X-10.26160 Y18.97888
X-10.26160 Y18.95348
X-10.28700 Y18.95348
X-10.28700 Y18.90268
X-10.31240 Y18.90268
X-10.31240 Y18.82648
X-10.33780 Y18.82648
X-10.33780 Y18.75028
X-10.36320 Y18.75028
X-10.36320 Y18.59788
X-10.38860 Y18.59788
X-10.38860 Y17.55648
X-10.36320 Y17.55648
X-10.36320 Y17.40408
X-10.33780 Y17.40408
X-10.33780 Y17.32788
X-10.31240 Y17.32788
X-10.31240 Y17.25168
X-10.28700 Y17.25168
X-10.28700 Y17.20088
X-10.26160 Y17.20088
X-10.26160 Y17.17548
X-10.23620 Y17.17548
X-10.23620 Y17.12468
X-10.21080 Y17.12468
X-10.21080 Y17.07388
X-10.18540 Y17.07388
X-10.18540 Y17.04848
X-10.16000 Y17.04848
X-10.16000 Y17.02308
X-10.13460 Y17.02308
X-10.13460 Y16.99768
X-10.10920 Y16.99768
X-10.10920 Y16.94688
X-10.08380 Y16.94688
X-10.08380 Y16.92148
X-10.05840 Y16.92148
X-10.05840 Y16.89608
X-10.03300 Y16.89608
X-10.03300 Y16.87068
X-9.98220 Y16.87068
X-9.98220 Y16.84528
X-9.95680 Y16.84528
X-9.95680 Y16.81988
X-9.93140 Y16.81988
X-9.93140 Y16.79448
X-9.88060 Y16.79448
X-9.88060 Y16.76908
X-9.85520 Y16.76908
X-9.85520 Y16.74368
X-9.77900 Y16.74368
X-9.77900 Y16.71828
X-9.72820 Y16.71828
X-9.72820 Y16.69288
X-9.67740 Y16.69288
X-9.67740 Y16.66748
X-9.57580 Y16.66748
X-9.57580 Y16.64208
X-9.47420 Y16.64208
X-9.47420 Y16.61668
X-6.24840 Y16.61668
X-6.24840 Y16.64208
X-6.14680 Y16.64208
X-6.14680 Y16.66748
X-6.04520 Y16.66748
X-6.04520 Y16.69288
X-5.99440 Y16.69288
X-5.99440 Y16.71828
X-5.94360 Y16.71828
X-5.94360 Y16.74368
X-5.86740 Y16.74368
X-5.86740 Y16.76908
X-5.84200 Y16.76908
X-5.84200 Y16.79448
X-5.79120 Y16.79448
X-5.79120 Y16.81988
X-5.76580 Y16.81988
X-5.76580 Y16.84528
X-5.74040 Y16.84528
X-5.74040 Y16.87068
X-5.68960 Y16.87068
X-5.68960 Y16.89608
X-5.66420 Y16.89608
X-5.66420 Y16.92148
X-5.63880 Y16.92148
X-5.63880 Y16.94688
X-5.61340 Y16.94688
X-5.61340 Y16.99768
X-5.58800 Y16.99768
X-5.58800 Y17.02308
X-5.56260 Y17.02308
X-5.56260 Y17.04848
X-5.53720 Y17.04848
X-5.53720 Y17.07388
X-5.51180 Y17.07388
X-5.51180 Y17.12468
X-5.48640 Y17.12468
X-5.48640 Y17.17548
X-5.46100 Y17.17548
X-5.46100 Y17.20088
X-5.43560 Y17.20088
X-5.43560 Y17.25168
X-5.41020 Y17.25168
X-5.41020 Y17.32788
X-5.38480 Y17.32788
X-5.38480 Y17.40408
X-5.35940 Y17.40408
X-5.35940 Y17.55648
X-5.33400 Y17.55648
X-5.33400 Y18.59788
X-5.35940 Y18.59788
X-5.35940 Y18.75028
X-5.38480 Y18.75028
X-5.38480 Y18.82648
X-5.41020 Y18.82648
X-5.41020 Y18.90268
X-5.43560 Y18.90268
X-5.43560 Y18.95348
X-5.46100 Y18.95348
X-5.46100 Y18.97888
X-5.48640 Y18.97888
X-5.48640 Y19.02968
X-5.51180 Y19.02968
X-5.51180 Y19.08048
X-5.53720 Y19.08048
X-5.53720 Y19.10588
X-5.56260 Y19.10588
X-5.56260 Y19.13128
X-5.58800 Y19.13128
X-5.58800 Y19.15668
X-5.61340 Y19.15668
X-5.61340 Y19.20748
X-5.63880 Y19.20748
X-5.63880 Y19.23288
X-5.66420 Y19.23288
X-5.66420 Y19.25828
X-5.68960 Y19.25828
X-5.68960 Y19.28368
X-5.74040 Y19.28368
X-5.74040 Y19.30908
X-5.76580 Y19.30908
X-5.76580 Y19.33448
X-5.79120 Y19.33448
X-5.79120 Y19.35988
X-5.84200 Y19.35988
X-5.84200 Y19.38528
X-5.86740 Y19.38528
X-5.86740 Y19.41068
X-5.94360 Y19.41068
X-5.94360 Y19.43608
X-5.99440 Y19.43608
X-5.99440 Y19.46148
X-6.04520 Y19.46148
X-6.04520 Y19.48688
X-6.14680 Y19.48688
X-6.14680 Y19.51228
X-6.24840 Y19.51228
X-6.24840 Y19.53768
X-9.47420 Y19.53768
X-9.47420 Y19.51228
X-9.57580 Y19.51228
X-9.57580 Y19.48688
X-9.67740 Y19.48688
X-9.67740 Y19.46148
X-9.72820 Y19.46148
X-9.72820 Y19.43608
X-9.77900 Y19.43608
X-9.77900 Y19.41068
X-9.85520 Y19.41068
X-9.85520 Y19.38528
X-9.88060 Y19.38528
X-9.88060 Y19.35988
X-9.93140 Y19.35988
X-9.93140 Y19.33448
X-9.95680 Y19.33448
X-9.95680 Y19.30908
X-9.98220 Y19.30908
X-9.98220 Y19.28368
X-10.03300 Y19.28368
X-10.03300 Y19.25828
X-10.05840 Y19.25828
X-10.05840 Y19.23288
X-10.08380 Y19.23288
X-10.08380 Y19.20748
X-10.10920 Y19.20748
X-10.10920 Y19.15668
X-10.13460 Y19.15668
X-10.13460 Y19.13128
G04 P0 ( dwell for no time -- G64 should not smooth over this point )
G00 Z5.00000 ( retract )

G00 X-22.83460 Y19.13128 ( rapid move to begin. )
G01 Z0.00000
G04 P0 ( dwell for no time -- G64 should not smooth over this point )
X-22.83460 Y19.13128
X-22.86000 Y19.13128
X-22.86000 Y19.10588
X-22.88540 Y19.10588
X-22.88540 Y19.08048
X-22.91080 Y19.08048
X-22.91080 Y19.02968
X-22.93620 Y19.02968
X-22.93620 Y18.97888
X-22.96160 Y18.97888
X-22.96160 Y18.95348
X-22.98700 Y18.95348
X-22.98700 Y18.90268
X-23.01240 Y18.90268
X-23.01240 Y18.82648
X-23.03780 Y18.82648
X-23.03780 Y18.75028
X-23.06320 Y18.75028
X-23.06320 Y18.59788
X-23.08860 Y18.59788
X-23.08860 Y17.55648
X-23.06320 Y17.55648
X-23.06320 Y17.40408
X-23.03780 Y17.40408
X-23.03780 Y17.32788
X-23.01240 Y17.32788
X-23.01240 Y17.25168
X-22.98700 Y17.25168
X-22.98700 Y17.20088
X-22.96160 Y17.20088
X-22.96160 Y17.17548
X-22.93620 Y17.17548
X-22.93620 Y17.12468
X-22.91080 Y17.12468
X-22.91080 Y17.07388
X-22.88540 Y17.07388
X-22.88540 Y17.04848
X-22.86000 Y17.04848
X-22.86000 Y17.02308
X-22.83460 Y17.02308
X-22.83460 Y16.99768
X-22.80920 Y16.99768
X-22.80920 Y16.94688
X-22.78380 Y16.94688
X-22.78380 Y16.92148
X-22.75840 Y16.92148
X-22.75840 Y16.89608
X-22.73300 Y16.89608
X-22.73300 Y16.87068
X-22.68220 Y16.87068
X-22.68220 Y16.84528
X-22.65680 Y16.84528
X-22.65680 Y16.81988
X-22.63140 Y16.81988
X-22.63140 Y16.79448
X-22.58060 Y16.79448
X-22.58060 Y16.76908
X-22.55520 Y16.76908
X-22.55520 Y16.74368
X-22.47900 Y16.74368
X-22.47900 Y16.71828
X-22.42820 Y16.71828
X-22.42820 Y16.69288
X-22.37740 Y16.69288
X-22.37740 Y16.66748
X-22.27580 Y16.66748
X-22.27580 Y16.64208
X-22.17420 Y16.64208
X-22.17420 Y16.61668
X-18.94840 Y16.61668
X-18.94840 Y16.64208
X-18.84680 Y16.64208
X-18.84680 Y16.66748
X-18.74520 Y16.66748
X-18.74520 Y16.69288
X-18.69440 Y16.69288
X-18.69440 Y16.71828
X-18.64360 Y16.71828
X-18.64360 Y16.74368
X-18.56740 Y16.74368
X-18.56740 Y16.76908
X-18.54200 Y16.76908
X-18.54200 Y16.79448
X-18.49120 Y16.79448
X-18.49120 Y16.81988
X-18.46580 Y16.81988
X-18.46580 Y16.84528
X-18.44040 Y16.84528
X-18.44040 Y16.87068
X-18.38960 Y16.87068
X-18.38960 Y16.89608
X-18.36420 Y16.89608
X-18.36420 Y16.92148
X-18.33880 Y16.92148
X-18.33880 Y16.94688
X-18.31340 Y16.94688
X-18.31340 Y16.99768
X-18.28800 Y16.99768
X-18.28800 Y17.02308
X-18.26260 Y17.02308
X-18.26260 Y17.04848
X-18.23720 Y17.04848
X-18.23720 Y17.07388
X-18.21180 Y17.07388
X-18.21180 Y17.12468
X-18.18640 Y17.12468
X-18.18640 Y17.17548
X-18.16100 Y17.17548
X-18.16100 Y17.20088
X-18.13560 Y17.20088
X-18.13560 Y17.25168
X-18.11020 Y17.25168
X-18.11020 Y17.32788
X-18.08480 Y17.32788
X-18.08480 Y17.40408
X-18.05940 Y17.40408
X-18.05940 Y17.55648
X-18.03400 Y17.55648
X-18.03400 Y18.59788
X-18.05940 Y18.59788
X-18.05940 Y18.75028
X-18.08480 Y18.75028
X-18.08480 Y18.82648
X-18.11020 Y18.82648
X-18.11020 Y18.90268
X-18.13560 Y18.90268
X-18.13560 Y18.95348
X-18.16100 Y18.95348
X-18.16100 Y18.97888
X-18.18640 Y18.97888
X-18.18640 Y19.02968
X-18.21180 Y19.02968
X-18.21180 Y19.08048
X-18.23720 Y19.08048
X-18.23720 Y19.10588
X-18.26260 Y19.10588
X-18.26260 Y19.13128
X-18.28800 Y19.13128
X-18.28800 Y19.15668
X-18.31340 Y19.15668
X-18.31340 Y19.20748
X-18.33880 Y19.20748
X-18.33880 Y19.23288
X-18.36420 Y19.23288
X-18.36420 Y19.25828
X-18.38960 Y19.25828
X-18.38960 Y19.28368
X-18.44040 Y19.28368
X-18.44040 Y19.30908
X-18.46580 Y19.30908
X-18.46580 Y19.33448
X-18.49120 Y19.33448
X-18.49120 Y19.35988
X-18.54200 Y19.35988
X-18.54200 Y19.38528
X-18.56740 Y19.38528
X-18.56740 Y19.41068
X-18.64360 Y19.41068
X-18.64360 Y19.43608
X-18.69440 Y19.43608
X-18.69440 Y19.46148
X-18.74520 Y19.46148
X-18.74520 Y19.48688
X-18.84680 Y19.48688
X-18.84680 Y19.51228
X-18.94840 Y19.51228
X-18.94840 Y19.53768
X-22.17420 Y19.53768
X-22.17420 Y19.51228
X-22.27580 Y19.51228
X-22.27580 Y19.48688
X-22.37740 Y19.48688
X-22.37740 Y19.46148
X-22.42820 Y19.46148
X-22.42820 Y19.43608
X-22.47900 Y19.43608
X-22.47900 Y19.41068
X-22.55520 Y19.41068
X-22.55520 Y19.38528
X-22.58060 Y19.38528
X-22.58060 Y19.35988
X-22.63140 Y19.35988
X-22.63140 Y19.33448
X-22.65680 Y19.33448
X-22.65680 Y19.30908
X-22.68220 Y19.30908
X-22.68220 Y19.28368
X-22.73300 Y19.28368
X-22.73300 Y19.25828
X-22.75840 Y19.25828
X-22.75840 Y19.23288
X-22.78380 Y19.23288
X-22.78380 Y19.20748
X-22.80920 Y19.20748
X-22.80920 Y19.15668
X-22.83460 Y19.15668
X-22.83460 Y19.13128
G04 P0 ( dwell for no time -- G64 should not smooth over this point )
G00 Z5.00000 ( retract )

G00 X-26.79700 Y18.97888 ( rapid move to begin. )
G01 Z0.00000
G04 P0 ( dwell for no time -- G64 should not smooth over this point )
X-26.79700 Y18.97888
X-26.82240 Y18.97888
X-26.82240 Y18.95348
X-26.84780 Y18.95348
X-26.84780 Y18.92808
X-26.87320 Y18.92808
X-26.87320 Y18.90268
X-26.89860 Y18.90268
X-26.89860 Y18.87728
X-26.92400 Y18.87728
X-26.92400 Y18.85188
X-26.94940 Y18.85188
X-26.94940 Y17.30248
X-26.92400 Y17.30248
X-26.92400 Y17.27708
X-26.89860 Y17.27708
X-26.89860 Y17.25168
X-26.87320 Y17.25168
X-26.87320 Y17.22628
X-26.84780 Y17.22628
X-26.84780 Y17.20088
X-26.82240 Y17.20088
X-26.82240 Y17.17548
X-26.79700 Y17.17548
X-26.79700 Y17.15008
X-26.77160 Y17.15008
X-26.77160 Y17.12468
X-26.74620 Y17.12468
X-26.74620 Y17.09928
X-26.72080 Y17.09928
X-26.72080 Y17.07388
X-26.69540 Y17.07388
X-26.69540 Y17.04848
X-26.67000 Y17.04848
X-26.67000 Y17.02308
X-26.64460 Y17.02308
X-26.64460 Y16.99768
X-26.61920 Y16.99768
X-26.61920 Y16.97228
X-26.59380 Y16.97228
X-26.59380 Y16.94688
X-26.56840 Y16.94688
X-26.56840 Y16.92148
X-26.54300 Y16.92148
X-26.54300 Y16.89608
X-26.51760 Y16.89608
X-26.51760 Y16.87068
X-26.49220 Y16.87068
X-26.49220 Y16.84528
X-26.46680 Y16.84528
X-26.46680 Y16.81988
X-26.44140 Y16.81988
X-26.44140 Y16.79448
X-26.41600 Y16.79448
X-26.41600 Y16.76908
X-24.86660 Y16.76908
X-24.86660 Y16.79448
X-24.84120 Y16.79448
X-24.84120 Y16.81988
X-24.81580 Y16.81988
X-24.81580 Y16.84528
X-24.79040 Y16.84528
X-24.79040 Y16.87068
X-24.76500 Y16.87068
X-24.76500 Y16.89608
X-24.73960 Y16.89608
X-24.73960 Y16.92148
X-24.71420 Y16.92148
X-24.71420 Y16.94688
X-24.68880 Y16.94688
X-24.68880 Y16.97228
X-24.66340 Y16.97228
X-24.66340 Y16.99768
X-24.63800 Y16.99768
X-24.63800 Y17.02308
X-24.61260 Y17.02308
X-24.61260 Y17.04848
X-24.58720 Y17.04848
X-24.58720 Y17.07388
X-24.56180 Y17.07388
X-24.56180 Y17.09928
X-24.53640 Y17.09928
X-24.53640 Y17.12468
X-24.51100 Y17.12468
X-24.51100 Y17.15008
X-24.48560 Y17.15008
X-24.48560 Y17.17548
X-24.46020 Y17.17548
X-24.46020 Y17.20088
X-24.43480 Y17.20088
X-24.43480 Y17.22628
X-24.40940 Y17.22628
X-24.40940 Y17.25168
X-24.38400 Y17.25168
X-24.38400 Y17.27708
X-24.35860 Y17.27708
X-24.35860 Y17.30248
X-24.33320 Y17.30248
X-24.33320 Y18.85188
X-24.35860 Y18.85188
X-24.35860 Y18.87728
X-24.38400 Y18.87728
X-24.38400 Y18.90268
X-24.40940 Y18.90268
X-24.40940 Y18.92808
X-24.43480 Y18.92808
X-24.43480 Y18.95348
X-24.46020 Y18.95348
X-24.46020 Y18.97888
X-24.48560 Y18.97888
X-24.48560 Y19.00428
X-24.51100 Y19.00428
X-24.51100 Y19.02968
X-24.53640 Y19.02968
X-24.53640 Y19.05508
X-24.56180 Y19.05508
X-24.56180 Y19.08048
X-24.58720 Y19.08048
X-24.58720 Y19.10588
X-24.61260 Y19.10588
X-24.61260 Y19.13128
X-24.63800 Y19.13128
X-24.63800 Y19.15668
X-24.66340 Y19.15668
X-24.66340 Y19.18208
X-24.68880 Y19.18208
X-24.68880 Y19.20748
X-24.71420 Y19.20748
X-24.71420 Y19.23288
X-24.73960 Y19.23288
X-24.73960 Y19.25828
X-24.76500 Y19.25828
X-24.76500 Y19.28368
X-24.79040 Y19.28368
X-24.79040 Y19.30908
X-24.81580 Y19.30908
X-24.81580 Y19.33448
X-24.84120 Y19.33448
X-24.84120 Y19.35988
X-24.86660 Y19.35988
X-24.86660 Y19.38528
X-26.41600 Y19.38528
X-26.41600 Y19.35988
X-26.44140 Y19.35988
X-26.44140 Y19.33448
X-26.46680 Y19.33448
X-26.46680 Y19.30908
X-26.49220 Y19.30908
X-26.49220 Y19.28368
X-26.51760 Y19.28368
X-26.51760 Y19.25828
X-26.54300 Y19.25828
X-26.54300 Y19.23288
X-26.56840 Y19.23288
X-26.56840 Y19.20748
X-26.59380 Y19.20748
X-26.59380 Y19.18208
X-26.61920 Y19.18208
X-26.61920 Y19.15668
X-26.64460 Y19.15668
X-26.64460 Y19.13128
X-26.67000 Y19.13128
X-26.67000 Y19.10588
X-26.69540 Y19.10588
X-26.69540 Y19.08048
X-26.72080 Y19.08048
X-26.72080 Y19.05508
X-26.74620 Y19.05508
X-26.74620 Y19.02968
X-26.77160 Y19.02968
X-26.77160 Y19.00428
X-26.79700 Y19.00428
X-26.79700 Y18.97888
G04 P0 ( dwell for no time -- G64 should not smooth over this point )
G00 Z5.00000 ( retract )

G00 X-38.20160 Y16.43888 ( rapid move to begin. )
G01 Z0.00000
G04 P0 ( dwell for no time -- G64 should not smooth over this point )
X-38.20160 Y16.43888
X-38.22700 Y16.43888
X-38.22700 Y16.41348
X-38.25240 Y16.41348
X-38.25240 Y16.36268
X-38.27780 Y16.36268
X-38.27780 Y16.31188
X-38.30320 Y16.31188
X-38.30320 Y16.26108
X-38.32860 Y16.26108
X-38.32860 Y16.18488
X-38.35400 Y16.18488
X-38.35400 Y13.06068
X-38.32860 Y13.06068
X-38.32860 Y12.98448
X-38.30320 Y12.98448
X-38.30320 Y12.93368
X-38.27780 Y12.93368
X-38.27780 Y12.88288
X-38.25240 Y12.88288
X-38.25240 Y12.83208
X-38.22700 Y12.83208
X-38.22700 Y12.80668
X-38.20160 Y12.80668
X-38.20160 Y12.75588
X-38.17620 Y12.75588
X-38.17620 Y12.73048
X-38.15080 Y12.73048
X-38.15080 Y12.70508
X-38.12540 Y12.70508
X-38.12540 Y12.67968
X-38.10000 Y12.67968
X-38.10000 Y12.65428
X-38.07460 Y12.65428
X-38.07460 Y12.62888
X-38.04920 Y12.62888
X-38.04920 Y12.60348
X-38.02380 Y12.60348
X-38.02380 Y12.57808
X-37.97300 Y12.57808
X-37.97300 Y12.55268
X-37.94760 Y12.55268
X-37.94760 Y12.52728
X-37.89680 Y12.52728
X-37.89680 Y12.50188
X-37.84600 Y12.50188
X-37.84600 Y12.47648
X-37.79520 Y12.47648
X-37.79520 Y12.45108
X-37.71900 Y12.45108
X-37.71900 Y12.42568
X-37.56660 Y12.42568
X-37.56660 Y12.40028
X-36.57600 Y12.40028
X-36.57600 Y12.42568
X-36.42360 Y12.42568
X-36.42360 Y12.45108
X-36.34740 Y12.45108
X-36.34740 Y12.47648
X-36.29660 Y12.47648
X-36.29660 Y12.50188
X-36.24580 Y12.50188
X-36.24580 Y12.52728
X-36.19500 Y12.52728
X-36.19500 Y12.55268
X-36.16960 Y12.55268
X-36.16960 Y12.57808
X-36.11880 Y12.57808
X-36.11880 Y12.60348
X-36.09340 Y12.60348
X-36.09340 Y12.62888
X-36.06800 Y12.62888
X-36.06800 Y12.65428
X-36.04260 Y12.65428
X-36.04260 Y12.67968
X-36.01720 Y12.67968
X-36.01720 Y12.70508
X-35.99180 Y12.70508
X-35.99180 Y12.73048
X-35.96640 Y12.73048
X-35.96640 Y12.75588
X-35.94100 Y12.75588
X-35.94100 Y12.80668
X-35.91560 Y12.80668
X-35.91560 Y12.83208
X-35.89020 Y12.83208
X-35.89020 Y12.88288
X-35.86480 Y12.88288
X-35.86480 Y12.93368
X-35.83940 Y12.93368
X-35.83940 Y12.98448
X-35.81400 Y12.98448
X-35.81400 Y13.06068
X-35.78860 Y13.06068
X-35.78860 Y13.21308
X-35.76320 Y13.21308
X-35.76320 Y16.03248
X-35.78860 Y16.03248
X-35.78860 Y16.18488
X-35.81400 Y16.18488
X-35.81400 Y16.26108
X-35.83940 Y16.26108
X-35.83940 Y16.31188
X-35.86480 Y16.31188
X-35.86480 Y16.36268
X-35.89020 Y16.36268
X-35.89020 Y16.41348
X-35.91560 Y16.41348
X-35.91560 Y16.43888
X-35.94100 Y16.43888
X-35.94100 Y16.48968
X-35.96640 Y16.48968
X-35.96640 Y16.51508
X-35.99180 Y16.51508
X-35.99180 Y16.54048
X-36.01720 Y16.54048
X-36.01720 Y16.56588
X-36.04260 Y16.56588
X-36.04260 Y16.59128
X-36.06800 Y16.59128
X-36.06800 Y16.61668
X-36.09340 Y16.61668
X-36.09340 Y16.64208
X-36.11880 Y16.64208
X-36.11880 Y16.66748
X-36.16960 Y16.66748
X-36.16960 Y16.69288
X-36.19500 Y16.69288
X-36.19500 Y16.71828
X-36.24580 Y16.71828
X-36.24580 Y16.74368
X-36.29660 Y16.74368
X-36.29660 Y16.76908
X-36.34740 Y16.76908
X-36.34740 Y16.79448
X-36.42360 Y16.79448
X-36.42360 Y16.81988
X-36.57600 Y16.81988
X-36.57600 Y16.84528
X-37.56660 Y16.84528
X-37.56660 Y16.81988
X-37.71900 Y16.81988
X-37.71900 Y16.79448
X-37.79520 Y16.79448
X-37.79520 Y16.76908
X-37.84600 Y16.76908
X-37.84600 Y16.74368
X-37.89680 Y16.74368
X-37.89680 Y16.71828
X-37.94760 Y16.71828
X-37.94760 Y16.69288
X-37.97300 Y16.69288
X-37.97300 Y16.66748
X-38.02380 Y16.66748
X-38.02380 Y16.64208
X-38.04920 Y16.64208
X-38.04920 Y16.61668
X-38.07460 Y16.61668
X-38.07460 Y16.59128
X-38.10000 Y16.59128
X-38.10000 Y16.56588
X-38.12540 Y16.56588
X-38.12540 Y16.54048
X-38.15080 Y16.54048
X-38.15080 Y16.51508
X-38.17620 Y16.51508
X-38.17620 Y16.48968
X-38.20160 Y16.48968
X-38.20160 Y16.43888
G04 P0 ( dwell for no time -- G64 should not smooth over this point )
G00 Z5.00000 ( retract )

G00 X-40.74160 Y16.43888 ( rapid move to begin. )
G01 Z0.00000
G04 P0 ( dwell for no time -- G64 should not smooth over this point )
X-40.74160 Y16.43888
X-40.76700 Y16.43888
X-40.76700 Y16.41348
X-40.79240 Y16.41348
X-40.79240 Y16.36268
X-40.81780 Y16.36268
X-40.81780 Y16.31188
X-40.84320 Y16.31188
X-40.84320 Y16.26108
X-40.86860 Y16.26108
X-40.86860 Y16.18488
X-40.89400 Y16.18488
X-40.89400 Y13.06068
X-40.86860 Y13.06068
X-40.86860 Y12.98448
X-40.84320 Y12.98448
X-40.84320 Y12.93368
X-40.81780 Y12.93368
X-40.81780 Y12.88288
X-40.79240 Y12.88288
X-40.79240 Y12.83208
X-40.76700 Y12.83208
X-40.76700 Y12.80668
X-40.74160 Y12.80668
X-40.74160 Y12.75588
X-40.71620 Y12.75588
X-40.71620 Y12.73048
X-40.69080 Y12.73048
X-40.69080 Y12.70508
X-40.66540 Y12.70508
X-40.66540 Y12.67968
X-40.64000 Y12.67968
X-40.64000 Y12.65428
X-40.61460 Y12.65428
X-40.61460 Y12.62888
X-40.58920 Y12.62888
X-40.58920 Y12.60348
X-40.56380 Y12.60348
X-40.56380 Y12.57808
X-40.51300 Y12.57808
X-40.51300 Y12.55268
X-40.48760 Y12.55268
X-40.48760 Y12.52728
X-40.43680 Y12.52728
X-40.43680 Y12.50188
X-40.38600 Y12.50188
X-40.38600 Y12.47648
X-40.33520 Y12.47648
X-40.33520 Y12.45108
X-40.25900 Y12.45108
X-40.25900 Y12.42568
X-40.10660 Y12.42568
X-40.10660 Y12.40028
X-39.11600 Y12.40028
X-39.11600 Y12.42568
X-38.96360 Y12.42568
X-38.96360 Y12.45108
X-38.88740 Y12.45108
X-38.88740 Y12.47648
X-38.83660 Y12.47648
X-38.83660 Y12.50188
X-38.78580 Y12.50188
X-38.78580 Y12.52728
X-38.73500 Y12.52728
X-38.73500 Y12.55268
X-38.70960 Y12.55268
X-38.70960 Y12.57808
X-38.65880 Y12.57808
X-38.65880 Y12.60348
X-38.63340 Y12.60348
X-38.63340 Y12.62888
X-38.60800 Y12.62888
X-38.60800 Y12.65428
X-38.58260 Y12.65428
X-38.58260 Y12.67968
X-38.55720 Y12.67968
X-38.55720 Y12.70508
X-38.53180 Y12.70508
X-38.53180 Y12.73048
X-38.50640 Y12.73048
X-38.50640 Y12.75588
X-38.48100 Y12.75588
X-38.48100 Y12.80668
X-38.45560 Y12.80668
X-38.45560 Y12.83208
X-38.43020 Y12.83208
X-38.43020 Y12.88288
X-38.40480 Y12.88288
X-38.40480 Y12.93368
X-38.37940 Y12.93368
X-38.37940 Y12.98448
X-38.35400 Y12.98448
X-38.35400 Y16.26108
X-38.37940 Y16.26108
X-38.37940 Y16.31188
X-38.40480 Y16.31188
X-38.40480 Y16.36268
X-38.43020 Y16.36268
X-38.43020 Y16.41348
X-38.45560 Y16.41348
X-38.45560 Y16.43888
X-38.48100 Y16.43888
X-38.48100 Y16.48968
X-38.50640 Y16.48968
X-38.50640 Y16.51508
X-38.53180 Y16.51508
X-38.53180 Y16.54048
X-38.55720 Y16.54048
X-38.55720 Y16.56588
X-38.58260 Y16.56588
X-38.58260 Y16.59128
X-38.60800 Y16.59128
X-38.60800 Y16.61668
X-38.63340 Y16.61668
X-38.63340 Y16.64208
X-38.65880 Y16.64208
X-38.65880 Y16.66748
X-38.70960 Y16.66748
X-38.70960 Y16.69288
X-38.73500 Y16.69288
X-38.73500 Y16.71828
X-38.78580 Y16.71828
X-38.78580 Y16.74368
X-38.83660 Y16.74368
X-38.83660 Y16.76908
X-38.88740 Y16.76908
X-38.88740 Y16.79448
X-38.96360 Y16.79448
X-38.96360 Y16.81988
X-39.11600 Y16.81988
X-39.11600 Y16.84528
X-40.10660 Y16.84528
X-40.10660 Y16.81988
X-40.25900 Y16.81988
X-40.25900 Y16.79448
X-40.33520 Y16.79448
X-40.33520 Y16.76908
X-40.38600 Y16.76908
X-40.38600 Y16.74368
X-40.43680 Y16.74368
X-40.43680 Y16.71828
X-40.48760 Y16.71828
X-40.48760 Y16.69288
X-40.51300 Y16.69288
X-40.51300 Y16.66748
X-40.56380 Y16.66748
X-40.56380 Y16.64208
X-40.58920 Y16.64208
X-40.58920 Y16.61668
X-40.61460 Y16.61668
X-40.61460 Y16.59128
X-40.64000 Y16.59128
X-40.64000 Y16.56588
X-40.66540 Y16.56588
X-40.66540 Y16.54048
X-40.69080 Y16.54048
X-40.69080 Y16.51508
X-40.71620 Y16.51508
X-40.71620 Y16.48968
X-40.74160 Y16.48968
X-40.74160 Y16.43888
G04 P0 ( dwell for no time -- G64 should not smooth over this point )
G00 Z5.00000 ( retract )

G00 X-43.28160 Y16.43888 ( rapid move to begin. )
G01 Z0.00000
G04 P0 ( dwell for no time -- G64 should not smooth over this point )
X-43.28160 Y16.43888
X-43.30700 Y16.43888
X-43.30700 Y16.41348
X-43.33240 Y16.41348
X-43.33240 Y16.36268
X-43.35780 Y16.36268
X-43.35780 Y16.31188
X-43.38320 Y16.31188
X-43.38320 Y16.26108
X-43.40860 Y16.26108
X-43.40860 Y16.18488
X-43.43400 Y16.18488
X-43.43400 Y16.03248
X-43.45940 Y16.03248
X-43.45940 Y13.21308
X-43.43400 Y13.21308
X-43.43400 Y13.06068
X-43.40860 Y13.06068
X-43.40860 Y12.98448
X-43.38320 Y12.98448
X-43.38320 Y12.93368
X-43.35780 Y12.93368
X-43.35780 Y12.88288
X-43.33240 Y12.88288
X-43.33240 Y12.83208
X-43.30700 Y12.83208
X-43.30700 Y12.80668
X-43.28160 Y12.80668
X-43.28160 Y12.75588
X-43.25620 Y12.75588
X-43.25620 Y12.73048
X-43.23080 Y12.73048
X-43.23080 Y12.70508
X-43.20540 Y12.70508
X-43.20540 Y12.67968
X-43.18000 Y12.67968
X-43.18000 Y12.65428
X-43.15460 Y12.65428
X-43.15460 Y12.62888
X-43.12920 Y12.62888
X-43.12920 Y12.60348
X-43.10380 Y12.60348
X-43.10380 Y12.57808
X-43.05300 Y12.57808
X-43.05300 Y12.55268
X-43.02760 Y12.55268
X-43.02760 Y12.52728
X-42.97680 Y12.52728
X-42.97680 Y12.50188
X-42.92600 Y12.50188
X-42.92600 Y12.47648
X-42.87520 Y12.47648
X-42.87520 Y12.45108
X-42.79900 Y12.45108
X-42.79900 Y12.42568
X-42.64660 Y12.42568
X-42.64660 Y12.40028
X-41.65600 Y12.40028
X-41.65600 Y12.42568
X-41.50360 Y12.42568
X-41.50360 Y12.45108
X-41.42740 Y12.45108
X-41.42740 Y12.47648
X-41.37660 Y12.47648
X-41.37660 Y12.50188
X-41.32580 Y12.50188
X-41.32580 Y12.52728
X-41.27500 Y12.52728
X-41.27500 Y12.55268
X-41.24960 Y12.55268
X-41.24960 Y12.57808
X-41.19880 Y12.57808
X-41.19880 Y12.60348
X-41.17340 Y12.60348
X-41.17340 Y12.62888
X-41.14800 Y12.62888
X-41.14800 Y12.65428
X-41.12260 Y12.65428
X-41.12260 Y12.67968
X-41.09720 Y12.67968
X-41.09720 Y12.70508
X-41.07180 Y12.70508
X-41.07180 Y12.73048
X-41.04640 Y12.73048
X-41.04640 Y12.75588
X-41.02100 Y12.75588
X-41.02100 Y12.80668
X-40.99560 Y12.80668
X-40.99560 Y12.83208
X-40.97020 Y12.83208
X-40.97020 Y12.88288
X-40.94480 Y12.88288
X-40.94480 Y12.93368
X-40.91940 Y12.93368
X-40.91940 Y12.98448
X-40.89400 Y12.98448
X-40.89400 Y16.26108
X-40.91940 Y16.26108
X-40.91940 Y16.31188
X-40.94480 Y16.31188
X-40.94480 Y16.36268
X-40.97020 Y16.36268
X-40.97020 Y16.41348
X-40.99560 Y16.41348
X-40.99560 Y16.43888
X-41.02100 Y16.43888
X-41.02100 Y16.48968
X-41.04640 Y16.48968
X-41.04640 Y16.51508
X-41.07180 Y16.51508
X-41.07180 Y16.54048
X-41.09720 Y16.54048
X-41.09720 Y16.56588
X-41.12260 Y16.56588
X-41.12260 Y16.59128
X-41.14800 Y16.59128
X-41.14800 Y16.61668
X-41.17340 Y16.61668
X-41.17340 Y16.64208
X-41.19880 Y16.64208
X-41.19880 Y16.66748
X-41.24960 Y16.66748
X-41.24960 Y16.69288
X-41.27500 Y16.69288
X-41.27500 Y16.71828
X-41.32580 Y16.71828
X-41.32580 Y16.74368
X-41.37660 Y16.74368
X-41.37660 Y16.76908
X-41.42740 Y16.76908
X-41.42740 Y16.79448
X-41.50360 Y16.79448
X-41.50360 Y16.81988
X-41.65600 Y16.81988
X-41.65600 Y16.84528
X-42.64660 Y16.84528
X-42.64660 Y16.81988
X-42.79900 Y16.81988
X-42.79900 Y16.79448
X-42.87520 Y16.79448
X-42.87520 Y16.76908
X-42.92600 Y16.76908
X-42.92600 Y16.74368
X-42.97680 Y16.74368
X-42.97680 Y16.71828
X-43.02760 Y16.71828
X-43.02760 Y16.69288
X-43.05300 Y16.69288
X-43.05300 Y16.66748
X-43.10380 Y16.66748
X-43.10380 Y16.64208
X-43.12920 Y16.64208
X-43.12920 Y16.61668
X-43.15460 Y16.61668
X-43.15460 Y16.59128
X-43.18000 Y16.59128
X-43.18000 Y16.56588
X-43.20540 Y16.56588
X-43.20540 Y16.54048
X-43.23080 Y16.54048
X-43.23080 Y16.51508
X-43.25620 Y16.51508
X-43.25620 Y16.48968
X-43.28160 Y16.48968
X-43.28160 Y16.43888
G04 P0 ( dwell for no time -- G64 should not smooth over this point )
G00 Z5.00000 ( retract )

G00 X-6.32460 Y14.05128 ( rapid move to begin. )
G01 Z0.00000
G04 P0 ( dwell for no time -- G64 should not smooth over this point )
X-6.32460 Y14.05128
X-6.35000 Y14.05128
X-6.35000 Y14.02588
X-6.37540 Y14.02588
X-6.37540 Y14.00048
X-6.40080 Y14.00048
X-6.40080 Y13.94968
X-6.42620 Y13.94968
X-6.42620 Y13.89888
X-6.45160 Y13.89888
X-6.45160 Y13.87348
X-6.47700 Y13.87348
X-6.47700 Y13.82268
X-6.50240 Y13.82268
X-6.50240 Y13.74648
X-6.52780 Y13.74648
X-6.52780 Y13.67028
X-6.55320 Y13.67028
X-6.55320 Y13.51788
X-6.57860 Y13.51788
X-6.57860 Y12.47648
X-6.55320 Y12.47648
X-6.55320 Y12.32408
X-6.52780 Y12.32408
X-6.52780 Y12.24788
X-6.50240 Y12.24788
X-6.50240 Y12.17168
X-6.47700 Y12.17168
X-6.47700 Y12.12088
X-6.45160 Y12.12088
X-6.45160 Y12.09548
X-6.42620 Y12.09548
X-6.42620 Y12.04468
X-6.40080 Y12.04468
X-6.40080 Y11.99388
X-6.37540 Y11.99388
X-6.37540 Y11.96848
X-6.35000 Y11.96848
X-6.35000 Y11.94308
X-6.32460 Y11.94308
X-6.32460 Y11.91768
X-6.29920 Y11.91768
X-6.29920 Y11.86688
X-6.27380 Y11.86688
X-6.27380 Y11.84148
X-6.24840 Y11.84148
X-6.24840 Y11.81608
X-6.22300 Y11.81608
X-6.22300 Y11.79068
X-6.17220 Y11.79068
X-6.17220 Y11.76528
X-6.14680 Y11.76528
X-6.14680 Y11.73988
X-6.12140 Y11.73988
X-6.12140 Y11.71448
X-6.07060 Y11.71448
X-6.07060 Y11.68908
X-6.04520 Y11.68908
X-6.04520 Y11.66368
X-5.96900 Y11.66368
X-5.96900 Y11.63828
X-5.91820 Y11.63828
X-5.91820 Y11.61288
X-5.86740 Y11.61288
X-5.86740 Y11.58748
X-5.76580 Y11.58748
X-5.76580 Y11.56208
X-5.66420 Y11.56208
X-5.66420 Y11.53668
X-2.43840 Y11.53668
X-2.43840 Y11.56208
X-2.33680 Y11.56208
X-2.33680 Y11.58748
X-2.23520 Y11.58748
X-2.23520 Y11.61288
X-2.18440 Y11.61288
X-2.18440 Y11.63828
X-2.13360 Y11.63828
X-2.13360 Y11.66368
X-2.05740 Y11.66368
X-2.05740 Y11.68908
X-2.03200 Y11.68908
X-2.03200 Y11.71448
X-1.98120 Y11.71448
X-1.98120 Y11.73988
X-1.95580 Y11.73988
X-1.95580 Y11.76528
X-1.93040 Y11.76528
X-1.93040 Y11.79068
X-1.87960 Y11.79068
X-1.87960 Y11.81608
X-1.85420 Y11.81608
X-1.85420 Y11.84148
X-1.82880 Y11.84148
X-1.82880 Y11.86688
X-1.80340 Y11.86688
X-1.80340 Y11.91768
X-1.77800 Y11.91768
X-1.77800 Y11.94308
X-1.75260 Y11.94308
X-1.75260 Y11.96848
X-1.72720 Y11.96848
X-1.72720 Y11.99388
X-1.70180 Y11.99388
X-1.70180 Y12.04468
X-1.67640 Y12.04468
X-1.67640 Y12.09548
X-1.65100 Y12.09548
X-1.65100 Y12.12088
X-1.62560 Y12.12088
X-1.62560 Y12.17168
X-1.60020 Y12.17168
X-1.60020 Y12.24788
X-1.57480 Y12.24788
X-1.57480 Y12.32408
X-1.54940 Y12.32408
X-1.54940 Y12.47648
X-1.52400 Y12.47648
X-1.52400 Y13.51788
X-1.54940 Y13.51788
X-1.54940 Y13.67028
X-1.57480 Y13.67028
X-1.57480 Y13.74648
X-1.60020 Y13.74648
X-1.60020 Y13.82268
X-1.62560 Y13.82268
X-1.62560 Y13.87348
X-1.65100 Y13.87348
X-1.65100 Y13.89888
X-1.67640 Y13.89888
X-1.67640 Y13.94968
X-1.70180 Y13.94968
X-1.70180 Y14.00048
X-1.72720 Y14.00048
X-1.72720 Y14.02588
X-1.75260 Y14.02588
X-1.75260 Y14.05128
X-1.77800 Y14.05128
X-1.77800 Y14.07668
X-1.80340 Y14.07668
X-1.80340 Y14.12748
X-1.82880 Y14.12748
X-1.82880 Y14.15288
X-1.85420 Y14.15288
X-1.85420 Y14.17828
X-1.87960 Y14.17828
X-1.87960 Y14.20368
X-1.93040 Y14.20368
X-1.93040 Y14.22908
X-1.95580 Y14.22908
X-1.95580 Y14.25448
X-1.98120 Y14.25448
X-1.98120 Y14.27988
X-2.03200 Y14.27988
X-2.03200 Y14.30528
X-2.05740 Y14.30528
X-2.05740 Y14.33068
X-2.13360 Y14.33068
X-2.13360 Y14.35608
X-2.18440 Y14.35608
X-2.18440 Y14.38148
X-2.23520 Y14.38148
X-2.23520 Y14.40688
X-2.33680 Y14.40688
X-2.33680 Y14.43228
X-2.43840 Y14.43228
X-2.43840 Y14.45768
X-5.66420 Y14.45768
X-5.66420 Y14.43228
X-5.76580 Y14.43228
X-5.76580 Y14.40688
X-5.86740 Y14.40688
X-5.86740 Y14.38148
X-5.91820 Y14.38148
X-5.91820 Y14.35608
X-5.96900 Y14.35608
X-5.96900 Y14.33068
X-6.04520 Y14.33068
X-6.04520 Y14.30528
X-6.07060 Y14.30528
X-6.07060 Y14.27988
X-6.12140 Y14.27988
X-6.12140 Y14.25448
X-6.14680 Y14.25448
X-6.14680 Y14.22908
X-6.17220 Y14.22908
X-6.17220 Y14.20368
X-6.22300 Y14.20368
X-6.22300 Y14.17828
X-6.24840 Y14.17828
X-6.24840 Y14.15288
X-6.27380 Y14.15288
X-6.27380 Y14.12748
X-6.29920 Y14.12748
X-6.29920 Y14.07668
X-6.32460 Y14.07668
X-6.32460 Y14.05128
G04 P0 ( dwell for no time -- G64 should not smooth over this point )
G00 Z5.00000 ( retract )

G00 X-19.02460 Y14.05128 ( rapid move to begin. )
G01 Z0.00000
G04 P0 ( dwell for no time -- G64 should not smooth over this point )
X-19.02460 Y14.05128
X-19.05000 Y14.05128
X-19.05000 Y14.02588
X-19.07540 Y14.02588
X-19.07540 Y14.00048
X-19.10080 Y14.00048
X-19.10080 Y13.94968
X-19.12620 Y13.94968
X-19.12620 Y13.89888
X-19.15160 Y13.89888
X-19.15160 Y13.87348
X-19.17700 Y13.87348
X-19.17700 Y13.82268
X-19.20240 Y13.82268
X-19.20240 Y13.74648
X-19.22780 Y13.74648
X-19.22780 Y13.67028
X-19.25320 Y13.67028
X-19.25320 Y13.51788
X-19.27860 Y13.51788
X-19.27860 Y12.47648
X-19.25320 Y12.47648
X-19.25320 Y12.32408
X-19.22780 Y12.32408
X-19.22780 Y12.24788
X-19.20240 Y12.24788
X-19.20240 Y12.17168
X-19.17700 Y12.17168
X-19.17700 Y12.12088
X-19.15160 Y12.12088
X-19.15160 Y12.09548
X-19.12620 Y12.09548
X-19.12620 Y12.04468
X-19.10080 Y12.04468
X-19.10080 Y11.99388
X-19.07540 Y11.99388
X-19.07540 Y11.96848
X-19.05000 Y11.96848
X-19.05000 Y11.94308
X-19.02460 Y11.94308
X-19.02460 Y11.91768
X-18.99920 Y11.91768
X-18.99920 Y11.86688
X-18.97380 Y11.86688
X-18.97380 Y11.84148
X-18.94840 Y11.84148
X-18.94840 Y11.81608
X-18.92300 Y11.81608
X-18.92300 Y11.79068
X-18.87220 Y11.79068
X-18.87220 Y11.76528
X-18.84680 Y11.76528
X-18.84680 Y11.73988
X-18.82140 Y11.73988
X-18.82140 Y11.71448
X-18.77060 Y11.71448
X-18.77060 Y11.68908
X-18.74520 Y11.68908
X-18.74520 Y11.66368
X-18.66900 Y11.66368
X-18.66900 Y11.63828
X-18.61820 Y11.63828
X-18.61820 Y11.61288
X-18.56740 Y11.61288
X-18.56740 Y11.58748
X-18.46580 Y11.58748
X-18.46580 Y11.56208
X-18.36420 Y11.56208
X-18.36420 Y11.53668
X-15.13840 Y11.53668
X-15.13840 Y11.56208
X-15.03680 Y11.56208
X-15.03680 Y11.58748
X-14.93520 Y11.58748
X-14.93520 Y11.61288
X-14.88440 Y11.61288
X-14.88440 Y11.63828
X-14.83360 Y11.63828
X-14.83360 Y11.66368
X-14.75740 Y11.66368
X-14.75740 Y11.68908
X-14.73200 Y11.68908
X-14.73200 Y11.71448
X-14.68120 Y11.71448
X-14.68120 Y11.73988
X-14.65580 Y11.73988
X-14.65580 Y11.76528
X-14.63040 Y11.76528
X-14.63040 Y11.79068
X-14.57960 Y11.79068
X-14.57960 Y11.81608
X-14.55420 Y11.81608
X-14.55420 Y11.84148
X-14.52880 Y11.84148
X-14.52880 Y11.86688
X-14.50340 Y11.86688
X-14.50340 Y11.91768
X-14.47800 Y11.91768
X-14.47800 Y11.94308
X-14.45260 Y11.94308
X-14.45260 Y11.96848
X-14.42720 Y11.96848
X-14.42720 Y11.99388
X-14.40180 Y11.99388
X-14.40180 Y12.04468
X-14.37640 Y12.04468
X-14.37640 Y12.09548
X-14.35100 Y12.09548
X-14.35100 Y12.12088
X-14.32560 Y12.12088
X-14.32560 Y12.17168
X-14.30020 Y12.17168
X-14.30020 Y12.24788
X-14.27480 Y12.24788
X-14.27480 Y12.32408
X-14.24940 Y12.32408
X-14.24940 Y12.47648
X-14.22400 Y12.47648
X-14.22400 Y13.51788
X-14.24940 Y13.51788
X-14.24940 Y13.67028
X-14.27480 Y13.67028
X-14.27480 Y13.74648
X-14.30020 Y13.74648
X-14.30020 Y13.82268
X-14.32560 Y13.82268
X-14.32560 Y13.87348
X-14.35100 Y13.87348
X-14.35100 Y13.89888
X-14.37640 Y13.89888
X-14.37640 Y13.94968
X-14.40180 Y13.94968
X-14.40180 Y14.00048
X-14.42720 Y14.00048
X-14.42720 Y14.02588
X-14.45260 Y14.02588
X-14.45260 Y14.05128
X-14.47800 Y14.05128
X-14.47800 Y14.07668
X-14.50340 Y14.07668
X-14.50340 Y14.12748
X-14.52880 Y14.12748
X-14.52880 Y14.15288
X-14.55420 Y14.15288
X-14.55420 Y14.17828
X-14.57960 Y14.17828
X-14.57960 Y14.20368
X-14.63040 Y14.20368
X-14.63040 Y14.22908
X-14.65580 Y14.22908
X-14.65580 Y14.25448
X-14.68120 Y14.25448
X-14.68120 Y14.27988
X-14.73200 Y14.27988
X-14.73200 Y14.30528
X-14.75740 Y14.30528
X-14.75740 Y14.33068
X-14.83360 Y14.33068
X-14.83360 Y14.35608
X-14.88440 Y14.35608
X-14.88440 Y14.38148
X-14.93520 Y14.38148
X-14.93520 Y14.40688
X-15.03680 Y14.40688
X-15.03680 Y14.43228
X-15.13840 Y14.43228
X-15.13840 Y14.45768
X-18.36420 Y14.45768
X-18.36420 Y14.43228
X-18.46580 Y14.43228
X-18.46580 Y14.40688
X-18.56740 Y14.40688
X-18.56740 Y14.38148
X-18.61820 Y14.38148
X-18.61820 Y14.35608
X-18.66900 Y14.35608
X-18.66900 Y14.33068
X-18.74520 Y14.33068
X-18.74520 Y14.30528
X-18.77060 Y14.30528
X-18.77060 Y14.27988
X-18.82140 Y14.27988
X-18.82140 Y14.25448
X-18.84680 Y14.25448
X-18.84680 Y14.22908
X-18.87220 Y14.22908
X-18.87220 Y14.20368
X-18.92300 Y14.20368
X-18.92300 Y14.17828
X-18.94840 Y14.17828
X-18.94840 Y14.15288
X-18.97380 Y14.15288
X-18.97380 Y14.12748
X-18.99920 Y14.12748
X-18.99920 Y14.07668
X-19.02460 Y14.07668
X-19.02460 Y14.05128
G04 P0 ( dwell for no time -- G64 should not smooth over this point )
G00 Z5.00000 ( retract )

G00 X-35.73780 Y9.88568 ( rapid move to begin. )
G01 Z0.00000
G04 P0 ( dwell for no time -- G64 should not smooth over this point )
X-35.73780 Y9.88568
X-35.73780 Y9.86028
X-35.76320 Y9.86028
X-35.76320 Y9.83488
X-35.78860 Y9.83488
X-35.78860 Y9.78408
X-35.81400 Y9.78408
X-35.81400 Y5.99948
X-35.78860 Y5.99948
X-35.78860 Y5.94868
X-35.76320 Y5.94868
X-35.76320 Y5.92328
X-35.73780 Y5.92328
X-35.73780 Y5.87248
X-35.71240 Y5.87248
X-35.71240 Y5.84708
X-35.68700 Y5.84708
X-35.68700 Y5.82168
X-35.66160 Y5.82168
X-35.66160 Y5.79628
X-35.63620 Y5.79628
X-35.63620 Y5.77088
X-35.61080 Y5.77088
X-35.61080 Y5.74548
X-35.58540 Y5.74548
X-35.58540 Y5.72008
X-35.56000 Y5.72008
X-35.56000 Y5.69468
X-35.50920 Y5.69468
X-35.50920 Y5.66928
X-35.48380 Y5.66928
X-35.48380 Y5.64388
X-35.43300 Y5.64388
X-35.43300 Y5.61848
X-35.40760 Y5.61848
X-35.40760 Y5.59308
X-35.33140 Y5.59308
X-35.33140 Y5.56768
X-35.28060 Y5.56768
X-35.28060 Y5.54228
X-35.20440 Y5.54228
X-35.20440 Y5.51688
X-35.05200 Y5.51688
X-35.05200 Y5.49148
X-34.03600 Y5.49148
X-34.03600 Y5.51688
X-33.88360 Y5.51688
X-33.88360 Y5.54228
X-33.80740 Y5.54228
X-33.80740 Y5.56768
X-33.75660 Y5.56768
X-33.75660 Y5.59308
X-33.68040 Y5.59308
X-33.68040 Y5.61848
X-33.65500 Y5.61848
X-33.65500 Y5.64388
X-33.60420 Y5.64388
X-33.60420 Y5.66928
X-33.57880 Y5.66928
X-33.57880 Y5.69468
X-33.52800 Y5.69468
X-33.52800 Y5.72008
X-33.50260 Y5.72008
X-33.50260 Y5.74548
X-33.47720 Y5.74548
X-33.47720 Y5.77088
X-33.45180 Y5.77088
X-33.45180 Y5.79628
X-33.42640 Y5.79628
X-33.42640 Y5.82168
X-33.40100 Y5.82168
X-33.40100 Y5.84708
X-33.37560 Y5.84708
X-33.37560 Y5.87248
X-33.35020 Y5.87248
X-33.35020 Y5.92328
X-33.32480 Y5.92328
X-33.32480 Y5.94868
X-33.29940 Y5.94868
X-33.29940 Y5.99948
X-33.27400 Y5.99948
X-33.27400 Y6.02488
X-33.24860 Y6.02488
X-33.24860 Y6.10108
X-33.22320 Y6.10108
X-33.22320 Y6.15188
X-33.19780 Y6.15188
X-33.19780 Y6.22808
X-33.17240 Y6.22808
X-33.17240 Y6.38048
X-33.14700 Y6.38048
X-33.14700 Y9.40308
X-33.17240 Y9.40308
X-33.17240 Y9.55548
X-33.19780 Y9.55548
X-33.19780 Y9.63168
X-33.22320 Y9.63168
X-33.22320 Y9.68248
X-33.24860 Y9.68248
X-33.24860 Y9.75868
X-33.27400 Y9.75868
X-33.27400 Y9.78408
X-33.29940 Y9.78408
X-33.29940 Y9.83488
X-33.32480 Y9.83488
X-33.32480 Y9.86028
X-33.35020 Y9.86028
X-33.35020 Y9.91108
X-33.37560 Y9.91108
X-33.37560 Y9.93648
X-33.40100 Y9.93648
X-33.40100 Y9.96188
X-33.42640 Y9.96188
X-33.42640 Y9.98728
X-33.45180 Y9.98728
X-33.45180 Y10.01268
X-33.47720 Y10.01268
X-33.47720 Y10.03808
X-33.50260 Y10.03808
X-33.50260 Y10.06348
X-33.52800 Y10.06348
X-33.52800 Y10.08888
X-33.57880 Y10.08888
X-33.57880 Y10.11428
X-33.60420 Y10.11428
X-33.60420 Y10.13968
X-33.65500 Y10.13968
X-33.65500 Y10.16508
X-33.68040 Y10.16508
X-33.68040 Y10.19048
X-33.75660 Y10.19048
X-33.75660 Y10.21588
X-33.80740 Y10.21588
X-33.80740 Y10.24128
X-33.88360 Y10.24128
X-33.88360 Y10.26668
X-34.03600 Y10.26668
X-34.03600 Y10.29208
X-35.05200 Y10.29208
X-35.05200 Y10.26668
X-35.20440 Y10.26668
X-35.20440 Y10.24128
X-35.28060 Y10.24128
X-35.28060 Y10.21588
X-35.33140 Y10.21588
X-35.33140 Y10.19048
X-35.40760 Y10.19048
X-35.40760 Y10.16508
X-35.43300 Y10.16508
X-35.43300 Y10.13968
X-35.48380 Y10.13968
X-35.48380 Y10.11428
X-35.50920 Y10.11428
X-35.50920 Y10.08888
X-35.56000 Y10.08888
X-35.56000 Y10.06348
X-35.58540 Y10.06348
X-35.58540 Y10.03808
X-35.61080 Y10.03808
X-35.61080 Y10.01268
X-35.63620 Y10.01268
X-35.63620 Y9.98728
X-35.66160 Y9.98728
X-35.66160 Y9.96188
X-35.68700 Y9.96188
X-35.68700 Y9.93648
X-35.71240 Y9.93648
X-35.71240 Y9.91108
X-35.73780 Y9.91108
X-35.73780 Y9.88568
G04 P0 ( dwell for no time -- G64 should not smooth over this point )
G00 Z5.00000 ( retract )

G00 X-38.27780 Y9.88568 ( rapid move to begin. )
G01 Z0.00000
G04 P0 ( dwell for no time -- G64 should not smooth over this point )
X-38.27780 Y9.88568
X-38.27780 Y9.86028
X-38.30320 Y9.86028
X-38.30320 Y9.83488
X-38.32860 Y9.83488
X-38.32860 Y9.78408
X-38.35400 Y9.78408
X-38.35400 Y5.99948
X-38.32860 Y5.99948
X-38.32860 Y5.94868
X-38.30320 Y5.94868
X-38.30320 Y5.92328
X-38.27780 Y5.92328
X-38.27780 Y5.87248
X-38.25240 Y5.87248
X-38.25240 Y5.84708
X-38.22700 Y5.84708
X-38.22700 Y5.82168
X-38.20160 Y5.82168
X-38.20160 Y5.79628
X-38.17620 Y5.79628
X-38.17620 Y5.77088
X-38.15080 Y5.77088
X-38.15080 Y5.74548
X-38.12540 Y5.74548
X-38.12540 Y5.72008
X-38.10000 Y5.72008
X-38.10000 Y5.69468
X-38.04920 Y5.69468
X-38.04920 Y5.66928
X-38.02380 Y5.66928
X-38.02380 Y5.64388
X-37.97300 Y5.64388
X-37.97300 Y5.61848
X-37.94760 Y5.61848
X-37.94760 Y5.59308
X-37.87140 Y5.59308
X-37.87140 Y5.56768
X-37.82060 Y5.56768
X-37.82060 Y5.54228
X-37.74440 Y5.54228
X-37.74440 Y5.51688
X-37.59200 Y5.51688
X-37.59200 Y5.49148
X-36.57600 Y5.49148
X-36.57600 Y5.51688
X-36.42360 Y5.51688
X-36.42360 Y5.54228
X-36.34740 Y5.54228
X-36.34740 Y5.56768
X-36.29660 Y5.56768
X-36.29660 Y5.59308
X-36.22040 Y5.59308
X-36.22040 Y5.61848
X-36.19500 Y5.61848
X-36.19500 Y5.64388
X-36.14420 Y5.64388
X-36.14420 Y5.66928
X-36.11880 Y5.66928
X-36.11880 Y5.69468
X-36.06800 Y5.69468
X-36.06800 Y5.72008
X-36.04260 Y5.72008
X-36.04260 Y5.74548
X-36.01720 Y5.74548
X-36.01720 Y5.77088
X-35.99180 Y5.77088
X-35.99180 Y5.79628
X-35.96640 Y5.79628
X-35.96640 Y5.82168
X-35.94100 Y5.82168
X-35.94100 Y5.84708
X-35.91560 Y5.84708
X-35.91560 Y5.87248
X-35.89020 Y5.87248
X-35.89020 Y5.92328
X-35.86480 Y5.92328
X-35.86480 Y5.94868
X-35.83940 Y5.94868
X-35.83940 Y5.99948
X-35.81400 Y5.99948
X-35.81400 Y9.78408
X-35.83940 Y9.78408
X-35.83940 Y9.83488
X-35.86480 Y9.83488
X-35.86480 Y9.86028
X-35.89020 Y9.86028
X-35.89020 Y9.91108
X-35.91560 Y9.91108
X-35.91560 Y9.93648
X-35.94100 Y9.93648
X-35.94100 Y9.96188
X-35.96640 Y9.96188
X-35.96640 Y9.98728
X-35.99180 Y9.98728
X-35.99180 Y10.01268
X-36.01720 Y10.01268
X-36.01720 Y10.03808
X-36.04260 Y10.03808
X-36.04260 Y10.06348
X-36.06800 Y10.06348
X-36.06800 Y10.08888
X-36.11880 Y10.08888
X-36.11880 Y10.11428
X-36.14420 Y10.11428
X-36.14420 Y10.13968
X-36.19500 Y10.13968
X-36.19500 Y10.16508
X-36.22040 Y10.16508
X-36.22040 Y10.19048
X-36.29660 Y10.19048
X-36.29660 Y10.21588
X-36.34740 Y10.21588
X-36.34740 Y10.24128
X-36.42360 Y10.24128
X-36.42360 Y10.26668
X-36.57600 Y10.26668
X-36.57600 Y10.29208
X-37.59200 Y10.29208
X-37.59200 Y10.26668
X-37.74440 Y10.26668
X-37.74440 Y10.24128
X-37.82060 Y10.24128
X-37.82060 Y10.21588
X-37.87140 Y10.21588
X-37.87140 Y10.19048
X-37.94760 Y10.19048
X-37.94760 Y10.16508
X-37.97300 Y10.16508
X-37.97300 Y10.13968
X-38.02380 Y10.13968
X-38.02380 Y10.11428
X-38.04920 Y10.11428
X-38.04920 Y10.08888
X-38.10000 Y10.08888
X-38.10000 Y10.06348
X-38.12540 Y10.06348
X-38.12540 Y10.03808
X-38.15080 Y10.03808
X-38.15080 Y10.01268
X-38.17620 Y10.01268
X-38.17620 Y9.98728
X-38.20160 Y9.98728
X-38.20160 Y9.96188
X-38.22700 Y9.96188
X-38.22700 Y9.93648
X-38.25240 Y9.93648
X-38.25240 Y9.91108
X-38.27780 Y9.91108
X-38.27780 Y9.88568
G04 P0 ( dwell for no time -- G64 should not smooth over this point )
G00 Z5.00000 ( retract )

G00 X-40.81780 Y9.88568 ( rapid move to begin. )
G01 Z0.00000
G04 P0 ( dwell for no time -- G64 should not smooth over this point )
X-40.81780 Y9.88568
X-40.81780 Y9.86028
X-40.84320 Y9.86028
X-40.84320 Y9.83488
X-40.86860 Y9.83488
X-40.86860 Y9.78408
X-40.89400 Y9.78408
X-40.89400 Y5.99948
X-40.86860 Y5.99948
X-40.86860 Y5.94868
X-40.84320 Y5.94868
X-40.84320 Y5.92328
X-40.81780 Y5.92328
X-40.81780 Y5.87248
X-40.79240 Y5.87248
X-40.79240 Y5.84708
X-40.76700 Y5.84708
X-40.76700 Y5.82168
X-40.74160 Y5.82168
X-40.74160 Y5.79628
X-40.71620 Y5.79628
X-40.71620 Y5.77088
X-40.69080 Y5.77088
X-40.69080 Y5.74548
X-40.66540 Y5.74548
X-40.66540 Y5.72008
X-40.64000 Y5.72008
X-40.64000 Y5.69468
X-40.58920 Y5.69468
X-40.58920 Y5.66928
X-40.56380 Y5.66928
X-40.56380 Y5.64388
X-40.51300 Y5.64388
X-40.51300 Y5.61848
X-40.48760 Y5.61848
X-40.48760 Y5.59308
X-40.41140 Y5.59308
X-40.41140 Y5.56768
X-40.36060 Y5.56768
X-40.36060 Y5.54228
X-40.28440 Y5.54228
X-40.28440 Y5.51688
X-40.13200 Y5.51688
X-40.13200 Y5.49148
X-39.11600 Y5.49148
X-39.11600 Y5.51688
X-38.96360 Y5.51688
X-38.96360 Y5.54228
X-38.88740 Y5.54228
X-38.88740 Y5.56768
X-38.83660 Y5.56768
X-38.83660 Y5.59308
X-38.76040 Y5.59308
X-38.76040 Y5.61848
X-38.73500 Y5.61848
X-38.73500 Y5.64388
X-38.68420 Y5.64388
X-38.68420 Y5.66928
X-38.65880 Y5.66928
X-38.65880 Y5.69468
X-38.60800 Y5.69468
X-38.60800 Y5.72008
X-38.58260 Y5.72008
X-38.58260 Y5.74548
X-38.55720 Y5.74548
X-38.55720 Y5.77088
X-38.53180 Y5.77088
X-38.53180 Y5.79628
X-38.50640 Y5.79628
X-38.50640 Y5.82168
X-38.48100 Y5.82168
X-38.48100 Y5.84708
X-38.45560 Y5.84708
X-38.45560 Y5.87248
X-38.43020 Y5.87248
X-38.43020 Y5.92328
X-38.40480 Y5.92328
X-38.40480 Y5.94868
X-38.37940 Y5.94868
X-38.37940 Y5.99948
X-38.35400 Y5.99948
X-38.35400 Y9.78408
X-38.37940 Y9.78408
X-38.37940 Y9.83488
X-38.40480 Y9.83488
X-38.40480 Y9.86028
X-38.43020 Y9.86028
X-38.43020 Y9.91108
X-38.45560 Y9.91108
X-38.45560 Y9.93648
X-38.48100 Y9.93648
X-38.48100 Y9.96188
X-38.50640 Y9.96188
X-38.50640 Y9.98728
X-38.53180 Y9.98728
X-38.53180 Y10.01268
X-38.55720 Y10.01268
X-38.55720 Y10.03808
X-38.58260 Y10.03808
X-38.58260 Y10.06348
X-38.60800 Y10.06348
X-38.60800 Y10.08888
X-38.65880 Y10.08888
X-38.65880 Y10.11428
X-38.68420 Y10.11428
X-38.68420 Y10.13968
X-38.73500 Y10.13968
X-38.73500 Y10.16508
X-38.76040 Y10.16508
X-38.76040 Y10.19048
X-38.83660 Y10.19048
X-38.83660 Y10.21588
X-38.88740 Y10.21588
X-38.88740 Y10.24128
X-38.96360 Y10.24128
X-38.96360 Y10.26668
X-39.11600 Y10.26668
X-39.11600 Y10.29208
X-40.13200 Y10.29208
X-40.13200 Y10.26668
X-40.28440 Y10.26668
X-40.28440 Y10.24128
X-40.36060 Y10.24128
X-40.36060 Y10.21588
X-40.41140 Y10.21588
X-40.41140 Y10.19048
X-40.48760 Y10.19048
X-40.48760 Y10.16508
X-40.51300 Y10.16508
X-40.51300 Y10.13968
X-40.56380 Y10.13968
X-40.56380 Y10.11428
X-40.58920 Y10.11428
X-40.58920 Y10.08888
X-40.64000 Y10.08888
X-40.64000 Y10.06348
X-40.66540 Y10.06348
X-40.66540 Y10.03808
X-40.69080 Y10.03808
X-40.69080 Y10.01268
X-40.71620 Y10.01268
X-40.71620 Y9.98728
X-40.74160 Y9.98728
X-40.74160 Y9.96188
X-40.76700 Y9.96188
X-40.76700 Y9.93648
X-40.79240 Y9.93648
X-40.79240 Y9.91108
X-40.81780 Y9.91108
X-40.81780 Y9.88568
G04 P0 ( dwell for no time -- G64 should not smooth over this point )
G00 Z5.00000 ( retract )

G00 X-43.35780 Y9.88568 ( rapid move to begin. )
G01 Z0.00000
G04 P0 ( dwell for no time -- G64 should not smooth over this point )
X-43.35780 Y9.88568
X-43.35780 Y9.86028
X-43.38320 Y9.86028
X-43.38320 Y9.83488
X-43.40860 Y9.83488
X-43.40860 Y9.78408
X-43.43400 Y9.78408
X-43.43400 Y9.75868
X-43.45940 Y9.75868
X-43.45940 Y9.68248
X-43.48480 Y9.68248
X-43.48480 Y9.63168
X-43.51020 Y9.63168
X-43.51020 Y9.55548
X-43.53560 Y9.55548
X-43.53560 Y9.40308
X-43.56100 Y9.40308
X-43.56100 Y6.38048
X-43.53560 Y6.38048
X-43.53560 Y6.22808
X-43.51020 Y6.22808
X-43.51020 Y6.15188
X-43.48480 Y6.15188
X-43.48480 Y6.10108
X-43.45940 Y6.10108
X-43.45940 Y6.02488
X-43.43400 Y6.02488
X-43.43400 Y5.99948
X-43.40860 Y5.99948
X-43.40860 Y5.94868
X-43.38320 Y5.94868
X-43.38320 Y5.92328
X-43.35780 Y5.92328
X-43.35780 Y5.87248
X-43.33240 Y5.87248
X-43.33240 Y5.84708
X-43.30700 Y5.84708
X-43.30700 Y5.82168
X-43.28160 Y5.82168
X-43.28160 Y5.79628
X-43.25620 Y5.79628
X-43.25620 Y5.77088
X-43.23080 Y5.77088
X-43.23080 Y5.74548
X-43.20540 Y5.74548
X-43.20540 Y5.72008
X-43.18000 Y5.72008
X-43.18000 Y5.69468
X-43.12920 Y5.69468
X-43.12920 Y5.66928
X-43.10380 Y5.66928
X-43.10380 Y5.64388
X-43.05300 Y5.64388
X-43.05300 Y5.61848
X-43.02760 Y5.61848
X-43.02760 Y5.59308
X-42.95140 Y5.59308
X-42.95140 Y5.56768
X-42.90060 Y5.56768
X-42.90060 Y5.54228
X-42.82440 Y5.54228
X-42.82440 Y5.51688
X-42.67200 Y5.51688
X-42.67200 Y5.49148
X-41.65600 Y5.49148
X-41.65600 Y5.51688
X-41.50360 Y5.51688
X-41.50360 Y5.54228
X-41.42740 Y5.54228
X-41.42740 Y5.56768
X-41.37660 Y5.56768
X-41.37660 Y5.59308
X-41.30040 Y5.59308
X-41.30040 Y5.61848
X-41.27500 Y5.61848
X-41.27500 Y5.64388
X-41.22420 Y5.64388
X-41.22420 Y5.66928
X-41.19880 Y5.66928
X-41.19880 Y5.69468
X-41.14800 Y5.69468
X-41.14800 Y5.72008
X-41.12260 Y5.72008
X-41.12260 Y5.74548
X-41.09720 Y5.74548
X-41.09720 Y5.77088
X-41.07180 Y5.77088
X-41.07180 Y5.79628
X-41.04640 Y5.79628
X-41.04640 Y5.82168
X-41.02100 Y5.82168
X-41.02100 Y5.84708
X-40.99560 Y5.84708
X-40.99560 Y5.87248
X-40.97020 Y5.87248
X-40.97020 Y5.92328
X-40.94480 Y5.92328
X-40.94480 Y5.94868
X-40.91940 Y5.94868
X-40.91940 Y5.99948
X-40.89400 Y5.99948
X-40.89400 Y9.78408
X-40.91940 Y9.78408
X-40.91940 Y9.83488
X-40.94480 Y9.83488
X-40.94480 Y9.86028
X-40.97020 Y9.86028
X-40.97020 Y9.91108
X-40.99560 Y9.91108
X-40.99560 Y9.93648
X-41.02100 Y9.93648
X-41.02100 Y9.96188
X-41.04640 Y9.96188
X-41.04640 Y9.98728
X-41.07180 Y9.98728
X-41.07180 Y10.01268
X-41.09720 Y10.01268
X-41.09720 Y10.03808
X-41.12260 Y10.03808
X-41.12260 Y10.06348
X-41.14800 Y10.06348
X-41.14800 Y10.08888
X-41.19880 Y10.08888
X-41.19880 Y10.11428
X-41.22420 Y10.11428
X-41.22420 Y10.13968
X-41.27500 Y10.13968
X-41.27500 Y10.16508
X-41.30040 Y10.16508
X-41.30040 Y10.19048
X-41.37660 Y10.19048
X-41.37660 Y10.21588
X-41.42740 Y10.21588
X-41.42740 Y10.24128
X-41.50360 Y10.24128
X-41.50360 Y10.26668
X-41.65600 Y10.26668
X-41.65600 Y10.29208
X-42.67200 Y10.29208
X-42.67200 Y10.26668
X-42.82440 Y10.26668
X-42.82440 Y10.24128
X-42.90060 Y10.24128
X-42.90060 Y10.21588
X-42.95140 Y10.21588
X-42.95140 Y10.19048
X-43.02760 Y10.19048
X-43.02760 Y10.16508
X-43.05300 Y10.16508
X-43.05300 Y10.13968
X-43.10380 Y10.13968
X-43.10380 Y10.11428
X-43.12920 Y10.11428
X-43.12920 Y10.08888
X-43.18000 Y10.08888
X-43.18000 Y10.06348
X-43.20540 Y10.06348
X-43.20540 Y10.03808
X-43.23080 Y10.03808
X-43.23080 Y10.01268
X-43.25620 Y10.01268
X-43.25620 Y9.98728
X-43.28160 Y9.98728
X-43.28160 Y9.96188
X-43.30700 Y9.96188
X-43.30700 Y9.93648
X-43.33240 Y9.93648
X-43.33240 Y9.91108
X-43.35780 Y9.91108
X-43.35780 Y9.88568
G04 P0 ( dwell for no time -- G64 should not smooth over this point )
G00 Z5.00000 ( retract )

G00 X-8.78840 Y6.35508 ( rapid move to begin. )
G01 Z0.00000
G04 P0 ( dwell for no time -- G64 should not smooth over this point )
X-8.78840 Y6.35508
X-8.78840 Y6.32968
X-8.81380 Y6.32968
X-8.81380 Y6.30428
X-8.83920 Y6.30428
X-8.83920 Y6.25348
X-8.86460 Y6.25348
X-8.86460 Y6.22808
X-8.89000 Y6.22808
X-8.89000 Y6.15188
X-8.91540 Y6.15188
X-8.91540 Y6.10108
X-8.94080 Y6.10108
X-8.94080 Y6.02488
X-8.96620 Y6.02488
X-8.96620 Y5.87248
X-8.99160 Y5.87248
X-8.99160 Y4.85648
X-8.96620 Y4.85648
X-8.96620 Y4.70408
X-8.94080 Y4.70408
X-8.94080 Y4.62788
X-8.91540 Y4.62788
X-8.91540 Y4.57708
X-8.89000 Y4.57708
X-8.89000 Y4.50088
X-8.86460 Y4.50088
X-8.86460 Y4.47548
X-8.83920 Y4.47548
X-8.83920 Y4.42468
X-8.81380 Y4.42468
X-8.81380 Y4.39928
X-8.78840 Y4.39928
X-8.78840 Y4.34848
X-8.76300 Y4.34848
X-8.76300 Y4.32308
X-8.73760 Y4.32308
X-8.73760 Y4.29768
X-8.71220 Y4.29768
X-8.71220 Y4.27228
X-8.68680 Y4.27228
X-8.68680 Y4.24688
X-8.66140 Y4.24688
X-8.66140 Y4.22148
X-8.63600 Y4.22148
X-8.63600 Y4.19608
X-8.61060 Y4.19608
X-8.61060 Y4.17068
X-8.55980 Y4.17068
X-8.55980 Y4.14528
X-8.53440 Y4.14528
X-8.53440 Y4.11988
X-8.48360 Y4.11988
X-8.48360 Y4.09448
X-4.69900 Y4.09448
X-4.69900 Y4.11988
X-4.64820 Y4.11988
X-4.64820 Y4.14528
X-4.62280 Y4.14528
X-4.62280 Y4.17068
X-4.57200 Y4.17068
X-4.57200 Y4.19608
X-4.54660 Y4.19608
X-4.54660 Y4.22148
X-4.52120 Y4.22148
X-4.52120 Y4.24688
X-4.49580 Y4.24688
X-4.49580 Y4.27228
X-4.47040 Y4.27228
X-4.47040 Y4.29768
X-4.44500 Y4.29768
X-4.44500 Y4.32308
X-4.41960 Y4.32308
X-4.41960 Y4.34848
X-4.39420 Y4.34848
X-4.39420 Y4.39928
X-4.36880 Y4.39928
X-4.36880 Y4.42468
X-4.34340 Y4.42468
X-4.34340 Y4.47548
X-4.31800 Y4.47548
X-4.31800 Y4.50088
X-4.29260 Y4.50088
X-4.29260 Y4.57708
X-4.26720 Y4.57708
X-4.26720 Y4.62788
X-4.24180 Y4.62788
X-4.24180 Y4.70408
X-4.21640 Y4.70408
X-4.21640 Y4.85648
X-4.19100 Y4.85648
X-4.19100 Y5.87248
X-4.21640 Y5.87248
X-4.21640 Y6.02488
X-4.24180 Y6.02488
X-4.24180 Y6.10108
X-4.26720 Y6.10108
X-4.26720 Y6.15188
X-4.29260 Y6.15188
X-4.29260 Y6.22808
X-4.31800 Y6.22808
X-4.31800 Y6.25348
X-4.34340 Y6.25348
X-4.34340 Y6.30428
X-4.36880 Y6.30428
X-4.36880 Y6.32968
X-4.39420 Y6.32968
X-4.39420 Y6.38048
X-4.41960 Y6.38048
X-4.41960 Y6.40588
X-4.44500 Y6.40588
X-4.44500 Y6.43128
X-4.47040 Y6.43128
X-4.47040 Y6.45668
X-4.49580 Y6.45668
X-4.49580 Y6.48208
X-4.52120 Y6.48208
X-4.52120 Y6.50748
X-4.54660 Y6.50748
X-4.54660 Y6.53288
X-4.57200 Y6.53288
X-4.57200 Y6.55828
X-4.62280 Y6.55828
X-4.62280 Y6.58368
X-4.64820 Y6.58368
X-4.64820 Y6.60908
X-4.69900 Y6.60908
X-4.69900 Y6.63448
X-4.72440 Y6.63448
X-4.72440 Y6.65988
X-4.80060 Y6.65988
X-4.80060 Y6.68528
X-4.85140 Y6.68528
X-4.85140 Y6.71068
X-4.92760 Y6.71068
X-4.92760 Y6.73608
X-5.08000 Y6.73608
X-5.08000 Y6.76148
X-8.10260 Y6.76148
X-8.10260 Y6.73608
X-8.25500 Y6.73608
X-8.25500 Y6.71068
X-8.33120 Y6.71068
X-8.33120 Y6.68528
X-8.38200 Y6.68528
X-8.38200 Y6.65988
X-8.45820 Y6.65988
X-8.45820 Y6.63448
X-8.48360 Y6.63448
X-8.48360 Y6.60908
X-8.53440 Y6.60908
X-8.53440 Y6.58368
X-8.55980 Y6.58368
X-8.55980 Y6.55828
X-8.61060 Y6.55828
X-8.61060 Y6.53288
X-8.63600 Y6.53288
X-8.63600 Y6.50748
X-8.66140 Y6.50748
X-8.66140 Y6.48208
X-8.68680 Y6.48208
X-8.68680 Y6.45668
X-8.71220 Y6.45668
X-8.71220 Y6.43128
X-8.73760 Y6.43128
X-8.73760 Y6.40588
X-8.76300 Y6.40588
X-8.76300 Y6.38048
X-8.78840 Y6.38048
X-8.78840 Y6.35508
G04 P0 ( dwell for no time -- G64 should not smooth over this point )
G00 Z5.00000 ( retract )

G00 X-8.78840 Y3.81508 ( rapid move to begin. )
G01 Z0.00000
G04 P0 ( dwell for no time -- G64 should not smooth over this point )
X-8.78840 Y3.81508
X-8.78840 Y3.78968
X-8.81380 Y3.78968
X-8.81380 Y3.76428
X-8.83920 Y3.76428
X-8.83920 Y3.71348
X-8.86460 Y3.71348
X-8.86460 Y3.68808
X-8.89000 Y3.68808
X-8.89000 Y3.61188
X-8.91540 Y3.61188
X-8.91540 Y3.56108
X-8.94080 Y3.56108
X-8.94080 Y3.48488
X-8.96620 Y3.48488
X-8.96620 Y3.33248
X-8.99160 Y3.33248
X-8.99160 Y2.31648
X-8.96620 Y2.31648
X-8.96620 Y2.16408
X-8.94080 Y2.16408
X-8.94080 Y2.08788
X-8.91540 Y2.08788
X-8.91540 Y2.03708
X-8.89000 Y2.03708
X-8.89000 Y1.96088
X-8.86460 Y1.96088
X-8.86460 Y1.93548
X-8.83920 Y1.93548
X-8.83920 Y1.88468
X-8.81380 Y1.88468
X-8.81380 Y1.85928
X-8.78840 Y1.85928
X-8.78840 Y1.80848
X-8.76300 Y1.80848
X-8.76300 Y1.78308
X-8.73760 Y1.78308
X-8.73760 Y1.75768
X-8.71220 Y1.75768
X-8.71220 Y1.73228
X-8.68680 Y1.73228
X-8.68680 Y1.70688
X-8.66140 Y1.70688
X-8.66140 Y1.68148
X-8.63600 Y1.68148
X-8.63600 Y1.65608
X-8.61060 Y1.65608
X-8.61060 Y1.63068
X-8.55980 Y1.63068
X-8.55980 Y1.60528
X-8.53440 Y1.60528
X-8.53440 Y1.57988
X-8.48360 Y1.57988
X-8.48360 Y1.55448
X-8.45820 Y1.55448
X-8.45820 Y1.52908
X-8.38200 Y1.52908
X-8.38200 Y1.50368
X-8.33120 Y1.50368
X-8.33120 Y1.47828
X-8.25500 Y1.47828
X-8.25500 Y1.45288
X-8.10260 Y1.45288
X-8.10260 Y1.42748
X-5.08000 Y1.42748
X-5.08000 Y1.45288
X-4.92760 Y1.45288
X-4.92760 Y1.47828
X-4.85140 Y1.47828
X-4.85140 Y1.50368
X-4.80060 Y1.50368
X-4.80060 Y1.52908
X-4.72440 Y1.52908
X-4.72440 Y1.55448
X-4.69900 Y1.55448
X-4.69900 Y1.57988
X-4.64820 Y1.57988
X-4.64820 Y1.60528
X-4.62280 Y1.60528
X-4.62280 Y1.63068
X-4.57200 Y1.63068
X-4.57200 Y1.65608
X-4.54660 Y1.65608
X-4.54660 Y1.68148
X-4.52120 Y1.68148
X-4.52120 Y1.70688
X-4.49580 Y1.70688
X-4.49580 Y1.73228
X-4.47040 Y1.73228
X-4.47040 Y1.75768
X-4.44500 Y1.75768
X-4.44500 Y1.78308
X-4.41960 Y1.78308
X-4.41960 Y1.80848
X-4.39420 Y1.80848
X-4.39420 Y1.85928
X-4.36880 Y1.85928
X-4.36880 Y1.88468
X-4.34340 Y1.88468
X-4.34340 Y1.93548
X-4.31800 Y1.93548
X-4.31800 Y1.96088
X-4.29260 Y1.96088
X-4.29260 Y2.03708
X-4.26720 Y2.03708
X-4.26720 Y2.08788
X-4.24180 Y2.08788
X-4.24180 Y2.16408
X-4.21640 Y2.16408
X-4.21640 Y2.31648
X-4.19100 Y2.31648
X-4.19100 Y3.33248
X-4.21640 Y3.33248
X-4.21640 Y3.48488
X-4.24180 Y3.48488
X-4.24180 Y3.56108
X-4.26720 Y3.56108
X-4.26720 Y3.61188
X-4.29260 Y3.61188
X-4.29260 Y3.68808
X-4.31800 Y3.68808
X-4.31800 Y3.71348
X-4.34340 Y3.71348
X-4.34340 Y3.76428
X-4.36880 Y3.76428
X-4.36880 Y3.78968
X-4.39420 Y3.78968
X-4.39420 Y3.84048
X-4.41960 Y3.84048
X-4.41960 Y3.86588
X-4.44500 Y3.86588
X-4.44500 Y3.89128
X-4.47040 Y3.89128
X-4.47040 Y3.91668
X-4.49580 Y3.91668
X-4.49580 Y3.94208
X-4.52120 Y3.94208
X-4.52120 Y3.96748
X-4.54660 Y3.96748
X-4.54660 Y3.99288
X-4.57200 Y3.99288
X-4.57200 Y4.01828
X-4.62280 Y4.01828
X-4.62280 Y4.04368
X-4.64820 Y4.04368
X-4.64820 Y4.06908
X-4.69900 Y4.06908
X-4.69900 Y4.09448
X-8.48360 Y4.09448
X-8.48360 Y4.06908
X-8.53440 Y4.06908
X-8.53440 Y4.04368
X-8.55980 Y4.04368
X-8.55980 Y4.01828
X-8.61060 Y4.01828
X-8.61060 Y3.99288
X-8.63600 Y3.99288
X-8.63600 Y3.96748
X-8.66140 Y3.96748
X-8.66140 Y3.94208
X-8.68680 Y3.94208
X-8.68680 Y3.91668
X-8.71220 Y3.91668
X-8.71220 Y3.89128
X-8.73760 Y3.89128
X-8.73760 Y3.86588
X-8.76300 Y3.86588
X-8.76300 Y3.84048
X-8.78840 Y3.84048
X-8.78840 Y3.81508

G04 P0 ( dwell for no time -- G64 should not smooth over this point )
G00 Z20.00000 ( retract )

M5 ( Spindle off. )
M9 ( Coolant off. )
M2 ( Program end. )

