( pcb2gcode 1.1.5 )
      
M7 ( Coolant on. )

G94 ( Millimeters per minute feed rate. )
G21 ( Units == Millimeters. )

G90 ( Absolute coordinates. )
S20000 ( RPM spindle speed. )
F120.00000 ( Feedrate. )
G64 P0.00000 ( set maximum deviation from commanded toolpath )

M3 ( Spindle on clockwise. )
G04 P0 ( dwell for no time -- G64 should not smooth over this point )
G00 Z5.00000 ( retract )

G00 X45.51680 Y36.75380 ( rapid move to begin. )
G01 Z0.00000 F60.00000 ( plunge. )
G04 P0 ( dwell for no time -- G64 should not smooth over this point )
F120.00000
X45.51680 Y36.75380
X45.51680 Y36.75380
X45.51680 Y36.75380
X45.51680 Y36.72840
X45.51680 Y36.70300
X45.51680 Y36.67760
X45.51680 Y36.65220
X45.51680 Y36.62680
X45.51680 Y36.60140
X45.51680 Y36.57600
X45.51680 Y36.55060
X45.51680 Y36.52520
X45.51680 Y36.49980
X45.51680 Y36.47440
X45.51680 Y36.44900
X45.51680 Y36.42360
X45.51680 Y36.39820
X45.51680 Y36.37280
X45.51680 Y36.34740
X45.51680 Y36.32200
X45.51680 Y36.29660
X45.51680 Y36.27120
X45.51680 Y36.24580
X45.51680 Y36.22040
X45.51680 Y36.19500
X45.51680 Y36.16960
X45.51680 Y36.14420
X45.51680 Y36.11880
X45.51680 Y36.09340
X45.51680 Y36.06800
X45.51680 Y36.04260
X45.51680 Y36.01720
X45.51680 Y35.99180
X45.51680 Y35.96640
X45.51680 Y35.94100
X45.51680 Y35.91560
X45.51680 Y35.89020
X45.51680 Y35.86480
X45.51680 Y35.83940
X45.51680 Y35.81400
X45.51680 Y35.78860
X45.51680 Y35.76320
X45.51680 Y35.73780
X45.51680 Y35.71240
X45.51680 Y35.68700
X45.51680 Y35.66160
X45.51680 Y35.63620
X45.51680 Y35.61080
X45.51680 Y35.58540
X45.51680 Y35.56000
X45.51680 Y35.53460
X45.51680 Y35.50920
X45.51680 Y35.48380
X45.51680 Y35.45840
X45.51680 Y35.43300
X45.51680 Y35.40760
X45.51680 Y35.38220
X45.51680 Y35.35680
X45.51680 Y35.33140
X45.51680 Y35.30600
X45.51680 Y35.28060
X45.51680 Y35.25520
X45.51680 Y35.22980
X45.51680 Y35.20440
X45.51680 Y35.17900
X45.51680 Y35.15360
X45.51680 Y35.12820
X45.51680 Y35.10280
X45.51680 Y35.07740
X45.51680 Y35.05200
X45.51680 Y35.02660
X45.51680 Y35.00120
X45.51680 Y34.97580
X45.51680 Y34.95040
X45.51680 Y34.92500
X45.51680 Y34.89960
X45.51680 Y34.87420
X45.51680 Y34.84880
X45.51680 Y34.82340
X45.51680 Y34.79800
X45.51680 Y34.77260
X45.51680 Y34.74720
X45.51680 Y34.72180
X45.51680 Y34.69640
X45.51680 Y34.67100
X45.51680 Y34.64560
X45.51680 Y34.62020
X45.51680 Y34.59480
X45.51680 Y34.56940
X45.51680 Y34.54400
X45.51680 Y34.51860
X45.51680 Y34.49320
X45.51680 Y34.46780
X45.51680 Y34.44240
X45.51680 Y34.41700
X45.51680 Y34.39160
X45.51680 Y34.36620
X45.51680 Y34.34080
X45.51680 Y34.31540
X45.51680 Y34.29000
X45.51680 Y34.26460
X45.51680 Y34.23920
X45.51680 Y34.21380
X45.51680 Y34.18840
X45.51680 Y34.16300
X45.51680 Y34.13760
X45.51680 Y34.11220
X45.51680 Y34.08680
X45.51680 Y34.06140
X45.51680 Y34.03600
X45.51680 Y34.01060
X45.51680 Y33.98520
X45.51680 Y33.95980
X45.51680 Y33.93440
X45.51680 Y33.90900
X45.51680 Y33.88360
X45.51680 Y33.85820
X45.51680 Y33.83280
X45.51680 Y33.80740
X45.51680 Y33.78200
X45.51680 Y33.75660
X45.51680 Y33.73120
X45.51680 Y33.70580
X45.51680 Y33.68040
X45.51680 Y33.65500
X45.51680 Y33.62960
X45.51680 Y33.60420
X45.51680 Y33.57880
X45.51680 Y33.55340
X45.51680 Y33.52800
X45.51680 Y33.50260
X45.51680 Y33.47720
X45.51680 Y33.45180
X45.51680 Y33.42640
X45.51680 Y33.40100
X45.51680 Y33.37560
X45.51680 Y33.35020
X45.51680 Y33.32480
X45.51680 Y33.29940
X45.51680 Y33.27400
X45.51680 Y33.24860
X45.51680 Y33.22320
X45.51680 Y33.19780
X45.51680 Y33.17240
X45.51680 Y33.14700
X45.51680 Y33.12160
X45.51680 Y33.09620
X45.51680 Y33.07080
X45.51680 Y33.04540
X45.51680 Y33.02000
X45.51680 Y32.99460
X45.51680 Y32.96920
X45.51680 Y32.94380
X45.51680 Y32.91840
X45.51680 Y32.89300
X45.51680 Y32.86760
X45.51680 Y32.84220
X45.51680 Y32.81680
X45.51680 Y32.79140
X45.51680 Y32.76600
X45.51680 Y32.74060
X45.51680 Y32.71520
X45.51680 Y32.68980
X45.51680 Y32.66440
X45.51680 Y32.63900
X45.51680 Y32.61360
X45.51680 Y32.58820
X45.51680 Y32.56280
X45.51680 Y32.53740
X45.51680 Y32.51200
X45.51680 Y32.48660
X45.51680 Y32.46120
X45.51680 Y32.43580
X45.51680 Y32.41040
X45.51680 Y32.38500
X45.51680 Y32.35960
X45.51680 Y32.33420
X45.51680 Y32.30880
X45.51680 Y32.28340
X45.51680 Y32.25800
X45.51680 Y32.23260
X45.51680 Y32.20720
X45.51680 Y32.18180
X45.51680 Y32.15640
X45.51680 Y32.13100
X45.51680 Y32.10560
X45.51680 Y32.08020
X45.51680 Y32.05480
X45.51680 Y32.02940
X45.51680 Y32.00400
X45.51680 Y31.97860
X45.51680 Y31.95320
X45.51680 Y31.92780
X45.51680 Y31.90240
X45.51680 Y31.87700
X45.51680 Y31.85160
X45.51680 Y31.82620
X45.51680 Y31.80080
X45.51680 Y31.77540
X45.51680 Y31.75000
X45.51680 Y31.72460
X45.51680 Y31.69920
X45.51680 Y31.67380
X45.51680 Y31.64840
X45.51680 Y31.62300
X45.51680 Y31.59760
X45.51680 Y31.57220
X45.51680 Y31.54680
X45.51680 Y31.52140
X45.51680 Y31.49600
X45.51680 Y31.47060
X45.51680 Y31.44520
X45.51680 Y31.41980
X45.51680 Y31.39440
X45.51680 Y31.36900
X45.51680 Y31.34360
X45.51680 Y31.31820
X45.51680 Y31.29280
X45.51680 Y31.26740
X45.51680 Y31.24200
X45.51680 Y31.21660
X45.51680 Y31.19120
X45.51680 Y31.16580
X45.51680 Y31.14040
X45.51680 Y31.11500
X45.51680 Y31.08960
X45.51680 Y31.06420
X45.51680 Y31.03880
X45.51680 Y31.01340
X45.51680 Y30.98800
X45.51680 Y30.96260
X45.51680 Y30.93720
X45.51680 Y30.91180
X45.51680 Y30.88640
X45.51680 Y30.86100
X45.51680 Y30.83560
X45.51680 Y30.81020
X45.51680 Y30.78480
X45.51680 Y30.75940
X45.51680 Y30.73400
X45.51680 Y30.70860
X45.51680 Y30.68320
X45.51680 Y30.65780
X45.51680 Y30.63240
X45.51680 Y30.60700
X45.51680 Y30.58160
X45.51680 Y30.55620
X45.51680 Y30.53080
X45.51680 Y30.50540
X45.51680 Y30.48000
X45.51680 Y30.45460
X45.51680 Y30.42920
X45.51680 Y30.40380
X45.51680 Y30.37840
X45.51680 Y30.35300
X45.51680 Y30.32760
X45.51680 Y30.30220
X45.51680 Y30.27680
X45.51680 Y30.25140
X45.51680 Y30.22600
X45.51680 Y30.20060
X45.51680 Y30.17520
X45.51680 Y30.14980
X45.51680 Y30.12440
X45.51680 Y30.09900
X45.51680 Y30.07360
X45.51680 Y30.04820
X45.51680 Y30.02280
X45.51680 Y29.99740
X45.51680 Y29.97200
X45.51680 Y29.94660
X45.51680 Y29.92120
X45.51680 Y29.89580
X45.51680 Y29.87040
X45.51680 Y29.84500
X45.51680 Y29.81960
X45.51680 Y29.79420
X45.51680 Y29.76880
X45.51680 Y29.74340
X45.51680 Y29.71800
X45.51680 Y29.69260
X45.51680 Y29.66720
X45.51680 Y29.64180
X45.51680 Y29.61640
X45.51680 Y29.59100
X45.51680 Y29.56560
X45.51680 Y29.54020
X45.51680 Y29.51480
X45.51680 Y29.48940
X45.51680 Y29.46400
X45.51680 Y29.43860
X45.51680 Y29.41320
X45.51680 Y29.38780
X45.51680 Y29.36240
X45.51680 Y29.33700
X45.51680 Y29.31160
X45.51680 Y29.28620
X45.51680 Y29.26080
X45.51680 Y29.23540
X45.51680 Y29.21000
X45.51680 Y29.18460
X45.51680 Y29.15920
X45.51680 Y29.13380
X45.51680 Y29.10840
X45.51680 Y29.08300
X45.51680 Y29.05760
X45.51680 Y29.03220
X45.51680 Y29.00680
X45.51680 Y28.98140
X45.51680 Y28.95600
X45.51680 Y28.93060
X45.51680 Y28.90520
X45.51680 Y28.87980
X45.51680 Y28.85440
X45.51680 Y28.82900
X45.51680 Y28.80360
X45.51680 Y28.77820
X45.51680 Y28.75280
X45.51680 Y28.72740
X45.51680 Y28.70200
X45.51680 Y28.67660
X45.51680 Y28.65120
X45.51680 Y28.62580
X45.51680 Y28.60040
X45.51680 Y28.57500
X45.51680 Y28.54960
X45.51680 Y28.52420
X45.51680 Y28.49880
X45.51680 Y28.47340
X45.51680 Y28.44800
X45.51680 Y28.42260
X45.51680 Y28.39720
X45.51680 Y28.37180
X45.51680 Y28.34640
X45.51680 Y28.32100
X45.51680 Y28.29560
X45.51680 Y28.27020
X45.51680 Y28.24480
X45.51680 Y28.21940
X45.51680 Y28.19400
X45.51680 Y28.16860
X45.51680 Y28.14320
X45.51680 Y28.11780
X45.51680 Y28.09240
X45.51680 Y28.06700
X45.51680 Y28.04160
X45.51680 Y28.01620
X45.51680 Y27.99080
X45.51680 Y27.96540
X45.51680 Y27.94000
X45.51680 Y27.91460
X45.51680 Y27.88920
X45.51680 Y27.86380
X45.51680 Y27.83840
X45.51680 Y27.81300
X45.51680 Y27.78760
X45.51680 Y27.76220
X45.51680 Y27.73680
X45.51680 Y27.71140
X45.51680 Y27.68600
X45.51680 Y27.66060
X45.51680 Y27.63520
X45.51680 Y27.60980
X45.51680 Y27.58440
X45.51680 Y27.55900
X45.51680 Y27.53360
X45.51680 Y27.50820
X45.51680 Y27.48280
X45.51680 Y27.45740
X45.51680 Y27.43200
X45.51680 Y27.40660
X45.51680 Y27.38120
X45.51680 Y27.35580
X45.51680 Y27.33040
X45.51680 Y27.30500
X45.51680 Y27.27960
X45.51680 Y27.25420
X45.51680 Y27.22880
X45.51680 Y27.20340
X45.51680 Y27.17800
X45.51680 Y27.15260
X45.51680 Y27.12720
X45.51680 Y27.10180
X45.51680 Y27.07640
X45.51680 Y27.05100
X45.51680 Y27.02560
X45.51680 Y27.00020
X45.51680 Y26.97480
X45.51680 Y26.94940
X45.51680 Y26.92400
X45.51680 Y26.89860
X45.51680 Y26.87320
X45.51680 Y26.84780
X45.51680 Y26.82240
X45.51680 Y26.79700
X45.51680 Y26.77160
X45.51680 Y26.74620
X45.51680 Y26.72080
X45.51680 Y26.69540
X45.51680 Y26.67000
X45.51680 Y26.64460
X45.51680 Y26.61920
X45.51680 Y26.59380
X45.51680 Y26.56840
X45.51680 Y26.54300
X45.51680 Y26.51760
X45.51680 Y26.49220
X45.51680 Y26.46680
X45.51680 Y26.44140
X45.51680 Y26.41600
X45.51680 Y26.39060
X45.51680 Y26.36520
X45.51680 Y26.33980
X45.51680 Y26.31440
X45.51680 Y26.28900
X45.51680 Y26.26360
X45.51680 Y26.23820
X45.51680 Y26.21280
X45.51680 Y26.18740
X45.51680 Y26.16200
X45.51680 Y26.13660
X45.51680 Y26.11120
X45.51680 Y26.08580
X45.51680 Y26.06040
X45.51680 Y26.03500
X45.51680 Y26.00960
X45.51680 Y25.98420
X45.51680 Y25.95880
X45.51680 Y25.93340
X45.51680 Y25.90800
X45.51680 Y25.88260
X45.51680 Y25.85720
X45.51680 Y25.83180
X45.51680 Y25.80640
X45.51680 Y25.78100
X45.51680 Y25.75560
X45.51680 Y25.73020
X45.51680 Y25.70480
X45.51680 Y25.67940
X45.51680 Y25.65400
X45.51680 Y25.62860
X45.51680 Y25.60320
X45.51680 Y25.57780
X45.51680 Y25.55240
X45.51680 Y25.52700
X45.51680 Y25.50160
X45.51680 Y25.47620
X45.51680 Y25.45080
X45.51680 Y25.42540
X45.51680 Y25.40000
X45.51680 Y25.37460
X45.51680 Y25.34920
X45.51680 Y25.32380
X45.51680 Y25.29840
X45.51680 Y25.27300
X45.51680 Y25.24760
X45.51680 Y25.22220
X45.51680 Y25.19680
X45.51680 Y25.17140
X45.51680 Y25.14600
X45.51680 Y25.12060
X45.51680 Y25.09520
X45.51680 Y25.06980
X45.51680 Y25.04440
X45.51680 Y25.01900
X45.51680 Y24.99360
X45.51680 Y24.96820
X45.51680 Y24.94280
X45.51680 Y24.91740
X45.51680 Y24.89200
X45.51680 Y24.86660
X45.51680 Y24.84120
X45.51680 Y24.81580
X45.51680 Y24.79040
X45.51680 Y24.76500
X45.51680 Y24.73960
X45.51680 Y24.71420
X45.51680 Y24.68880
X45.51680 Y24.66340
X45.51680 Y24.63800
X45.51680 Y24.61260
X45.51680 Y24.58720
X45.51680 Y24.56180
X45.51680 Y24.53640
X45.51680 Y24.51100
X45.51680 Y24.48560
X45.51680 Y24.46020
X45.51680 Y24.43480
X45.51680 Y24.40940
X45.51680 Y24.38400
X45.51680 Y24.35860
X45.51680 Y24.33320
X45.51680 Y24.30780
X45.51680 Y24.28240
X45.51680 Y24.25700
X45.51680 Y24.23160
X45.51680 Y24.20620
X45.51680 Y24.18080
X45.51680 Y24.15540
X45.51680 Y24.13000
X45.51680 Y24.10460
X45.51680 Y24.07920
X45.51680 Y24.05380
X45.51680 Y24.02840
X45.51680 Y24.00300
X45.51680 Y23.97760
X45.51680 Y23.95220
X45.51680 Y23.92680
X45.51680 Y23.90140
X45.51680 Y23.87600
X45.51680 Y23.85060
X45.51680 Y23.82520
X45.51680 Y23.79980
X45.51680 Y23.77440
X45.51680 Y23.74900
X45.51680 Y23.72360
X45.51680 Y23.69820
X45.51680 Y23.67280
X45.51680 Y23.64740
X45.51680 Y23.62200
X45.51680 Y23.59660
X45.51680 Y23.57120
X45.51680 Y23.54580
X45.51680 Y23.52040
X45.51680 Y23.49500
X45.51680 Y23.46960
X45.51680 Y23.44420
X45.51680 Y23.41880
X45.51680 Y23.39340
X45.51680 Y23.36800
X45.51680 Y23.34260
X45.51680 Y23.31720
X45.51680 Y23.29180
X45.51680 Y23.26640
X45.51680 Y23.24100
X45.51680 Y23.21560
X45.51680 Y23.19020
X45.51680 Y23.16480
X45.51680 Y23.13940
X45.51680 Y23.11400
X45.51680 Y23.08860
X45.51680 Y23.06320
X45.51680 Y23.03780
X45.51680 Y23.01240
X45.51680 Y22.98700
X45.51680 Y22.96160
X45.51680 Y22.93620
X45.51680 Y22.91080
X45.51680 Y22.88540
X45.51680 Y22.86000
X45.51680 Y22.83460
X45.51680 Y22.80920
X45.51680 Y22.78380
X45.51680 Y22.75840
X45.51680 Y22.73300
X45.51680 Y22.70760
X45.51680 Y22.68220
X45.51680 Y22.65680
X45.51680 Y22.63140
X45.51680 Y22.60600
X45.51680 Y22.58060
X45.51680 Y22.55520
X45.51680 Y22.52980
X45.51680 Y22.50440
X45.51680 Y22.47900
X45.51680 Y22.45360
X45.51680 Y22.42820
X45.51680 Y22.40280
X45.51680 Y22.37740
X45.51680 Y22.35200
X45.51680 Y22.32660
X45.51680 Y22.30120
X45.51680 Y22.27580
X45.51680 Y22.25040
X45.51680 Y22.22500
X45.51680 Y22.19960
X45.51680 Y22.17420
X45.51680 Y22.14880
X45.51680 Y22.12340
X45.51680 Y22.09800
X45.51680 Y22.07260
X45.51680 Y22.04720
X45.51680 Y22.02180
X45.51680 Y21.99640
X45.51680 Y21.97100
X45.51680 Y21.94560
X45.51680 Y21.92020
X45.51680 Y21.89480
X45.51680 Y21.86940
X45.51680 Y21.84400
X45.51680 Y21.81860
X45.51680 Y21.79320
X45.51680 Y21.76780
X45.51680 Y21.74240
X45.51680 Y21.71700
X45.51680 Y21.69160
X45.51680 Y21.66620
X45.51680 Y21.64080
X45.51680 Y21.61540
X45.51680 Y21.59000
X45.51680 Y21.56460
X45.51680 Y21.53920
X45.51680 Y21.51380
X45.51680 Y21.48840
X45.51680 Y21.46300
X45.51680 Y21.43760
X45.51680 Y21.41220
X45.51680 Y21.38680
X45.51680 Y21.36140
X45.51680 Y21.33600
X45.51680 Y21.31060
X45.51680 Y21.28520
X45.51680 Y21.25980
X45.51680 Y21.23440
X45.51680 Y21.20900
X45.51680 Y21.18360
X45.51680 Y21.15820
X45.51680 Y21.13280
X45.51680 Y21.10740
X45.51680 Y21.08200
X45.51680 Y21.05660
X45.51680 Y21.03120
X45.51680 Y21.00580
X45.51680 Y20.98040
X45.51680 Y20.95500
X45.51680 Y20.92960
X45.51680 Y20.90420
X45.51680 Y20.87880
X45.51680 Y20.85340
X45.51680 Y20.82800
X45.51680 Y20.80260
X45.51680 Y20.77720
X45.51680 Y20.75180
X45.51680 Y20.72640
X45.51680 Y20.70100
X45.51680 Y20.67560
X45.51680 Y20.65020
X45.51680 Y20.62480
X45.51680 Y20.59940
X45.51680 Y20.57400
X45.51680 Y20.54860
X45.51680 Y20.52320
X45.51680 Y20.49780
X45.51680 Y20.47240
X45.51680 Y20.44700
X45.51680 Y20.42160
X45.51680 Y20.39620
X45.51680 Y20.37080
X45.51680 Y20.34540
X45.51680 Y20.32000
X45.51680 Y20.30390
Z5.00000
X45.51680 Y20.29460
X45.51680 Y20.26920
X45.51680 Y20.24380
X45.51680 Y20.21840
X45.51680 Y20.19300
X45.51680 Y20.16760
X45.51680 Y20.14220
X45.51680 Y20.11680
X45.51680 Y20.09140
X45.51680 Y20.06600
X45.51680 Y20.04060
X45.51680 Y20.01520
X45.51680 Y19.98980
X45.51680 Y19.96440
X45.51680 Y19.93900
X45.51680 Y19.91360
X45.51680 Y19.88820
X45.51680 Y19.86280
X45.51680 Y19.83740
X45.51680 Y19.81200
X45.51680 Y19.78660
X45.51680 Y19.76120
X45.51680 Y19.73580
X45.51680 Y19.71040
X45.51680 Y19.68500
X45.51680 Y19.65960
X45.51680 Y19.63420
X45.51680 Y19.60880
X45.51680 Y19.58340
X45.51680 Y19.55800
X45.51680 Y19.53260
X45.51680 Y19.50720
X45.51680 Y19.48180
X45.51680 Y19.45640
X45.51680 Y19.43100
X45.51680 Y19.40560
X45.51680 Y19.38020
X45.51680 Y19.35480
X45.51680 Y19.32940
X45.51680 Y19.30400
X45.51680 Y19.27860
X45.51680 Y19.25320
X45.51680 Y19.22780
X45.51680 Y19.20240
X45.51680 Y19.17700
X45.51680 Y19.15160
X45.51680 Y19.12620
X45.51680 Y19.10080
X45.51680 Y19.07540
X45.51680 Y19.05000
X45.51680 Y19.02460
X45.51680 Y18.99920
X45.51680 Y18.97380
X45.51680 Y18.94840
X45.51680 Y18.92300
X45.51680 Y18.89760
X45.51680 Y18.87220
X45.51680 Y18.84680
X45.51680 Y18.82140
X45.51680 Y18.79600
X45.51680 Y18.77060
X45.51680 Y18.74520
X45.51680 Y18.71980
X45.51680 Y18.69440
X45.51680 Y18.66900
X45.51680 Y18.64360
X45.51680 Y18.61820
X45.51680 Y18.59280
X45.51680 Y18.56740
X45.51680 Y18.54200
X45.51680 Y18.51660
X45.51680 Y18.49120
X45.51680 Y18.46580
X45.51680 Y18.44040
X45.51680 Y18.41500
X45.51680 Y18.38960
X45.51680 Y18.36420
X45.51680 Y18.33880
X45.51680 Y18.31340
X45.51680 Y18.28800
X45.51680 Y18.26260
X45.51680 Y18.23720
X45.51680 Y18.21180
X45.51680 Y18.18640
X45.51680 Y18.16100
X45.51680 Y18.13560
X45.51680 Y18.11020
X45.51680 Y18.08480
X45.51680 Y18.05940
X45.51680 Y18.03400
X45.51680 Y18.00860
X45.51680 Y17.98320
X45.51680 Y17.95780
X45.51680 Y17.93240
X45.51680 Y17.90700
X45.51680 Y17.88160
X45.51680 Y17.85620
X45.51680 Y17.83080
X45.51680 Y17.80540
X45.51680 Y17.78000
X45.51680 Y17.75460
X45.51680 Y17.72920
X45.51680 Y17.70380
X45.51680 Y17.67840
X45.51680 Y17.65300
X45.51680 Y17.62760
X45.51680 Y17.60220
X45.51680 Y17.57680
X45.51680 Y17.55140
X45.51680 Y17.52600
X45.51680 Y17.50060
X45.51680 Y17.47520
X45.51680 Y17.44980
X45.51680 Y17.42440
X45.51680 Y17.39900
X45.51680 Y17.37360
X45.51680 Y17.34820
X45.51680 Y17.32280
X45.51680 Y17.29740
X45.51680 Y17.27200
X45.51680 Y17.24660
X45.51680 Y17.22120
X45.51680 Y17.19580
X45.51680 Y17.17040
X45.51680 Y17.14500
X45.51680 Y17.11960
X45.51680 Y17.09420
X45.51680 Y17.06880
X45.51680 Y17.04340
X45.51680 Y17.01800
X45.51680 Y16.99260
X45.51680 Y16.96720
X45.51680 Y16.94180
X45.51680 Y16.91640
X45.51680 Y16.89100
X45.51680 Y16.86560
X45.51680 Y16.84020
X45.51680 Y16.81480
X45.51680 Y16.78940
X45.51680 Y16.76400
X45.51680 Y16.73860
X45.51680 Y16.71320
X45.51680 Y16.70390
Z0.00000
X45.51680 Y16.68780
X45.51680 Y16.66240
X45.51680 Y16.63700
X45.51680 Y16.61160
X45.51680 Y16.58620
X45.51680 Y16.56080
X45.51680 Y16.53540
X45.51680 Y16.51000
X45.51680 Y16.48460
X45.51680 Y16.45920
X45.51680 Y16.43380
X45.51680 Y16.40840
X45.51680 Y16.38300
X45.51680 Y16.35760
X45.51680 Y16.33220
X45.51680 Y16.30680
X45.51680 Y16.28140
X45.51680 Y16.25600
X45.51680 Y16.23060
X45.51680 Y16.20520
X45.51680 Y16.17980
X45.51680 Y16.15440
X45.51680 Y16.12900
X45.51680 Y16.10360
X45.51680 Y16.07820
X45.51680 Y16.05280
X45.51680 Y16.02740
X45.51680 Y16.00200
X45.51680 Y15.97660
X45.51680 Y15.95120
X45.51680 Y15.92580
X45.51680 Y15.90040
X45.51680 Y15.87500
X45.51680 Y15.84960
X45.51680 Y15.82420
X45.51680 Y15.79880
X45.51680 Y15.77340
X45.51680 Y15.74800
X45.51680 Y15.72260
X45.51680 Y15.69720
X45.51680 Y15.67180
X45.51680 Y15.64640
X45.51680 Y15.62100
X45.51680 Y15.59560
X45.51680 Y15.57020
X45.51680 Y15.54480
X45.51680 Y15.51940
X45.51680 Y15.49400
X45.51680 Y15.46860
X45.51680 Y15.44320
X45.51680 Y15.41780
X45.51680 Y15.39240
X45.51680 Y15.36700
X45.51680 Y15.34160
X45.51680 Y15.31620
X45.51680 Y15.29080
X45.51680 Y15.26540
X45.51680 Y15.24000
X45.51680 Y15.21460
X45.51680 Y15.18920
X45.51680 Y15.16380
X45.51680 Y15.13840
X45.51680 Y15.11300
X45.51680 Y15.08760
X45.51680 Y15.06220
X45.51680 Y15.03680
X45.51680 Y15.01140
X45.51680 Y14.98600
X45.51680 Y14.96060
X45.51680 Y14.93520
X45.51680 Y14.90980
X45.51680 Y14.88440
X45.51680 Y14.85900
X45.51680 Y14.83360
X45.51680 Y14.80820
X45.51680 Y14.78280
X45.51680 Y14.75740
X45.51680 Y14.73200
X45.51680 Y14.70660
X45.51680 Y14.68120
X45.51680 Y14.65580
X45.51680 Y14.63040
X45.51680 Y14.60500
X45.51680 Y14.57960
X45.51680 Y14.55420
X45.51680 Y14.52880
X45.51680 Y14.50340
X45.51680 Y14.47800
X45.51680 Y14.45260
X45.51680 Y14.42720
X45.51680 Y14.40180
X45.51680 Y14.37640
X45.51680 Y14.35100
X45.51680 Y14.32560
X45.51680 Y14.30020
X45.51680 Y14.27480
X45.51680 Y14.24940
X45.51680 Y14.22400
X45.51680 Y14.19860
X45.51680 Y14.17320
X45.51680 Y14.14780
X45.51680 Y14.12240
X45.51680 Y14.09700
X45.51680 Y14.07160
X45.51680 Y14.04620
X45.51680 Y14.02080
X45.51680 Y13.99540
X45.51680 Y13.97000
X45.51680 Y13.94460
X45.51680 Y13.91920
X45.51680 Y13.89380
X45.51680 Y13.86840
X45.51680 Y13.84300
X45.51680 Y13.81760
X45.51680 Y13.79220
X45.51680 Y13.76680
X45.51680 Y13.74140
X45.51680 Y13.71600
X45.51680 Y13.69060
X45.51680 Y13.66520
X45.51680 Y13.63980
X45.51680 Y13.61440
X45.51680 Y13.58900
X45.51680 Y13.56360
X45.51680 Y13.53820
X45.51680 Y13.51280
X45.51680 Y13.48740
X45.51680 Y13.46200
X45.51680 Y13.43660
X45.51680 Y13.41120
X45.51680 Y13.38580
X45.51680 Y13.36040
X45.51680 Y13.33500
X45.51680 Y13.30960
X45.51680 Y13.28420
X45.51680 Y13.25880
X45.51680 Y13.23340
X45.51680 Y13.20800
X45.51680 Y13.18260
X45.51680 Y13.15720
X45.51680 Y13.13180
X45.51680 Y13.10640
X45.51680 Y13.08100
X45.51680 Y13.05560
X45.51680 Y13.03020
X45.51680 Y13.00480
X45.51680 Y12.97940
X45.51680 Y12.95400
X45.51680 Y12.92860
X45.51680 Y12.90320
X45.51680 Y12.87780
X45.51680 Y12.85240
X45.51680 Y12.82700
X45.51680 Y12.80160
X45.51680 Y12.77620
X45.51680 Y12.75080
X45.51680 Y12.72540
X45.51680 Y12.70000
X45.51680 Y12.67460
X45.51680 Y12.64920
X45.51680 Y12.62380
X45.51680 Y12.59840
X45.51680 Y12.57300
X45.51680 Y12.54760
X45.51680 Y12.52220
X45.51680 Y12.49680
X45.51680 Y12.47140
X45.51680 Y12.44600
X45.51680 Y12.42060
X45.51680 Y12.39520
X45.51680 Y12.36980
X45.51680 Y12.34440
X45.51680 Y12.31900
X45.51680 Y12.29360
X45.51680 Y12.26820
X45.51680 Y12.24280
X45.51680 Y12.21740
X45.51680 Y12.19200
X45.51680 Y12.16660
X45.51680 Y12.14120
X45.51680 Y12.11580
X45.51680 Y12.09040
X45.51680 Y12.06500
X45.51680 Y12.03960
X45.51680 Y12.01420
X45.51680 Y11.98880
X45.51680 Y11.96340
X45.51680 Y11.93800
X45.51680 Y11.91260
X45.51680 Y11.88720
X45.51680 Y11.86180
X45.51680 Y11.83640
X45.51680 Y11.81100
X45.51680 Y11.78560
X45.51680 Y11.76020
X45.51680 Y11.73480
X45.51680 Y11.70940
X45.51680 Y11.68400
X45.51680 Y11.65860
X45.51680 Y11.63320
X45.51680 Y11.60780
X45.51680 Y11.58240
X45.51680 Y11.55700
X45.51680 Y11.53160
X45.51680 Y11.50620
X45.51680 Y11.48080
X45.51680 Y11.45540
X45.51680 Y11.43000
X45.51680 Y11.40460
X45.51680 Y11.37920
X45.51680 Y11.35380
X45.51680 Y11.32840
X45.51680 Y11.30300
X45.51680 Y11.27760
X45.51680 Y11.25220
X45.51680 Y11.22680
X45.51680 Y11.20140
X45.51680 Y11.17600
X45.51680 Y11.15060
X45.51680 Y11.12520
X45.51680 Y11.09980
X45.51680 Y11.07440
X45.51680 Y11.04900
X45.51680 Y11.02360
X45.51680 Y10.99820
X45.51680 Y10.97280
X45.51680 Y10.94740
X45.51680 Y10.92200
X45.51680 Y10.89660
X45.51680 Y10.87120
X45.51680 Y10.84580
X45.51680 Y10.82040
X45.51680 Y10.79500
X45.51680 Y10.76960
X45.51680 Y10.74420
X45.51680 Y10.71880
X45.51680 Y10.69340
X45.51680 Y10.66800
X45.51680 Y10.64260
X45.51680 Y10.61720
X45.51680 Y10.59180
X45.51680 Y10.56640
X45.51680 Y10.54100
X45.51680 Y10.51560
X45.51680 Y10.49020
X45.51680 Y10.46480
X45.51680 Y10.43940
X45.51680 Y10.41400
X45.51680 Y10.38860
X45.51680 Y10.36320
X45.51680 Y10.33780
X45.51680 Y10.31240
X45.51680 Y10.28700
X45.51680 Y10.26160
X45.51680 Y10.23620
X45.51680 Y10.21080
X45.51680 Y10.18540
X45.51680 Y10.16000
X45.51680 Y10.13460
X45.51680 Y10.10920
X45.51680 Y10.08380
X45.51680 Y10.05840
X45.51680 Y10.03300
X45.51680 Y10.00760
X45.51680 Y9.98220
X45.51680 Y9.95680
X45.51680 Y9.93140
X45.51680 Y9.90600
X45.51680 Y9.88060
X45.51680 Y9.85520
X45.51680 Y9.82980
X45.51680 Y9.80440
X45.51680 Y9.77900
X45.51680 Y9.75360
X45.51680 Y9.72820
X45.51680 Y9.70280
X45.51680 Y9.67740
X45.51680 Y9.65200
X45.51680 Y9.62660
X45.51680 Y9.60120
X45.51680 Y9.57580
X45.51680 Y9.55040
X45.51680 Y9.52500
X45.51680 Y9.49960
X45.51680 Y9.47420
X45.51680 Y9.44880
X45.51680 Y9.42340
X45.51680 Y9.39800
X45.51680 Y9.37260
X45.51680 Y9.34720
X45.51680 Y9.32180
X45.51680 Y9.29640
X45.51680 Y9.27100
X45.51680 Y9.24560
X45.51680 Y9.22020
X45.51680 Y9.19480
X45.51680 Y9.16940
X45.51680 Y9.14400
X45.51680 Y9.11860
X45.51680 Y9.09320
X45.51680 Y9.06780
X45.51680 Y9.04240
X45.51680 Y9.01700
X45.51680 Y8.99160
X45.51680 Y8.96620
X45.51680 Y8.94080
X45.51680 Y8.91540
X45.51680 Y8.89000
X45.51680 Y8.86460
X45.51680 Y8.83920
X45.51680 Y8.81380
X45.51680 Y8.78840
X45.51680 Y8.76300
X45.51680 Y8.73760
X45.51680 Y8.71220
X45.51680 Y8.68680
X45.51680 Y8.66140
X45.51680 Y8.63600
X45.51680 Y8.61060
X45.51680 Y8.58520
X45.51680 Y8.55980
X45.51680 Y8.53440
X45.51680 Y8.50900
X45.51680 Y8.48360
X45.51680 Y8.45820
X45.51680 Y8.43280
X45.51680 Y8.40740
X45.51680 Y8.38200
X45.51680 Y8.35660
X45.51680 Y8.33120
X45.51680 Y8.30580
X45.51680 Y8.28040
X45.51680 Y8.25500
X45.51680 Y8.22960
X45.51680 Y8.20420
X45.51680 Y8.17880
X45.51680 Y8.15340
X45.51680 Y8.12800
X45.51680 Y8.10260
X45.51680 Y8.07720
X45.51680 Y8.05180
X45.51680 Y8.02640
X45.51680 Y8.00100
X45.51680 Y7.97560
X45.51680 Y7.95020
X45.51680 Y7.92480
X45.51680 Y7.89940
X45.51680 Y7.87400
X45.51680 Y7.84860
X45.51680 Y7.82320
X45.51680 Y7.79780
X45.51680 Y7.77240
X45.51680 Y7.74700
X45.51680 Y7.72160
X45.51680 Y7.69620
X45.51680 Y7.67080
X45.51680 Y7.64540
X45.51680 Y7.62000
X45.51680 Y7.59460
X45.51680 Y7.56920
X45.51680 Y7.54380
X45.51680 Y7.51840
X45.51680 Y7.49300
X45.51680 Y7.46760
X45.51680 Y7.44220
X45.51680 Y7.41680
X45.51680 Y7.39140
X45.51680 Y7.36600
X45.51680 Y7.34060
X45.51680 Y7.31520
X45.51680 Y7.28980
X45.51680 Y7.26440
X45.51680 Y7.23900
X45.51680 Y7.21360
X45.51680 Y7.18820
X45.51680 Y7.16280
X45.51680 Y7.13740
X45.51680 Y7.11200
X45.51680 Y7.08660
X45.51680 Y7.06120
X45.51680 Y7.03580
X45.51680 Y7.01040
X45.51680 Y6.98500
X45.51680 Y6.95960
X45.51680 Y6.93420
X45.51680 Y6.90880
X45.51680 Y6.88340
X45.51680 Y6.85800
X45.51680 Y6.83260
X45.51680 Y6.80720
X45.51680 Y6.78180
X45.51680 Y6.75640
X45.51680 Y6.73100
X45.51680 Y6.70560
X45.51680 Y6.68020
X45.51680 Y6.65480
X45.51680 Y6.62940
X45.51680 Y6.60400
X45.51680 Y6.57860
X45.51680 Y6.55320
X45.51680 Y6.52780
X45.51680 Y6.50240
X45.51680 Y6.47700
X45.51680 Y6.45160
X45.51680 Y6.42620
X45.51680 Y6.40080
X45.51680 Y6.37540
X45.51680 Y6.35000
X45.51680 Y6.32460
X45.51680 Y6.29920
X45.51680 Y6.27380
X45.51680 Y6.24840
X45.51680 Y6.22300
X45.51680 Y6.19760
X45.51680 Y6.17220
X45.51680 Y6.14680
X45.51680 Y6.12140
X45.51680 Y6.09600
X45.51680 Y6.07060
X45.51680 Y6.04520
X45.51680 Y6.01980
X45.51680 Y5.99440
X45.51680 Y5.96900
X45.51680 Y5.94360
X45.51680 Y5.91820
X45.51680 Y5.89280
X45.51680 Y5.86740
X45.51680 Y5.84200
X45.51680 Y5.81660
X45.51680 Y5.79120
X45.51680 Y5.76580
X45.51680 Y5.74040
X45.51680 Y5.71500
X45.51680 Y5.68960
X45.51680 Y5.66420
X45.51680 Y5.63880
X45.51680 Y5.61340
X45.51680 Y5.58800
X45.51680 Y5.56260
X45.51680 Y5.53720
X45.51680 Y5.51180
X45.51680 Y5.48640
X45.51680 Y5.46100
X45.51680 Y5.43560
X45.51680 Y5.41020
X45.51680 Y5.38480
X45.51680 Y5.35940
X45.51680 Y5.33400
X45.51680 Y5.30860
X45.51680 Y5.28320
X45.51680 Y5.25780
X45.51680 Y5.23240
X45.51680 Y5.20700
X45.51680 Y5.18160
X45.51680 Y5.15620
X45.51680 Y5.13080
X45.51680 Y5.10540
X45.51680 Y5.08000
X45.51680 Y5.05460
X45.51680 Y5.02920
X45.51680 Y5.00380
X45.51680 Y4.97840
X45.51680 Y4.95300
X45.51680 Y4.92760
X45.51680 Y4.90220
X45.51680 Y4.87680
X45.51680 Y4.85140
X45.51680 Y4.82600
X45.51680 Y4.80060
X45.51680 Y4.77520
X45.51680 Y4.74980
X45.51680 Y4.72440
X45.51680 Y4.69900
X45.51680 Y4.67360
X45.51680 Y4.64820
X45.51680 Y4.62280
X45.51680 Y4.59740
X45.51680 Y4.57200
X45.51680 Y4.54660
X45.51680 Y4.52120
X45.51680 Y4.49580
X45.51680 Y4.47040
X45.51680 Y4.44500
X45.51680 Y4.41960
X45.51680 Y4.39420
X45.51680 Y4.36880
X45.51680 Y4.34340
X45.51680 Y4.31800
X45.51680 Y4.29260
X45.51680 Y4.26720
X45.51680 Y4.24180
X45.51680 Y4.21640
X45.51680 Y4.19100
X45.51680 Y4.16560
X45.51680 Y4.14020
X45.51680 Y4.11480
X45.51680 Y4.08940
X45.51680 Y4.06400
X45.51680 Y4.03860
X45.51680 Y4.01320
X45.51680 Y3.98780
X45.51680 Y3.96240
X45.51680 Y3.93700
X45.51680 Y3.91160
X45.51680 Y3.88620
X45.51680 Y3.86080
X45.51680 Y3.83540
X45.51680 Y3.81000
X45.51680 Y3.78460
X45.51680 Y3.75920
X45.51680 Y3.73380
X45.51680 Y3.70840
X45.51680 Y3.68300
X45.51680 Y3.65760
X45.51680 Y3.63220
X45.51680 Y3.60680
X45.51680 Y3.58140
X45.51680 Y3.55600
X45.51680 Y3.53060
X45.51680 Y3.50520
X45.51680 Y3.47980
X45.51680 Y3.45440
X45.51680 Y3.42900
X45.51680 Y3.40360
X45.51680 Y3.37820
X45.51680 Y3.35280
X45.51680 Y3.32740
X45.51680 Y3.30200
X45.51680 Y3.27660
X45.51680 Y3.25120
X45.51680 Y3.22580
X45.51680 Y3.20040
X45.51680 Y3.17500
X45.51680 Y3.14960
X45.51680 Y3.12420
X45.51680 Y3.09880
X45.51680 Y3.07340
X45.51680 Y3.04800
X45.51680 Y3.02260
X45.51680 Y2.99720
X45.51680 Y2.97180
X45.51680 Y2.94640
X45.51680 Y2.92100
X45.51680 Y2.89560
X45.51680 Y2.87020
X45.51680 Y2.84480
X45.51680 Y2.81940
X45.51680 Y2.79400
X45.51680 Y2.76860
X45.51680 Y2.74320
X45.51680 Y2.71780
X45.51680 Y2.69240
X45.51680 Y2.66700
X45.51680 Y2.64160
X45.51680 Y2.61620
X45.51680 Y2.59080
X45.51680 Y2.56540
X45.51680 Y2.54000
X45.51680 Y2.51460
X45.51680 Y2.48920
X45.51680 Y2.46380
X45.51680 Y2.43840
X45.51680 Y2.41300
X45.51680 Y2.38760
X45.51680 Y2.36220
X45.51680 Y2.33680
X45.51680 Y2.31140
X45.51680 Y2.28600
X45.51680 Y2.26060
X45.51680 Y2.23520
X45.51680 Y2.20980
X45.51680 Y2.18440
X45.51680 Y2.15900
X45.51680 Y2.13360
X45.51680 Y2.10820
X45.51680 Y2.08280
X45.51680 Y2.05740
X45.51680 Y2.03200
X45.51680 Y2.00660
X45.51680 Y1.98120
X45.51680 Y1.95580
X45.51680 Y1.93040
X45.51680 Y1.90500
X45.51680 Y1.87960
X45.51680 Y1.85420
X45.51680 Y1.82880
X45.51680 Y1.80340
X45.51680 Y1.77800
X45.51680 Y1.75260
X45.51680 Y1.72720
X45.51680 Y1.70180
X45.51680 Y1.67640
X45.51680 Y1.65100
X45.51680 Y1.62560
X45.51680 Y1.60020
X45.51680 Y1.57480
X45.51680 Y1.54940
X45.51680 Y1.52400
X45.51680 Y1.49860
X45.51680 Y1.47320
X45.51680 Y1.44780
X45.51680 Y1.42240
X45.51680 Y1.39700
X45.51680 Y1.37160
X45.51680 Y1.34620
X45.51680 Y1.32080
X45.51680 Y1.29540
X45.51680 Y1.27000
X45.51680 Y1.24460
X45.51680 Y1.21920
X45.51680 Y1.19380
X45.51680 Y1.16840
X45.51680 Y1.14300
X45.51680 Y1.11760
X45.51680 Y1.09220
X45.51680 Y1.06680
X45.51680 Y1.04140
X45.51680 Y1.01600
X45.51680 Y0.99060
X45.51680 Y0.96520
X45.51680 Y0.93980
X45.51680 Y0.91440
X45.51680 Y0.88900
X45.51680 Y0.86360
X45.51680 Y0.83820
X45.51680 Y0.81280
X45.51680 Y0.78740
X45.51680 Y0.76200
X45.51680 Y0.73660
X45.51680 Y0.71120
X45.51680 Y0.68580
X45.51680 Y0.66040
X45.51680 Y0.63500
X45.51680 Y0.60960
X45.51680 Y0.58420
X45.51680 Y0.55880
X45.51680 Y0.53340
X45.51680 Y0.50800
X45.51680 Y0.48260
X45.51680 Y0.45720
X45.51680 Y0.43180
X45.51680 Y0.40640
X45.51680 Y0.38100
X45.51680 Y0.35560
X45.51680 Y0.33020
X45.51680 Y0.30480
X45.51680 Y0.27940
X45.51680 Y0.25400
X45.51680 Y0.22860
X45.51680 Y0.20320
X45.51680 Y0.17780
X45.51680 Y0.15240
X45.51680 Y0.12700
X45.51680 Y0.10160
X45.51680 Y0.07620
X45.51680 Y0.05080
X45.51680 Y0.02540
X45.51680 Y0.00000
X45.51680 Y-0.02540
X45.51680 Y-0.05080
X45.51680 Y-0.07620
X45.51680 Y-0.10160
X45.51680 Y-0.12700
X45.51680 Y-0.15240
X45.51680 Y-0.17780
X45.51680 Y-0.20320
X45.51680 Y-0.22860
X45.51680 Y-0.25400
X45.51680 Y-0.27940
X45.51680 Y-0.30480
X45.51680 Y-0.33020
X45.51680 Y-0.35560
X45.51680 Y-0.38100
X45.51680 Y-0.40640
X45.51680 Y-0.43180
X45.51680 Y-0.45720
X45.51680 Y-0.48260
X45.51680 Y-0.50800
X45.51680 Y-0.53340
X45.51680 Y-0.55880
X45.51680 Y-0.55880
X45.49140 Y-0.55880
X45.46600 Y-0.55880
X45.44060 Y-0.55880
X45.41520 Y-0.55880
X45.38980 Y-0.55880
X45.36440 Y-0.55880
X45.33900 Y-0.55880
X45.31360 Y-0.55880
X45.28820 Y-0.55880
X45.26280 Y-0.55880
X45.23740 Y-0.55880
X45.21200 Y-0.55880
X45.18660 Y-0.55880
X45.16120 Y-0.55880
X45.13580 Y-0.55880
X45.11040 Y-0.55880
X45.08500 Y-0.55880
X45.05960 Y-0.55880
X45.03420 Y-0.55880
X45.00880 Y-0.55880
X44.98340 Y-0.55880
X44.95800 Y-0.55880
X44.93260 Y-0.55880
X44.90720 Y-0.55880
X44.88180 Y-0.55880
X44.85640 Y-0.55880
X44.83100 Y-0.55880
X44.80560 Y-0.55880
X44.78020 Y-0.55880
X44.75480 Y-0.55880
X44.72940 Y-0.55880
X44.70400 Y-0.55880
X44.67860 Y-0.55880
X44.65320 Y-0.55880
X44.62780 Y-0.55880
X44.60240 Y-0.55880
X44.57700 Y-0.55880
X44.55160 Y-0.55880
X44.52620 Y-0.55880
X44.50080 Y-0.55880
X44.47540 Y-0.55880
X44.45000 Y-0.55880
X44.42460 Y-0.55880
X44.39920 Y-0.55880
X44.37380 Y-0.55880
X44.34840 Y-0.55880
X44.32300 Y-0.55880
X44.29760 Y-0.55880
X44.27220 Y-0.55880
X44.24680 Y-0.55880
X44.22140 Y-0.55880
X44.19600 Y-0.55880
X44.17060 Y-0.55880
X44.14520 Y-0.55880
X44.11980 Y-0.55880
X44.09440 Y-0.55880
X44.06900 Y-0.55880
X44.04360 Y-0.55880
X44.01820 Y-0.55880
X43.99280 Y-0.55880
X43.96740 Y-0.55880
X43.94200 Y-0.55880
X43.91660 Y-0.55880
X43.89120 Y-0.55880
X43.86580 Y-0.55880
X43.84040 Y-0.55880
X43.81500 Y-0.55880
X43.78960 Y-0.55880
X43.76420 Y-0.55880
X43.73880 Y-0.55880
X43.71340 Y-0.55880
X43.68800 Y-0.55880
X43.66260 Y-0.55880
X43.63720 Y-0.55880
X43.61180 Y-0.55880
X43.58640 Y-0.55880
X43.56100 Y-0.55880
X43.53560 Y-0.55880
X43.51020 Y-0.55880
X43.48480 Y-0.55880
X43.45940 Y-0.55880
X43.43400 Y-0.55880
X43.40860 Y-0.55880
X43.38320 Y-0.55880
X43.35780 Y-0.55880
X43.33240 Y-0.55880
X43.30700 Y-0.55880
X43.28160 Y-0.55880
X43.25620 Y-0.55880
X43.23080 Y-0.55880
X43.20540 Y-0.55880
X43.18000 Y-0.55880
X43.15460 Y-0.55880
X43.12920 Y-0.55880
X43.10380 Y-0.55880
X43.07840 Y-0.55880
X43.05300 Y-0.55880
X43.02760 Y-0.55880
X43.00220 Y-0.55880
X42.97680 Y-0.55880
X42.95140 Y-0.55880
X42.92600 Y-0.55880
X42.90060 Y-0.55880
X42.87520 Y-0.55880
X42.84980 Y-0.55880
X42.82440 Y-0.55880
X42.79900 Y-0.55880
X42.77360 Y-0.55880
X42.74820 Y-0.55880
X42.72280 Y-0.55880
X42.69740 Y-0.55880
X42.67200 Y-0.55880
X42.64660 Y-0.55880
X42.62120 Y-0.55880
X42.59580 Y-0.55880
X42.57040 Y-0.55880
X42.54500 Y-0.55880
X42.51960 Y-0.55880
X42.49420 Y-0.55880
X42.46880 Y-0.55880
X42.44340 Y-0.55880
X42.41800 Y-0.55880
X42.39260 Y-0.55880
X42.36720 Y-0.55880
X42.34180 Y-0.55880
X42.31640 Y-0.55880
X42.29100 Y-0.55880
X42.26560 Y-0.55880
X42.24020 Y-0.55880
X42.21480 Y-0.55880
X42.18940 Y-0.55880
X42.16400 Y-0.55880
X42.13860 Y-0.55880
X42.11320 Y-0.55880
X42.08780 Y-0.55880
X42.06240 Y-0.55880
X42.03700 Y-0.55880
X42.01160 Y-0.55880
X41.98620 Y-0.55880
X41.96080 Y-0.55880
X41.93540 Y-0.55880
X41.91000 Y-0.55880
X41.88460 Y-0.55880
X41.85920 Y-0.55880
X41.83380 Y-0.55880
X41.80840 Y-0.55880
X41.78300 Y-0.55880
X41.75760 Y-0.55880
X41.73220 Y-0.55880
X41.70680 Y-0.55880
X41.68140 Y-0.55880
X41.65600 Y-0.55880
X41.63060 Y-0.55880
X41.60520 Y-0.55880
X41.57980 Y-0.55880
X41.55440 Y-0.55880
X41.52900 Y-0.55880
X41.50360 Y-0.55880
X41.47820 Y-0.55880
X41.45280 Y-0.55880
X41.42740 Y-0.55880
X41.40200 Y-0.55880
X41.37660 Y-0.55880
X41.35120 Y-0.55880
X41.32580 Y-0.55880
X41.30040 Y-0.55880
X41.27500 Y-0.55880
X41.24960 Y-0.55880
X41.22420 Y-0.55880
X41.19880 Y-0.55880
X41.17340 Y-0.55880
X41.14800 Y-0.55880
X41.12260 Y-0.55880
X41.09720 Y-0.55880
X41.07180 Y-0.55880
X41.04640 Y-0.55880
X41.02100 Y-0.55880
X40.99560 Y-0.55880
X40.97020 Y-0.55880
X40.94480 Y-0.55880
X40.91940 Y-0.55880
X40.89400 Y-0.55880
X40.86860 Y-0.55880
X40.84320 Y-0.55880
X40.81780 Y-0.55880
X40.79240 Y-0.55880
X40.76700 Y-0.55880
X40.74160 Y-0.55880
X40.71620 Y-0.55880
X40.69080 Y-0.55880
X40.66540 Y-0.55880
X40.64000 Y-0.55880
X40.61460 Y-0.55880
X40.58920 Y-0.55880
X40.56380 Y-0.55880
X40.53840 Y-0.55880
X40.51300 Y-0.55880
X40.48760 Y-0.55880
X40.46220 Y-0.55880
X40.43680 Y-0.55880
X40.41140 Y-0.55880
X40.38600 Y-0.55880
X40.36060 Y-0.55880
X40.33520 Y-0.55880
X40.30980 Y-0.55880
X40.28440 Y-0.55880
X40.25900 Y-0.55880
X40.23360 Y-0.55880
X40.20820 Y-0.55880
X40.18280 Y-0.55880
X40.15740 Y-0.55880
X40.13200 Y-0.55880
X40.10660 Y-0.55880
X40.08120 Y-0.55880
X40.05580 Y-0.55880
X40.03040 Y-0.55880
X40.00500 Y-0.55880
X39.97960 Y-0.55880
X39.95420 Y-0.55880
X39.92880 Y-0.55880
X39.90340 Y-0.55880
X39.87800 Y-0.55880
X39.85260 Y-0.55880
X39.82720 Y-0.55880
X39.80180 Y-0.55880
X39.77640 Y-0.55880
X39.75100 Y-0.55880
X39.72560 Y-0.55880
X39.70020 Y-0.55880
X39.67480 Y-0.55880
X39.64940 Y-0.55880
X39.62400 Y-0.55880
X39.59860 Y-0.55880
X39.57320 Y-0.55880
X39.54780 Y-0.55880
X39.52240 Y-0.55880
X39.49700 Y-0.55880
X39.47160 Y-0.55880
X39.44620 Y-0.55880
X39.42080 Y-0.55880
X39.39540 Y-0.55880
X39.37000 Y-0.55880
X39.34460 Y-0.55880
X39.31920 Y-0.55880
X39.29380 Y-0.55880
X39.26840 Y-0.55880
X39.24300 Y-0.55880
X39.21760 Y-0.55880
X39.19220 Y-0.55880
X39.16680 Y-0.55880
X39.14140 Y-0.55880
X39.11600 Y-0.55880
X39.09060 Y-0.55880
X39.06520 Y-0.55880
X39.03980 Y-0.55880
X39.01440 Y-0.55880
X38.98900 Y-0.55880
X38.96360 Y-0.55880
X38.93820 Y-0.55880
X38.91280 Y-0.55880
X38.88740 Y-0.55880
X38.86200 Y-0.55880
X38.83660 Y-0.55880
X38.81120 Y-0.55880
X38.78580 Y-0.55880
X38.76040 Y-0.55880
X38.73500 Y-0.55880
X38.70960 Y-0.55880
X38.68420 Y-0.55880
X38.65880 Y-0.55880
X38.63340 Y-0.55880
X38.60800 Y-0.55880
X38.58260 Y-0.55880
X38.55720 Y-0.55880
X38.53180 Y-0.55880
X38.50640 Y-0.55880
X38.48100 Y-0.55880
X38.45560 Y-0.55880
X38.43020 Y-0.55880
X38.40480 Y-0.55880
X38.37940 Y-0.55880
X38.35400 Y-0.55880
X38.32860 Y-0.55880
X38.30320 Y-0.55880
X38.27780 Y-0.55880
X38.25240 Y-0.55880
X38.22700 Y-0.55880
X38.20160 Y-0.55880
X38.17620 Y-0.55880
X38.15080 Y-0.55880
X38.12540 Y-0.55880
X38.10000 Y-0.55880
X38.07460 Y-0.55880
X38.04920 Y-0.55880
X38.02380 Y-0.55880
X37.99840 Y-0.55880
X37.97300 Y-0.55880
X37.94760 Y-0.55880
X37.92220 Y-0.55880
X37.89680 Y-0.55880
X37.87140 Y-0.55880
X37.84600 Y-0.55880
X37.82060 Y-0.55880
X37.79520 Y-0.55880
X37.76980 Y-0.55880
X37.74440 Y-0.55880
X37.71900 Y-0.55880
X37.69360 Y-0.55880
X37.66820 Y-0.55880
X37.64280 Y-0.55880
X37.61740 Y-0.55880
X37.59200 Y-0.55880
X37.56660 Y-0.55880
X37.54120 Y-0.55880
X37.51580 Y-0.55880
X37.49040 Y-0.55880
X37.46500 Y-0.55880
X37.43960 Y-0.55880
X37.41420 Y-0.55880
X37.38880 Y-0.55880
X37.36340 Y-0.55880
X37.33800 Y-0.55880
X37.31260 Y-0.55880
X37.28720 Y-0.55880
X37.26180 Y-0.55880
X37.23640 Y-0.55880
X37.21100 Y-0.55880
X37.18560 Y-0.55880
X37.16020 Y-0.55880
X37.13480 Y-0.55880
X37.10940 Y-0.55880
X37.08400 Y-0.55880
X37.05860 Y-0.55880
X37.03320 Y-0.55880
X37.00780 Y-0.55880
X36.98240 Y-0.55880
X36.95700 Y-0.55880
X36.93160 Y-0.55880
X36.90620 Y-0.55880
X36.88080 Y-0.55880
X36.85540 Y-0.55880
X36.83000 Y-0.55880
X36.80460 Y-0.55880
X36.77920 Y-0.55880
X36.75380 Y-0.55880
X36.72840 Y-0.55880
X36.70300 Y-0.55880
X36.67760 Y-0.55880
X36.65220 Y-0.55880
X36.62680 Y-0.55880
X36.60140 Y-0.55880
X36.57600 Y-0.55880
X36.55060 Y-0.55880
X36.52520 Y-0.55880
X36.49980 Y-0.55880
X36.47440 Y-0.55880
X36.44900 Y-0.55880
X36.42360 Y-0.55880
X36.39820 Y-0.55880
X36.37280 Y-0.55880
X36.34740 Y-0.55880
X36.32200 Y-0.55880
X36.29660 Y-0.55880
X36.27120 Y-0.55880
X36.24580 Y-0.55880
X36.22040 Y-0.55880
X36.19500 Y-0.55880
X36.16960 Y-0.55880
X36.14420 Y-0.55880
X36.11880 Y-0.55880
X36.09340 Y-0.55880
X36.06800 Y-0.55880
X36.04260 Y-0.55880
X36.01720 Y-0.55880
X35.99180 Y-0.55880
X35.96640 Y-0.55880
X35.94100 Y-0.55880
X35.91560 Y-0.55880
X35.89020 Y-0.55880
X35.86480 Y-0.55880
X35.83940 Y-0.55880
X35.81400 Y-0.55880
X35.78860 Y-0.55880
X35.76320 Y-0.55880
X35.73780 Y-0.55880
X35.71240 Y-0.55880
X35.68700 Y-0.55880
X35.66160 Y-0.55880
X35.63620 Y-0.55880
X35.61080 Y-0.55880
X35.58540 Y-0.55880
X35.56000 Y-0.55880
X35.53460 Y-0.55880
X35.50920 Y-0.55880
X35.48380 Y-0.55880
X35.45840 Y-0.55880
X35.43300 Y-0.55880
X35.40760 Y-0.55880
X35.38220 Y-0.55880
X35.35680 Y-0.55880
X35.33140 Y-0.55880
X35.30600 Y-0.55880
X35.28060 Y-0.55880
X35.25520 Y-0.55880
X35.22980 Y-0.55880
X35.20440 Y-0.55880
X35.17900 Y-0.55880
X35.15360 Y-0.55880
X35.12820 Y-0.55880
X35.10280 Y-0.55880
X35.07740 Y-0.55880
X35.05200 Y-0.55880
X35.02660 Y-0.55880
X35.00120 Y-0.55880
X34.97580 Y-0.55880
X34.95040 Y-0.55880
X34.92500 Y-0.55880
X34.89960 Y-0.55880
X34.87420 Y-0.55880
X34.84880 Y-0.55880
X34.82340 Y-0.55880
X34.79800 Y-0.55880
X34.77260 Y-0.55880
X34.74720 Y-0.55880
X34.72180 Y-0.55880
X34.69640 Y-0.55880
X34.67100 Y-0.55880
X34.64560 Y-0.55880
X34.62020 Y-0.55880
X34.59480 Y-0.55880
X34.56940 Y-0.55880
X34.54400 Y-0.55880
X34.51860 Y-0.55880
X34.49320 Y-0.55880
X34.46780 Y-0.55880
X34.44240 Y-0.55880
X34.41700 Y-0.55880
X34.39160 Y-0.55880
X34.36620 Y-0.55880
X34.34080 Y-0.55880
X34.31540 Y-0.55880
X34.29000 Y-0.55880
X34.26460 Y-0.55880
X34.23920 Y-0.55880
X34.21380 Y-0.55880
X34.18840 Y-0.55880
X34.16300 Y-0.55880
X34.13760 Y-0.55880
X34.11220 Y-0.55880
X34.08680 Y-0.55880
X34.06140 Y-0.55880
X34.03600 Y-0.55880
X34.01060 Y-0.55880
X33.98520 Y-0.55880
X33.95980 Y-0.55880
X33.93440 Y-0.55880
X33.90900 Y-0.55880
X33.88360 Y-0.55880
X33.85820 Y-0.55880
X33.83280 Y-0.55880
X33.80740 Y-0.55880
X33.78200 Y-0.55880
X33.75660 Y-0.55880
X33.73120 Y-0.55880
X33.70580 Y-0.55880
X33.68040 Y-0.55880
X33.65500 Y-0.55880
X33.62960 Y-0.55880
X33.60420 Y-0.55880
X33.57880 Y-0.55880
X33.55340 Y-0.55880
X33.52800 Y-0.55880
X33.50260 Y-0.55880
X33.47720 Y-0.55880
X33.45180 Y-0.55880
X33.42640 Y-0.55880
X33.40100 Y-0.55880
X33.37560 Y-0.55880
X33.35020 Y-0.55880
X33.32480 Y-0.55880
X33.29940 Y-0.55880
X33.27400 Y-0.55880
X33.24860 Y-0.55880
X33.22320 Y-0.55880
X33.19780 Y-0.55880
X33.17240 Y-0.55880
X33.14700 Y-0.55880
X33.12160 Y-0.55880
X33.09620 Y-0.55880
X33.07080 Y-0.55880
X33.04540 Y-0.55880
X33.02000 Y-0.55880
X32.99460 Y-0.55880
X32.96920 Y-0.55880
X32.94380 Y-0.55880
X32.91840 Y-0.55880
X32.89300 Y-0.55880
X32.86760 Y-0.55880
X32.84220 Y-0.55880
X32.81680 Y-0.55880
X32.79140 Y-0.55880
X32.76600 Y-0.55880
X32.74060 Y-0.55880
X32.71520 Y-0.55880
X32.68980 Y-0.55880
X32.66440 Y-0.55880
X32.63900 Y-0.55880
X32.61360 Y-0.55880
X32.58820 Y-0.55880
X32.56280 Y-0.55880
X32.53740 Y-0.55880
X32.51200 Y-0.55880
X32.48660 Y-0.55880
X32.46120 Y-0.55880
X32.43580 Y-0.55880
X32.41040 Y-0.55880
X32.38500 Y-0.55880
X32.35960 Y-0.55880
X32.33420 Y-0.55880
X32.30880 Y-0.55880
X32.28340 Y-0.55880
X32.25800 Y-0.55880
X32.23260 Y-0.55880
X32.20720 Y-0.55880
X32.18180 Y-0.55880
X32.15640 Y-0.55880
X32.13100 Y-0.55880
X32.10560 Y-0.55880
X32.08020 Y-0.55880
X32.05480 Y-0.55880
X32.02940 Y-0.55880
X32.00400 Y-0.55880
X31.97860 Y-0.55880
X31.95320 Y-0.55880
X31.92780 Y-0.55880
X31.90240 Y-0.55880
X31.87700 Y-0.55880
X31.85160 Y-0.55880
X31.82620 Y-0.55880
X31.80080 Y-0.55880
X31.77540 Y-0.55880
X31.75000 Y-0.55880
X31.72460 Y-0.55880
X31.69920 Y-0.55880
X31.67380 Y-0.55880
X31.64840 Y-0.55880
X31.62300 Y-0.55880
X31.59760 Y-0.55880
X31.57220 Y-0.55880
X31.54680 Y-0.55880
X31.52140 Y-0.55880
X31.49600 Y-0.55880
X31.47060 Y-0.55880
X31.44520 Y-0.55880
X31.41980 Y-0.55880
X31.39440 Y-0.55880
X31.36900 Y-0.55880
X31.34360 Y-0.55880
X31.31820 Y-0.55880
X31.29280 Y-0.55880
X31.26740 Y-0.55880
X31.24200 Y-0.55880
X31.21660 Y-0.55880
X31.19120 Y-0.55880
X31.16580 Y-0.55880
X31.14040 Y-0.55880
X31.11500 Y-0.55880
X31.08960 Y-0.55880
X31.06420 Y-0.55880
X31.03880 Y-0.55880
X31.01340 Y-0.55880
X30.98800 Y-0.55880
X30.96260 Y-0.55880
X30.93720 Y-0.55880
X30.91180 Y-0.55880
X30.88640 Y-0.55880
X30.86100 Y-0.55880
X30.83560 Y-0.55880
X30.81020 Y-0.55880
X30.78480 Y-0.55880
X30.75940 Y-0.55880
X30.73400 Y-0.55880
X30.70860 Y-0.55880
X30.68320 Y-0.55880
X30.65780 Y-0.55880
X30.63240 Y-0.55880
X30.60700 Y-0.55880
X30.58160 Y-0.55880
X30.55620 Y-0.55880
X30.53080 Y-0.55880
X30.50540 Y-0.55880
X30.48000 Y-0.55880
X30.45460 Y-0.55880
X30.42920 Y-0.55880
X30.40380 Y-0.55880
X30.37840 Y-0.55880
X30.35300 Y-0.55880
X30.32760 Y-0.55880
X30.30220 Y-0.55880
X30.27680 Y-0.55880
X30.25140 Y-0.55880
X30.22600 Y-0.55880
X30.20060 Y-0.55880
X30.17520 Y-0.55880
X30.14980 Y-0.55880
X30.12440 Y-0.55880
X30.09900 Y-0.55880
X30.07360 Y-0.55880
X30.04820 Y-0.55880
X30.02280 Y-0.55880
X29.99740 Y-0.55880
X29.97200 Y-0.55880
X29.94660 Y-0.55880
X29.92120 Y-0.55880
X29.89580 Y-0.55880
X29.87040 Y-0.55880
X29.84500 Y-0.55880
X29.81960 Y-0.55880
X29.79420 Y-0.55880
X29.76880 Y-0.55880
X29.74340 Y-0.55880
X29.71800 Y-0.55880
X29.69260 Y-0.55880
X29.66720 Y-0.55880
X29.64180 Y-0.55880
X29.61640 Y-0.55880
X29.59100 Y-0.55880
X29.56560 Y-0.55880
X29.54020 Y-0.55880
X29.51480 Y-0.55880
X29.48940 Y-0.55880
X29.46400 Y-0.55880
X29.43860 Y-0.55880
X29.41320 Y-0.55880
X29.38780 Y-0.55880
X29.36240 Y-0.55880
X29.33700 Y-0.55880
X29.31160 Y-0.55880
X29.28620 Y-0.55880
X29.26080 Y-0.55880
X29.23540 Y-0.55880
X29.21000 Y-0.55880
X29.18460 Y-0.55880
X29.15920 Y-0.55880
X29.13380 Y-0.55880
X29.10840 Y-0.55880
X29.08300 Y-0.55880
X29.05760 Y-0.55880
X29.03220 Y-0.55880
X29.00680 Y-0.55880
X28.98140 Y-0.55880
X28.95600 Y-0.55880
X28.93060 Y-0.55880
X28.90520 Y-0.55880
X28.87980 Y-0.55880
X28.85440 Y-0.55880
X28.82900 Y-0.55880
X28.80360 Y-0.55880
X28.77820 Y-0.55880
X28.75280 Y-0.55880
X28.72740 Y-0.55880
X28.70200 Y-0.55880
X28.67660 Y-0.55880
X28.65120 Y-0.55880
X28.62580 Y-0.55880
X28.60040 Y-0.55880
X28.57500 Y-0.55880
X28.54960 Y-0.55880
X28.52420 Y-0.55880
X28.49880 Y-0.55880
X28.47340 Y-0.55880
X28.44800 Y-0.55880
X28.42260 Y-0.55880
X28.39720 Y-0.55880
X28.37180 Y-0.55880
X28.34640 Y-0.55880
X28.32100 Y-0.55880
X28.29560 Y-0.55880
X28.27020 Y-0.55880
X28.24480 Y-0.55880
X28.21940 Y-0.55880
X28.19400 Y-0.55880
X28.16860 Y-0.55880
X28.14320 Y-0.55880
X28.11780 Y-0.55880
X28.09240 Y-0.55880
X28.06700 Y-0.55880
X28.04160 Y-0.55880
X28.01620 Y-0.55880
X27.99080 Y-0.55880
X27.96540 Y-0.55880
X27.94000 Y-0.55880
X27.91460 Y-0.55880
X27.88920 Y-0.55880
X27.86380 Y-0.55880
X27.83840 Y-0.55880
X27.81300 Y-0.55880
X27.78760 Y-0.55880
X27.76220 Y-0.55880
X27.73680 Y-0.55880
X27.71140 Y-0.55880
X27.68600 Y-0.55880
X27.66060 Y-0.55880
X27.63520 Y-0.55880
X27.60980 Y-0.55880
X27.58440 Y-0.55880
X27.55900 Y-0.55880
X27.53360 Y-0.55880
X27.50820 Y-0.55880
X27.48280 Y-0.55880
X27.45740 Y-0.55880
X27.43200 Y-0.55880
X27.40660 Y-0.55880
X27.38120 Y-0.55880
X27.35580 Y-0.55880
X27.33040 Y-0.55880
X27.30500 Y-0.55880
X27.27960 Y-0.55880
X27.25420 Y-0.55880
X27.22880 Y-0.55880
X27.20340 Y-0.55880
X27.17800 Y-0.55880
X27.15260 Y-0.55880
X27.12720 Y-0.55880
X27.10180 Y-0.55880
X27.07640 Y-0.55880
X27.05100 Y-0.55880
X27.02560 Y-0.55880
X27.00020 Y-0.55880
X26.97480 Y-0.55880
X26.94940 Y-0.55880
X26.92400 Y-0.55880
X26.89860 Y-0.55880
X26.87320 Y-0.55880
X26.84780 Y-0.55880
X26.82240 Y-0.55880
X26.79700 Y-0.55880
X26.77160 Y-0.55880
X26.74620 Y-0.55880
X26.72080 Y-0.55880
X26.69540 Y-0.55880
X26.67000 Y-0.55880
X26.64460 Y-0.55880
X26.61920 Y-0.55880
X26.59380 Y-0.55880
X26.56840 Y-0.55880
X26.54300 Y-0.55880
X26.51760 Y-0.55880
X26.49220 Y-0.55880
X26.46680 Y-0.55880
X26.44140 Y-0.55880
X26.41600 Y-0.55880
X26.39060 Y-0.55880
X26.36520 Y-0.55880
X26.33980 Y-0.55880
X26.31440 Y-0.55880
X26.28900 Y-0.55880
X26.26360 Y-0.55880
X26.23820 Y-0.55880
X26.21280 Y-0.55880
X26.18740 Y-0.55880
X26.16200 Y-0.55880
X26.13660 Y-0.55880
X26.11120 Y-0.55880
X26.08580 Y-0.55880
X26.06040 Y-0.55880
X26.03500 Y-0.55880
X26.00960 Y-0.55880
X25.98420 Y-0.55880
X25.95880 Y-0.55880
X25.93340 Y-0.55880
X25.90800 Y-0.55880
X25.88260 Y-0.55880
X25.85720 Y-0.55880
X25.83180 Y-0.55880
X25.80640 Y-0.55880
X25.78100 Y-0.55880
X25.75560 Y-0.55880
X25.73020 Y-0.55880
X25.70480 Y-0.55880
X25.67940 Y-0.55880
X25.65400 Y-0.55880
X25.62860 Y-0.55880
X25.60320 Y-0.55880
X25.57780 Y-0.55880
X25.55240 Y-0.55880
X25.52700 Y-0.55880
X25.50160 Y-0.55880
X25.47620 Y-0.55880
X25.45080 Y-0.55880
X25.42540 Y-0.55880
X25.40000 Y-0.55880
X25.37460 Y-0.55880
X25.34920 Y-0.55880
X25.32380 Y-0.55880
X25.29840 Y-0.55880
X25.27300 Y-0.55880
X25.24760 Y-0.55880
X25.22220 Y-0.55880
X25.19680 Y-0.55880
X25.17140 Y-0.55880
X25.14600 Y-0.55880
X25.12060 Y-0.55880
X25.09520 Y-0.55880
X25.06980 Y-0.55880
X25.04440 Y-0.55880
X25.01900 Y-0.55880
X24.99360 Y-0.55880
X24.96820 Y-0.55880
X24.94280 Y-0.55880
X24.91740 Y-0.55880
X24.89200 Y-0.55880
X24.86660 Y-0.55880
X24.84120 Y-0.55880
X24.81580 Y-0.55880
X24.79040 Y-0.55880
X24.76500 Y-0.55880
X24.73960 Y-0.55880
X24.71420 Y-0.55880
X24.68880 Y-0.55880
X24.66340 Y-0.55880
X24.63800 Y-0.55880
X24.61260 Y-0.55880
X24.58720 Y-0.55880
X24.56180 Y-0.55880
X24.53640 Y-0.55880
X24.51100 Y-0.55880
X24.48560 Y-0.55880
X24.46020 Y-0.55880
X24.43480 Y-0.55880
X24.40940 Y-0.55880
X24.38400 Y-0.55880
X24.35860 Y-0.55880
X24.33320 Y-0.55880
X24.30780 Y-0.55880
X24.28240 Y-0.55880
X24.25700 Y-0.55880
X24.23160 Y-0.55880
X24.20620 Y-0.55880
X24.18080 Y-0.55880
X24.15540 Y-0.55880
X24.13000 Y-0.55880
X24.10460 Y-0.55880
X24.07920 Y-0.55880
X24.05380 Y-0.55880
X24.02840 Y-0.55880
X24.00300 Y-0.55880
X23.97760 Y-0.55880
X23.95220 Y-0.55880
X23.92680 Y-0.55880
X23.90140 Y-0.55880
X23.87600 Y-0.55880
X23.85060 Y-0.55880
X23.82520 Y-0.55880
X23.79980 Y-0.55880
X23.77440 Y-0.55880
X23.74900 Y-0.55880
X23.72360 Y-0.55880
X23.69820 Y-0.55880
X23.67280 Y-0.55880
X23.64740 Y-0.55880
X23.62200 Y-0.55880
X23.59660 Y-0.55880
X23.57120 Y-0.55880
X23.54580 Y-0.55880
X23.52040 Y-0.55880
X23.49500 Y-0.55880
X23.46960 Y-0.55880
X23.44420 Y-0.55880
X23.41880 Y-0.55880
X23.39340 Y-0.55880
X23.36800 Y-0.55880
X23.34260 Y-0.55880
X23.31720 Y-0.55880
X23.29180 Y-0.55880
X23.26640 Y-0.55880
X23.24100 Y-0.55880
X23.21560 Y-0.55880
X23.19020 Y-0.55880
X23.16480 Y-0.55880
X23.13940 Y-0.55880
X23.11400 Y-0.55880
X23.08860 Y-0.55880
X23.06320 Y-0.55880
X23.03780 Y-0.55880
X23.01240 Y-0.55880
X22.98700 Y-0.55880
X22.96160 Y-0.55880
X22.93620 Y-0.55880
X22.91080 Y-0.55880
X22.88540 Y-0.55880
X22.86000 Y-0.55880
X22.83460 Y-0.55880
X22.80920 Y-0.55880
X22.78380 Y-0.55880
X22.75840 Y-0.55880
X22.73300 Y-0.55880
X22.70760 Y-0.55880
X22.68220 Y-0.55880
X22.65680 Y-0.55880
X22.63140 Y-0.55880
X22.60600 Y-0.55880
X22.58060 Y-0.55880
X22.55520 Y-0.55880
X22.52980 Y-0.55880
X22.50440 Y-0.55880
X22.47900 Y-0.55880
X22.45360 Y-0.55880
X22.42820 Y-0.55880
X22.40280 Y-0.55880
X22.37740 Y-0.55880
X22.35200 Y-0.55880
X22.32660 Y-0.55880
X22.30120 Y-0.55880
X22.27580 Y-0.55880
X22.25040 Y-0.55880
X22.22500 Y-0.55880
X22.19960 Y-0.55880
X22.17420 Y-0.55880
X22.14880 Y-0.55880
X22.12340 Y-0.55880
X22.09800 Y-0.55880
X22.07260 Y-0.55880
X22.04720 Y-0.55880
X22.02180 Y-0.55880
X21.99640 Y-0.55880
X21.97100 Y-0.55880
X21.94560 Y-0.55880
X21.92020 Y-0.55880
X21.89480 Y-0.55880
X21.86940 Y-0.55880
X21.84400 Y-0.55880
X21.81860 Y-0.55880
X21.79320 Y-0.55880
X21.76780 Y-0.55880
X21.74240 Y-0.55880
X21.71700 Y-0.55880
X21.69160 Y-0.55880
X21.66620 Y-0.55880
X21.64080 Y-0.55880
X21.61540 Y-0.55880
X21.59000 Y-0.55880
X21.56460 Y-0.55880
X21.53920 Y-0.55880
X21.51380 Y-0.55880
X21.48840 Y-0.55880
X21.46300 Y-0.55880
X21.43760 Y-0.55880
X21.41220 Y-0.55880
X21.38680 Y-0.55880
X21.36140 Y-0.55880
X21.33600 Y-0.55880
X21.31060 Y-0.55880
X21.28520 Y-0.55880
X21.25980 Y-0.55880
X21.23440 Y-0.55880
X21.20900 Y-0.55880
X21.18360 Y-0.55880
X21.15820 Y-0.55880
X21.13280 Y-0.55880
X21.10740 Y-0.55880
X21.08200 Y-0.55880
X21.05660 Y-0.55880
X21.03120 Y-0.55880
X21.00580 Y-0.55880
X20.98040 Y-0.55880
X20.95500 Y-0.55880
X20.92960 Y-0.55880
X20.90420 Y-0.55880
X20.87880 Y-0.55880
X20.85340 Y-0.55880
X20.82800 Y-0.55880
X20.80260 Y-0.55880
X20.77720 Y-0.55880
X20.75180 Y-0.55880
X20.72640 Y-0.55880
X20.70100 Y-0.55880
X20.67560 Y-0.55880
X20.65020 Y-0.55880
X20.62480 Y-0.55880
X20.59940 Y-0.55880
X20.57400 Y-0.55880
X20.54860 Y-0.55880
X20.52320 Y-0.55880
X20.49780 Y-0.55880
X20.47240 Y-0.55880
X20.44700 Y-0.55880
X20.42160 Y-0.55880
X20.39620 Y-0.55880
X20.37080 Y-0.55880
X20.34540 Y-0.55880
X20.32000 Y-0.55880
X20.29460 Y-0.55880
X20.26920 Y-0.55880
X20.24380 Y-0.55880
X20.21840 Y-0.55880
X20.19300 Y-0.55880
X20.16760 Y-0.55880
X20.14220 Y-0.55880
X20.11680 Y-0.55880
X20.09140 Y-0.55880
X20.06600 Y-0.55880
X20.04060 Y-0.55880
X20.01520 Y-0.55880
X19.98980 Y-0.55880
X19.96440 Y-0.55880
X19.93900 Y-0.55880
X19.91360 Y-0.55880
X19.88820 Y-0.55880
X19.86280 Y-0.55880
X19.83740 Y-0.55880
X19.81200 Y-0.55880
X19.78660 Y-0.55880
X19.76120 Y-0.55880
X19.73580 Y-0.55880
X19.71040 Y-0.55880
X19.68500 Y-0.55880
X19.65960 Y-0.55880
X19.63420 Y-0.55880
X19.60880 Y-0.55880
X19.58340 Y-0.55880
X19.55800 Y-0.55880
X19.53260 Y-0.55880
X19.50720 Y-0.55880
X19.48180 Y-0.55880
X19.45640 Y-0.55880
X19.43100 Y-0.55880
X19.40560 Y-0.55880
X19.38020 Y-0.55880
X19.35480 Y-0.55880
X19.32940 Y-0.55880
X19.30400 Y-0.55880
X19.27860 Y-0.55880
X19.25320 Y-0.55880
X19.22780 Y-0.55880
X19.20240 Y-0.55880
X19.17700 Y-0.55880
X19.15160 Y-0.55880
X19.12620 Y-0.55880
X19.10080 Y-0.55880
X19.07540 Y-0.55880
X19.05000 Y-0.55880
X19.02460 Y-0.55880
X18.99920 Y-0.55880
X18.97380 Y-0.55880
X18.94840 Y-0.55880
X18.92300 Y-0.55880
X18.89760 Y-0.55880
X18.87220 Y-0.55880
X18.84680 Y-0.55880
X18.82140 Y-0.55880
X18.79600 Y-0.55880
X18.77060 Y-0.55880
X18.74520 Y-0.55880
X18.71980 Y-0.55880
X18.69440 Y-0.55880
X18.66900 Y-0.55880
X18.64360 Y-0.55880
X18.61820 Y-0.55880
X18.59280 Y-0.55880
X18.56740 Y-0.55880
X18.54200 Y-0.55880
X18.51660 Y-0.55880
X18.49120 Y-0.55880
X18.46580 Y-0.55880
X18.44040 Y-0.55880
X18.41500 Y-0.55880
X18.38960 Y-0.55880
X18.36420 Y-0.55880
X18.33880 Y-0.55880
X18.31340 Y-0.55880
X18.28800 Y-0.55880
X18.26260 Y-0.55880
X18.23720 Y-0.55880
X18.21180 Y-0.55880
X18.18640 Y-0.55880
X18.16100 Y-0.55880
X18.13560 Y-0.55880
X18.11020 Y-0.55880
X18.08480 Y-0.55880
X18.05940 Y-0.55880
X18.03400 Y-0.55880
X18.00860 Y-0.55880
X17.98320 Y-0.55880
X17.95780 Y-0.55880
X17.93240 Y-0.55880
X17.90700 Y-0.55880
X17.88160 Y-0.55880
X17.85620 Y-0.55880
X17.83080 Y-0.55880
X17.80540 Y-0.55880
X17.78000 Y-0.55880
X17.75460 Y-0.55880
X17.72920 Y-0.55880
X17.70380 Y-0.55880
X17.67840 Y-0.55880
X17.65300 Y-0.55880
X17.62760 Y-0.55880
X17.60220 Y-0.55880
X17.57680 Y-0.55880
X17.55140 Y-0.55880
X17.52600 Y-0.55880
X17.50060 Y-0.55880
X17.47520 Y-0.55880
X17.44980 Y-0.55880
X17.42440 Y-0.55880
X17.39900 Y-0.55880
X17.37360 Y-0.55880
X17.34820 Y-0.55880
X17.32280 Y-0.55880
X17.29740 Y-0.55880
X17.27200 Y-0.55880
X17.24660 Y-0.55880
X17.22120 Y-0.55880
X17.19580 Y-0.55880
X17.17040 Y-0.55880
X17.14500 Y-0.55880
X17.11960 Y-0.55880
X17.09420 Y-0.55880
X17.06880 Y-0.55880
X17.04340 Y-0.55880
X17.01800 Y-0.55880
X16.99260 Y-0.55880
X16.96720 Y-0.55880
X16.94180 Y-0.55880
X16.91640 Y-0.55880
X16.89100 Y-0.55880
X16.86560 Y-0.55880
X16.84020 Y-0.55880
X16.81480 Y-0.55880
X16.78940 Y-0.55880
X16.76400 Y-0.55880
X16.73860 Y-0.55880
X16.71320 Y-0.55880
X16.68780 Y-0.55880
X16.66240 Y-0.55880
X16.63700 Y-0.55880
X16.61160 Y-0.55880
X16.58620 Y-0.55880
X16.56080 Y-0.55880
X16.53540 Y-0.55880
X16.51000 Y-0.55880
X16.48460 Y-0.55880
X16.45920 Y-0.55880
X16.43380 Y-0.55880
X16.40840 Y-0.55880
X16.38300 Y-0.55880
X16.35760 Y-0.55880
X16.33220 Y-0.55880
X16.30680 Y-0.55880
X16.28140 Y-0.55880
X16.25600 Y-0.55880
X16.23060 Y-0.55880
X16.20520 Y-0.55880
X16.17980 Y-0.55880
X16.15440 Y-0.55880
X16.12900 Y-0.55880
X16.10360 Y-0.55880
X16.07820 Y-0.55880
X16.05280 Y-0.55880
X16.02740 Y-0.55880
X16.00200 Y-0.55880
X15.97660 Y-0.55880
X15.95120 Y-0.55880
X15.92580 Y-0.55880
X15.90040 Y-0.55880
X15.87500 Y-0.55880
X15.84960 Y-0.55880
X15.82420 Y-0.55880
X15.79880 Y-0.55880
X15.77340 Y-0.55880
X15.74800 Y-0.55880
X15.72260 Y-0.55880
X15.69720 Y-0.55880
X15.67180 Y-0.55880
X15.64640 Y-0.55880
X15.62100 Y-0.55880
X15.59560 Y-0.55880
X15.57020 Y-0.55880
X15.54480 Y-0.55880
X15.51940 Y-0.55880
X15.49400 Y-0.55880
X15.46860 Y-0.55880
X15.44320 Y-0.55880
X15.41780 Y-0.55880
X15.39240 Y-0.55880
X15.36700 Y-0.55880
X15.34160 Y-0.55880
X15.31620 Y-0.55880
X15.29080 Y-0.55880
X15.26540 Y-0.55880
X15.24000 Y-0.55880
X15.21460 Y-0.55880
X15.18920 Y-0.55880
X15.16380 Y-0.55880
X15.13840 Y-0.55880
X15.11300 Y-0.55880
X15.08760 Y-0.55880
X15.06220 Y-0.55880
X15.03680 Y-0.55880
X15.01140 Y-0.55880
X14.98600 Y-0.55880
X14.96060 Y-0.55880
X14.93520 Y-0.55880
X14.90980 Y-0.55880
X14.88440 Y-0.55880
X14.85900 Y-0.55880
X14.83360 Y-0.55880
X14.80820 Y-0.55880
X14.78280 Y-0.55880
X14.75740 Y-0.55880
X14.73200 Y-0.55880
X14.70660 Y-0.55880
X14.68120 Y-0.55880
X14.65580 Y-0.55880
X14.63040 Y-0.55880
X14.60500 Y-0.55880
X14.57960 Y-0.55880
X14.55420 Y-0.55880
X14.52880 Y-0.55880
X14.50340 Y-0.55880
X14.47800 Y-0.55880
X14.45260 Y-0.55880
X14.42720 Y-0.55880
X14.40180 Y-0.55880
X14.37640 Y-0.55880
X14.35100 Y-0.55880
X14.32560 Y-0.55880
X14.30020 Y-0.55880
X14.27480 Y-0.55880
X14.24940 Y-0.55880
X14.22400 Y-0.55880
X14.19860 Y-0.55880
X14.17320 Y-0.55880
X14.14780 Y-0.55880
X14.12240 Y-0.55880
X14.09700 Y-0.55880
X14.07160 Y-0.55880
X14.04620 Y-0.55880
X14.02080 Y-0.55880
X13.99540 Y-0.55880
X13.97000 Y-0.55880
X13.94460 Y-0.55880
X13.91920 Y-0.55880
X13.89380 Y-0.55880
X13.86840 Y-0.55880
X13.84300 Y-0.55880
X13.81760 Y-0.55880
X13.79220 Y-0.55880
X13.76680 Y-0.55880
X13.74140 Y-0.55880
X13.71600 Y-0.55880
X13.69060 Y-0.55880
X13.66520 Y-0.55880
X13.63980 Y-0.55880
X13.61440 Y-0.55880
X13.58900 Y-0.55880
X13.56360 Y-0.55880
X13.53820 Y-0.55880
X13.51280 Y-0.55880
X13.48740 Y-0.55880
X13.46200 Y-0.55880
X13.43660 Y-0.55880
X13.41120 Y-0.55880
X13.38580 Y-0.55880
X13.36040 Y-0.55880
X13.33500 Y-0.55880
X13.30960 Y-0.55880
X13.28420 Y-0.55880
X13.25880 Y-0.55880
X13.23340 Y-0.55880
X13.20800 Y-0.55880
X13.18260 Y-0.55880
X13.15720 Y-0.55880
X13.13180 Y-0.55880
X13.10640 Y-0.55880
X13.08100 Y-0.55880
X13.05560 Y-0.55880
X13.03020 Y-0.55880
X13.00480 Y-0.55880
X12.97940 Y-0.55880
X12.95400 Y-0.55880
X12.92860 Y-0.55880
X12.90320 Y-0.55880
X12.87780 Y-0.55880
X12.85240 Y-0.55880
X12.82700 Y-0.55880
X12.80160 Y-0.55880
X12.77620 Y-0.55880
X12.75080 Y-0.55880
X12.72540 Y-0.55880
X12.70000 Y-0.55880
X12.67460 Y-0.55880
X12.64920 Y-0.55880
X12.62380 Y-0.55880
X12.59840 Y-0.55880
X12.57300 Y-0.55880
X12.54760 Y-0.55880
X12.52220 Y-0.55880
X12.49680 Y-0.55880
X12.47140 Y-0.55880
X12.44600 Y-0.55880
X12.42060 Y-0.55880
X12.39520 Y-0.55880
X12.36980 Y-0.55880
X12.34440 Y-0.55880
X12.31900 Y-0.55880
X12.29360 Y-0.55880
X12.26820 Y-0.55880
X12.24280 Y-0.55880
X12.21740 Y-0.55880
X12.19200 Y-0.55880
X12.16660 Y-0.55880
X12.14120 Y-0.55880
X12.11580 Y-0.55880
X12.09040 Y-0.55880
X12.06500 Y-0.55880
X12.03960 Y-0.55880
X12.01420 Y-0.55880
X11.98880 Y-0.55880
X11.96340 Y-0.55880
X11.93800 Y-0.55880
X11.91260 Y-0.55880
X11.88720 Y-0.55880
X11.86180 Y-0.55880
X11.83640 Y-0.55880
X11.81100 Y-0.55880
X11.78560 Y-0.55880
X11.76020 Y-0.55880
X11.73480 Y-0.55880
X11.70940 Y-0.55880
X11.68400 Y-0.55880
X11.65860 Y-0.55880
X11.63320 Y-0.55880
X11.60780 Y-0.55880
X11.58240 Y-0.55880
X11.55700 Y-0.55880
X11.53160 Y-0.55880
X11.50620 Y-0.55880
X11.48080 Y-0.55880
X11.45540 Y-0.55880
X11.43000 Y-0.55880
X11.40460 Y-0.55880
X11.37920 Y-0.55880
X11.35380 Y-0.55880
X11.32840 Y-0.55880
X11.30300 Y-0.55880
X11.27760 Y-0.55880
X11.25220 Y-0.55880
X11.22680 Y-0.55880
X11.20140 Y-0.55880
X11.17600 Y-0.55880
X11.15060 Y-0.55880
X11.12520 Y-0.55880
X11.09980 Y-0.55880
X11.07440 Y-0.55880
X11.04900 Y-0.55880
X11.02360 Y-0.55880
X10.99820 Y-0.55880
X10.97280 Y-0.55880
X10.94740 Y-0.55880
X10.92200 Y-0.55880
X10.89660 Y-0.55880
X10.87120 Y-0.55880
X10.84580 Y-0.55880
X10.82040 Y-0.55880
X10.79500 Y-0.55880
X10.76960 Y-0.55880
X10.74420 Y-0.55880
X10.71880 Y-0.55880
X10.69340 Y-0.55880
X10.66800 Y-0.55880
X10.64260 Y-0.55880
X10.61720 Y-0.55880
X10.59180 Y-0.55880
X10.56640 Y-0.55880
X10.54100 Y-0.55880
X10.51560 Y-0.55880
X10.49020 Y-0.55880
X10.46480 Y-0.55880
X10.43940 Y-0.55880
X10.41400 Y-0.55880
X10.38860 Y-0.55880
X10.36320 Y-0.55880
X10.33780 Y-0.55880
X10.31240 Y-0.55880
X10.28700 Y-0.55880
X10.26160 Y-0.55880
X10.23620 Y-0.55880
X10.21080 Y-0.55880
X10.18540 Y-0.55880
X10.16000 Y-0.55880
X10.13460 Y-0.55880
X10.10920 Y-0.55880
X10.08380 Y-0.55880
X10.05840 Y-0.55880
X10.03300 Y-0.55880
X10.00760 Y-0.55880
X9.98220 Y-0.55880
X9.95680 Y-0.55880
X9.93140 Y-0.55880
X9.90600 Y-0.55880
X9.88060 Y-0.55880
X9.85520 Y-0.55880
X9.82980 Y-0.55880
X9.80440 Y-0.55880
X9.77900 Y-0.55880
X9.75360 Y-0.55880
X9.72820 Y-0.55880
X9.70280 Y-0.55880
X9.67740 Y-0.55880
X9.65200 Y-0.55880
X9.62660 Y-0.55880
X9.60120 Y-0.55880
X9.57580 Y-0.55880
X9.55040 Y-0.55880
X9.52500 Y-0.55880
X9.49960 Y-0.55880
X9.47420 Y-0.55880
X9.44880 Y-0.55880
X9.42340 Y-0.55880
X9.39800 Y-0.55880
X9.37260 Y-0.55880
X9.34720 Y-0.55880
X9.32180 Y-0.55880
X9.29640 Y-0.55880
X9.27100 Y-0.55880
X9.24560 Y-0.55880
X9.22020 Y-0.55880
X9.19480 Y-0.55880
X9.16940 Y-0.55880
X9.14400 Y-0.55880
X9.11860 Y-0.55880
X9.09320 Y-0.55880
X9.06780 Y-0.55880
X9.04240 Y-0.55880
X9.01700 Y-0.55880
X8.99160 Y-0.55880
X8.96620 Y-0.55880
X8.94080 Y-0.55880
X8.91540 Y-0.55880
X8.89000 Y-0.55880
X8.86460 Y-0.55880
X8.83920 Y-0.55880
X8.81380 Y-0.55880
X8.78840 Y-0.55880
X8.76300 Y-0.55880
X8.73760 Y-0.55880
X8.71220 Y-0.55880
X8.68680 Y-0.55880
X8.66140 Y-0.55880
X8.63600 Y-0.55880
X8.61060 Y-0.55880
X8.58520 Y-0.55880
X8.55980 Y-0.55880
X8.53440 Y-0.55880
X8.50900 Y-0.55880
X8.48360 Y-0.55880
X8.45820 Y-0.55880
X8.43280 Y-0.55880
X8.40740 Y-0.55880
X8.38200 Y-0.55880
X8.35660 Y-0.55880
X8.33120 Y-0.55880
X8.30580 Y-0.55880
X8.28040 Y-0.55880
X8.25500 Y-0.55880
X8.22960 Y-0.55880
X8.20420 Y-0.55880
X8.17880 Y-0.55880
X8.15340 Y-0.55880
X8.12800 Y-0.55880
X8.10260 Y-0.55880
X8.07720 Y-0.55880
X8.05180 Y-0.55880
X8.02640 Y-0.55880
X8.00100 Y-0.55880
X7.97560 Y-0.55880
X7.95020 Y-0.55880
X7.92480 Y-0.55880
X7.89940 Y-0.55880
X7.87400 Y-0.55880
X7.84860 Y-0.55880
X7.82320 Y-0.55880
X7.79780 Y-0.55880
X7.77240 Y-0.55880
X7.74700 Y-0.55880
X7.72160 Y-0.55880
X7.69620 Y-0.55880
X7.67080 Y-0.55880
X7.64540 Y-0.55880
X7.62000 Y-0.55880
X7.59460 Y-0.55880
X7.56920 Y-0.55880
X7.54380 Y-0.55880
X7.51840 Y-0.55880
X7.49300 Y-0.55880
X7.46760 Y-0.55880
X7.44220 Y-0.55880
X7.41680 Y-0.55880
X7.39140 Y-0.55880
X7.36600 Y-0.55880
X7.34060 Y-0.55880
X7.31520 Y-0.55880
X7.28980 Y-0.55880
X7.26440 Y-0.55880
X7.23900 Y-0.55880
X7.21360 Y-0.55880
X7.18820 Y-0.55880
X7.16280 Y-0.55880
X7.13740 Y-0.55880
X7.11200 Y-0.55880
X7.08660 Y-0.55880
X7.06120 Y-0.55880
X7.03580 Y-0.55880
X7.01040 Y-0.55880
X6.98500 Y-0.55880
X6.95960 Y-0.55880
X6.93420 Y-0.55880
X6.90880 Y-0.55880
X6.88340 Y-0.55880
X6.85800 Y-0.55880
X6.83260 Y-0.55880
X6.80720 Y-0.55880
X6.78180 Y-0.55880
X6.75640 Y-0.55880
X6.73100 Y-0.55880
X6.70560 Y-0.55880
X6.68020 Y-0.55880
X6.65480 Y-0.55880
X6.62940 Y-0.55880
X6.60400 Y-0.55880
X6.57860 Y-0.55880
X6.55320 Y-0.55880
X6.52780 Y-0.55880
X6.50240 Y-0.55880
X6.47700 Y-0.55880
X6.45160 Y-0.55880
X6.42620 Y-0.55880
X6.40080 Y-0.55880
X6.37540 Y-0.55880
X6.35000 Y-0.55880
X6.32460 Y-0.55880
X6.29920 Y-0.55880
X6.27380 Y-0.55880
X6.24840 Y-0.55880
X6.22300 Y-0.55880
X6.19760 Y-0.55880
X6.17220 Y-0.55880
X6.14680 Y-0.55880
X6.12140 Y-0.55880
X6.09600 Y-0.55880
X6.07060 Y-0.55880
X6.04520 Y-0.55880
X6.01980 Y-0.55880
X5.99440 Y-0.55880
X5.96900 Y-0.55880
X5.94360 Y-0.55880
X5.91820 Y-0.55880
X5.89280 Y-0.55880
X5.86740 Y-0.55880
X5.84200 Y-0.55880
X5.81660 Y-0.55880
X5.79120 Y-0.55880
X5.76580 Y-0.55880
X5.74040 Y-0.55880
X5.71500 Y-0.55880
X5.68960 Y-0.55880
X5.66420 Y-0.55880
X5.63880 Y-0.55880
X5.61340 Y-0.55880
X5.58800 Y-0.55880
X5.56260 Y-0.55880
X5.53720 Y-0.55880
X5.51180 Y-0.55880
X5.48640 Y-0.55880
X5.46100 Y-0.55880
X5.43560 Y-0.55880
X5.41020 Y-0.55880
X5.38480 Y-0.55880
X5.35940 Y-0.55880
X5.33400 Y-0.55880
X5.30860 Y-0.55880
X5.28320 Y-0.55880
X5.25780 Y-0.55880
X5.23240 Y-0.55880
X5.20700 Y-0.55880
X5.18160 Y-0.55880
X5.15620 Y-0.55880
X5.13080 Y-0.55880
X5.10540 Y-0.55880
X5.08000 Y-0.55880
X5.05460 Y-0.55880
X5.02920 Y-0.55880
X5.00380 Y-0.55880
X4.97840 Y-0.55880
X4.95300 Y-0.55880
X4.92760 Y-0.55880
X4.90220 Y-0.55880
X4.87680 Y-0.55880
X4.85140 Y-0.55880
X4.82600 Y-0.55880
X4.80060 Y-0.55880
X4.77520 Y-0.55880
X4.74980 Y-0.55880
X4.72440 Y-0.55880
X4.69900 Y-0.55880
X4.67360 Y-0.55880
X4.64820 Y-0.55880
X4.62280 Y-0.55880
X4.59740 Y-0.55880
X4.57200 Y-0.55880
X4.54660 Y-0.55880
X4.52120 Y-0.55880
X4.49580 Y-0.55880
X4.47040 Y-0.55880
X4.44500 Y-0.55880
X4.41960 Y-0.55880
X4.39420 Y-0.55880
X4.36880 Y-0.55880
X4.34340 Y-0.55880
X4.31800 Y-0.55880
X4.29260 Y-0.55880
X4.26720 Y-0.55880
X4.24180 Y-0.55880
X4.21640 Y-0.55880
X4.19100 Y-0.55880
X4.16560 Y-0.55880
X4.14020 Y-0.55880
X4.11480 Y-0.55880
X4.08940 Y-0.55880
X4.06400 Y-0.55880
X4.03860 Y-0.55880
X4.01320 Y-0.55880
X3.98780 Y-0.55880
X3.96240 Y-0.55880
X3.93700 Y-0.55880
X3.91160 Y-0.55880
X3.88620 Y-0.55880
X3.86080 Y-0.55880
X3.83540 Y-0.55880
X3.81000 Y-0.55880
X3.78460 Y-0.55880
X3.75920 Y-0.55880
X3.73380 Y-0.55880
X3.70840 Y-0.55880
X3.68300 Y-0.55880
X3.65760 Y-0.55880
X3.63220 Y-0.55880
X3.60680 Y-0.55880
X3.58140 Y-0.55880
X3.55600 Y-0.55880
X3.53060 Y-0.55880
X3.50520 Y-0.55880
X3.47980 Y-0.55880
X3.45440 Y-0.55880
X3.42900 Y-0.55880
X3.40360 Y-0.55880
X3.37820 Y-0.55880
X3.35280 Y-0.55880
X3.32740 Y-0.55880
X3.30200 Y-0.55880
X3.27660 Y-0.55880
X3.25120 Y-0.55880
X3.22580 Y-0.55880
X3.20040 Y-0.55880
X3.17500 Y-0.55880
X3.14960 Y-0.55880
X3.12420 Y-0.55880
X3.09880 Y-0.55880
X3.07340 Y-0.55880
X3.04800 Y-0.55880
X3.02260 Y-0.55880
X2.99720 Y-0.55880
X2.97180 Y-0.55880
X2.94640 Y-0.55880
X2.92100 Y-0.55880
X2.89560 Y-0.55880
X2.87020 Y-0.55880
X2.84480 Y-0.55880
X2.81940 Y-0.55880
X2.79400 Y-0.55880
X2.76860 Y-0.55880
X2.74320 Y-0.55880
X2.71780 Y-0.55880
X2.69240 Y-0.55880
X2.66700 Y-0.55880
X2.64160 Y-0.55880
X2.61620 Y-0.55880
X2.59080 Y-0.55880
X2.56540 Y-0.55880
X2.54000 Y-0.55880
X2.51460 Y-0.55880
X2.48920 Y-0.55880
X2.46380 Y-0.55880
X2.43840 Y-0.55880
X2.41300 Y-0.55880
X2.38760 Y-0.55880
X2.36220 Y-0.55880
X2.33680 Y-0.55880
X2.31140 Y-0.55880
X2.28600 Y-0.55880
X2.26060 Y-0.55880
X2.23520 Y-0.55880
X2.20980 Y-0.55880
X2.18440 Y-0.55880
X2.15900 Y-0.55880
X2.13360 Y-0.55880
X2.10820 Y-0.55880
X2.08280 Y-0.55880
X2.05740 Y-0.55880
X2.03200 Y-0.55880
X2.00660 Y-0.55880
X1.98120 Y-0.55880
X1.95580 Y-0.55880
X1.93040 Y-0.55880
X1.90500 Y-0.55880
X1.87960 Y-0.55880
X1.85420 Y-0.55880
X1.82880 Y-0.55880
X1.80340 Y-0.55880
X1.77800 Y-0.55880
X1.75260 Y-0.55880
X1.72720 Y-0.55880
X1.70180 Y-0.55880
X1.67640 Y-0.55880
X1.65100 Y-0.55880
X1.62560 Y-0.55880
X1.60020 Y-0.55880
X1.57480 Y-0.55880
X1.54940 Y-0.55880
X1.52400 Y-0.55880
X1.49860 Y-0.55880
X1.47320 Y-0.55880
X1.44780 Y-0.55880
X1.42240 Y-0.55880
X1.39700 Y-0.55880
X1.37160 Y-0.55880
X1.34620 Y-0.55880
X1.32080 Y-0.55880
X1.29540 Y-0.55880
X1.27000 Y-0.55880
X1.24460 Y-0.55880
X1.21920 Y-0.55880
X1.19380 Y-0.55880
X1.16840 Y-0.55880
X1.14300 Y-0.55880
X1.11760 Y-0.55880
X1.09220 Y-0.55880
X1.06680 Y-0.55880
X1.04140 Y-0.55880
X1.01600 Y-0.55880
X0.99060 Y-0.55880
X0.96520 Y-0.55880
X0.93980 Y-0.55880
X0.91440 Y-0.55880
X0.88900 Y-0.55880
X0.86360 Y-0.55880
X0.83820 Y-0.55880
X0.81280 Y-0.55880
X0.78740 Y-0.55880
X0.76200 Y-0.55880
X0.73660 Y-0.55880
X0.71120 Y-0.55880
X0.68580 Y-0.55880
X0.66040 Y-0.55880
X0.63500 Y-0.55880
X0.60960 Y-0.55880
X0.58420 Y-0.55880
X0.55880 Y-0.55880
X0.53340 Y-0.55880
X0.50800 Y-0.55880
X0.48260 Y-0.55880
X0.45720 Y-0.55880
X0.43180 Y-0.55880
X0.40640 Y-0.55880
X0.38100 Y-0.55880
X0.35560 Y-0.55880
X0.33020 Y-0.55880
X0.30480 Y-0.55880
X0.27940 Y-0.55880
X0.25400 Y-0.55880
X0.22860 Y-0.55880
X0.20320 Y-0.55880
X0.17780 Y-0.55880
X0.15240 Y-0.55880
X0.12700 Y-0.55880
X0.10160 Y-0.55880
X0.07620 Y-0.55880
X0.05080 Y-0.55880
X0.02540 Y-0.55880
X0.00000 Y-0.55880
X-0.02540 Y-0.55880
X-0.05080 Y-0.55880
X-0.07620 Y-0.55880
X-0.10160 Y-0.55880
X-0.12700 Y-0.55880
X-0.15240 Y-0.55880
X-0.17780 Y-0.55880
X-0.20320 Y-0.55880
X-0.22860 Y-0.55880
X-0.25400 Y-0.55880
X-0.27940 Y-0.55880
X-0.30480 Y-0.55880
X-0.33020 Y-0.55880
X-0.35560 Y-0.55880
X-0.38100 Y-0.55880
X-0.40640 Y-0.55880
X-0.43180 Y-0.55880
X-0.45720 Y-0.55880
X-0.48260 Y-0.55880
X-0.50800 Y-0.55880
X-0.53340 Y-0.55880
X-0.55880 Y-0.55880
X-0.55880 Y-0.55880
X-0.55880 Y-0.53340
X-0.55880 Y-0.50800
X-0.55880 Y-0.48260
X-0.55880 Y-0.45720
X-0.55880 Y-0.43180
X-0.55880 Y-0.40640
X-0.55880 Y-0.38100
X-0.55880 Y-0.35560
X-0.55880 Y-0.33020
X-0.55880 Y-0.30480
X-0.55880 Y-0.27940
X-0.55880 Y-0.25400
X-0.55880 Y-0.22860
X-0.55880 Y-0.20320
X-0.55880 Y-0.17780
X-0.55880 Y-0.15240
X-0.55880 Y-0.12700
X-0.55880 Y-0.10160
X-0.55880 Y-0.07620
X-0.55880 Y-0.05080
X-0.55880 Y-0.02540
X-0.55880 Y0.00000
X-0.55880 Y0.02540
X-0.55880 Y0.05080
X-0.55880 Y0.07620
X-0.55880 Y0.10160
X-0.55880 Y0.12700
X-0.55880 Y0.15240
X-0.55880 Y0.17780
X-0.55880 Y0.20320
X-0.55880 Y0.22860
X-0.55880 Y0.25400
X-0.55880 Y0.27940
X-0.55880 Y0.30480
X-0.55880 Y0.33020
X-0.55880 Y0.35560
X-0.55880 Y0.38100
X-0.55880 Y0.40640
X-0.55880 Y0.43180
X-0.55880 Y0.45720
X-0.55880 Y0.48260
X-0.55880 Y0.50800
X-0.55880 Y0.53340
X-0.55880 Y0.55880
X-0.55880 Y0.58420
X-0.55880 Y0.60960
X-0.55880 Y0.63500
X-0.55880 Y0.66040
X-0.55880 Y0.68580
X-0.55880 Y0.71120
X-0.55880 Y0.73660
X-0.55880 Y0.76200
X-0.55880 Y0.78740
X-0.55880 Y0.81280
X-0.55880 Y0.83820
X-0.55880 Y0.86360
X-0.55880 Y0.88900
X-0.55880 Y0.91440
X-0.55880 Y0.93980
X-0.55880 Y0.96520
X-0.55880 Y0.99060
X-0.55880 Y1.01600
X-0.55880 Y1.04140
X-0.55880 Y1.06680
X-0.55880 Y1.09220
X-0.55880 Y1.11760
X-0.55880 Y1.14300
X-0.55880 Y1.16840
X-0.55880 Y1.19380
X-0.55880 Y1.21920
X-0.55880 Y1.24460
X-0.55880 Y1.27000
X-0.55880 Y1.29540
X-0.55880 Y1.32080
X-0.55880 Y1.34620
X-0.55880 Y1.37160
X-0.55880 Y1.39700
X-0.55880 Y1.42240
X-0.55880 Y1.44780
X-0.55880 Y1.47320
X-0.55880 Y1.49860
X-0.55880 Y1.52400
X-0.55880 Y1.54940
X-0.55880 Y1.57480
X-0.55880 Y1.60020
X-0.55880 Y1.62560
X-0.55880 Y1.65100
X-0.55880 Y1.67640
X-0.55880 Y1.70180
X-0.55880 Y1.72720
X-0.55880 Y1.75260
X-0.55880 Y1.77800
X-0.55880 Y1.80340
X-0.55880 Y1.82880
X-0.55880 Y1.85420
X-0.55880 Y1.87960
X-0.55880 Y1.90500
X-0.55880 Y1.93040
X-0.55880 Y1.95580
X-0.55880 Y1.98120
X-0.55880 Y2.00660
X-0.55880 Y2.03200
X-0.55880 Y2.05740
X-0.55880 Y2.08280
X-0.55880 Y2.10820
X-0.55880 Y2.13360
X-0.55880 Y2.15900
X-0.55880 Y2.18440
X-0.55880 Y2.20980
X-0.55880 Y2.23520
X-0.55880 Y2.26060
X-0.55880 Y2.28600
X-0.55880 Y2.31140
X-0.55880 Y2.33680
X-0.55880 Y2.36220
X-0.55880 Y2.38760
X-0.55880 Y2.41300
X-0.55880 Y2.43840
X-0.55880 Y2.46380
X-0.55880 Y2.48920
X-0.55880 Y2.51460
X-0.55880 Y2.54000
X-0.55880 Y2.56540
X-0.55880 Y2.59080
X-0.55880 Y2.61620
X-0.55880 Y2.64160
X-0.55880 Y2.66700
X-0.55880 Y2.69240
X-0.55880 Y2.71780
X-0.55880 Y2.74320
X-0.55880 Y2.76860
X-0.55880 Y2.79400
X-0.55880 Y2.81940
X-0.55880 Y2.84480
X-0.55880 Y2.87020
X-0.55880 Y2.89560
X-0.55880 Y2.92100
X-0.55880 Y2.94640
X-0.55880 Y2.97180
X-0.55880 Y2.99720
X-0.55880 Y3.02260
X-0.55880 Y3.04800
X-0.55880 Y3.07340
X-0.55880 Y3.09880
X-0.55880 Y3.12420
X-0.55880 Y3.14960
X-0.55880 Y3.17500
X-0.55880 Y3.20040
X-0.55880 Y3.22580
X-0.55880 Y3.25120
X-0.55880 Y3.27660
X-0.55880 Y3.30200
X-0.55880 Y3.32740
X-0.55880 Y3.35280
X-0.55880 Y3.37820
X-0.55880 Y3.40360
X-0.55880 Y3.42900
X-0.55880 Y3.45440
X-0.55880 Y3.47980
X-0.55880 Y3.50520
X-0.55880 Y3.53060
X-0.55880 Y3.55600
X-0.55880 Y3.58140
X-0.55880 Y3.60680
X-0.55880 Y3.63220
X-0.55880 Y3.65760
X-0.55880 Y3.68300
X-0.55880 Y3.70840
X-0.55880 Y3.73380
X-0.55880 Y3.75920
X-0.55880 Y3.78460
X-0.55880 Y3.81000
X-0.55880 Y3.83540
X-0.55880 Y3.86080
X-0.55880 Y3.88620
X-0.55880 Y3.91160
X-0.55880 Y3.93700
X-0.55880 Y3.96240
X-0.55880 Y3.98780
X-0.55880 Y4.01320
X-0.55880 Y4.03860
X-0.55880 Y4.06400
X-0.55880 Y4.08940
X-0.55880 Y4.11480
X-0.55880 Y4.14020
X-0.55880 Y4.16560
X-0.55880 Y4.19100
X-0.55880 Y4.21640
X-0.55880 Y4.24180
X-0.55880 Y4.26720
X-0.55880 Y4.29260
X-0.55880 Y4.31800
X-0.55880 Y4.34340
X-0.55880 Y4.36880
X-0.55880 Y4.39420
X-0.55880 Y4.41960
X-0.55880 Y4.44500
X-0.55880 Y4.47040
X-0.55880 Y4.49580
X-0.55880 Y4.52120
X-0.55880 Y4.54660
X-0.55880 Y4.57200
X-0.55880 Y4.59740
X-0.55880 Y4.62280
X-0.55880 Y4.64820
X-0.55880 Y4.67360
X-0.55880 Y4.69900
X-0.55880 Y4.72440
X-0.55880 Y4.74980
X-0.55880 Y4.77520
X-0.55880 Y4.80060
X-0.55880 Y4.82600
X-0.55880 Y4.85140
X-0.55880 Y4.87680
X-0.55880 Y4.90220
X-0.55880 Y4.92760
X-0.55880 Y4.95300
X-0.55880 Y4.97840
X-0.55880 Y5.00380
X-0.55880 Y5.02920
X-0.55880 Y5.05460
X-0.55880 Y5.08000
X-0.55880 Y5.10540
X-0.55880 Y5.13080
X-0.55880 Y5.15620
X-0.55880 Y5.18160
X-0.55880 Y5.20700
X-0.55880 Y5.23240
X-0.55880 Y5.25780
X-0.55880 Y5.28320
X-0.55880 Y5.30860
X-0.55880 Y5.33400
X-0.55880 Y5.35940
X-0.55880 Y5.38480
X-0.55880 Y5.41020
X-0.55880 Y5.43560
X-0.55880 Y5.46100
X-0.55880 Y5.48640
X-0.55880 Y5.51180
X-0.55880 Y5.53720
X-0.55880 Y5.56260
X-0.55880 Y5.58800
X-0.55880 Y5.61340
X-0.55880 Y5.63880
X-0.55880 Y5.66420
X-0.55880 Y5.68960
X-0.55880 Y5.71500
X-0.55880 Y5.74040
X-0.55880 Y5.76580
X-0.55880 Y5.79120
X-0.55880 Y5.81660
X-0.55880 Y5.84200
X-0.55880 Y5.86740
X-0.55880 Y5.89280
X-0.55880 Y5.91820
X-0.55880 Y5.94360
X-0.55880 Y5.96900
X-0.55880 Y5.99440
X-0.55880 Y6.01980
X-0.55880 Y6.04520
X-0.55880 Y6.07060
X-0.55880 Y6.09600
X-0.55880 Y6.12140
X-0.55880 Y6.14680
X-0.55880 Y6.17220
X-0.55880 Y6.19760
X-0.55880 Y6.22300
X-0.55880 Y6.24840
X-0.55880 Y6.27380
X-0.55880 Y6.29920
X-0.55880 Y6.32460
X-0.55880 Y6.35000
X-0.55880 Y6.37540
X-0.55880 Y6.40080
X-0.55880 Y6.42620
X-0.55880 Y6.45160
X-0.55880 Y6.47700
X-0.55880 Y6.50240
X-0.55880 Y6.52780
X-0.55880 Y6.55320
X-0.55880 Y6.57860
X-0.55880 Y6.60400
X-0.55880 Y6.62940
X-0.55880 Y6.65480
X-0.55880 Y6.68020
X-0.55880 Y6.70560
X-0.55880 Y6.73100
X-0.55880 Y6.75640
X-0.55880 Y6.78180
X-0.55880 Y6.80720
X-0.55880 Y6.83260
X-0.55880 Y6.85800
X-0.55880 Y6.88340
X-0.55880 Y6.90880
X-0.55880 Y6.93420
X-0.55880 Y6.95960
X-0.55880 Y6.98500
X-0.55880 Y7.01040
X-0.55880 Y7.03580
X-0.55880 Y7.06120
X-0.55880 Y7.08660
X-0.55880 Y7.11200
X-0.55880 Y7.13740
X-0.55880 Y7.16280
X-0.55880 Y7.18820
X-0.55880 Y7.21360
X-0.55880 Y7.23900
X-0.55880 Y7.26440
X-0.55880 Y7.28980
X-0.55880 Y7.31520
X-0.55880 Y7.34060
X-0.55880 Y7.36600
X-0.55880 Y7.39140
X-0.55880 Y7.41680
X-0.55880 Y7.44220
X-0.55880 Y7.46760
X-0.55880 Y7.49300
X-0.55880 Y7.51840
X-0.55880 Y7.54380
X-0.55880 Y7.56920
X-0.55880 Y7.59460
X-0.55880 Y7.62000
X-0.55880 Y7.64540
X-0.55880 Y7.67080
X-0.55880 Y7.69620
X-0.55880 Y7.72160
X-0.55880 Y7.74700
X-0.55880 Y7.77240
X-0.55880 Y7.79780
X-0.55880 Y7.82320
X-0.55880 Y7.84860
X-0.55880 Y7.87400
X-0.55880 Y7.89940
X-0.55880 Y7.92480
X-0.55880 Y7.95020
X-0.55880 Y7.97560
X-0.55880 Y8.00100
X-0.55880 Y8.02640
X-0.55880 Y8.05180
X-0.55880 Y8.07720
X-0.55880 Y8.10260
X-0.55880 Y8.12800
X-0.55880 Y8.15340
X-0.55880 Y8.17880
X-0.55880 Y8.20420
X-0.55880 Y8.22960
X-0.55880 Y8.25500
X-0.55880 Y8.28040
X-0.55880 Y8.30580
X-0.55880 Y8.33120
X-0.55880 Y8.35660
X-0.55880 Y8.38200
X-0.55880 Y8.40740
X-0.55880 Y8.43280
X-0.55880 Y8.45820
X-0.55880 Y8.48360
X-0.55880 Y8.50900
X-0.55880 Y8.53440
X-0.55880 Y8.55980
X-0.55880 Y8.58520
X-0.55880 Y8.61060
X-0.55880 Y8.63600
X-0.55880 Y8.66140
X-0.55880 Y8.68680
X-0.55880 Y8.71220
X-0.55880 Y8.73760
X-0.55880 Y8.76300
X-0.55880 Y8.78840
X-0.55880 Y8.81380
X-0.55880 Y8.83920
X-0.55880 Y8.86460
X-0.55880 Y8.89000
X-0.55880 Y8.91540
X-0.55880 Y8.94080
X-0.55880 Y8.96620
X-0.55880 Y8.99160
X-0.55880 Y9.01700
X-0.55880 Y9.04240
X-0.55880 Y9.06780
X-0.55880 Y9.09320
X-0.55880 Y9.11860
X-0.55880 Y9.14400
X-0.55880 Y9.16940
X-0.55880 Y9.19480
X-0.55880 Y9.22020
X-0.55880 Y9.24560
X-0.55880 Y9.27100
X-0.55880 Y9.29640
X-0.55880 Y9.32180
X-0.55880 Y9.34720
X-0.55880 Y9.37260
X-0.55880 Y9.39800
X-0.55880 Y9.42340
X-0.55880 Y9.44880
X-0.55880 Y9.47420
X-0.55880 Y9.49960
X-0.55880 Y9.52500
X-0.55880 Y9.55040
X-0.55880 Y9.57580
X-0.55880 Y9.60120
X-0.55880 Y9.62660
X-0.55880 Y9.65200
X-0.55880 Y9.67740
X-0.55880 Y9.70280
X-0.55880 Y9.72820
X-0.55880 Y9.75360
X-0.55880 Y9.77900
X-0.55880 Y9.80440
X-0.55880 Y9.82980
X-0.55880 Y9.85520
X-0.55880 Y9.88060
X-0.55880 Y9.90600
X-0.55880 Y9.93140
X-0.55880 Y9.95680
X-0.55880 Y9.98220
X-0.55880 Y10.00760
X-0.55880 Y10.03300
X-0.55880 Y10.05840
X-0.55880 Y10.08380
X-0.55880 Y10.10920
X-0.55880 Y10.13460
X-0.55880 Y10.16000
X-0.55880 Y10.18540
X-0.55880 Y10.21080
X-0.55880 Y10.23620
X-0.55880 Y10.26160
X-0.55880 Y10.28700
X-0.55880 Y10.31240
X-0.55880 Y10.33780
X-0.55880 Y10.36320
X-0.55880 Y10.38860
X-0.55880 Y10.41400
X-0.55880 Y10.43940
X-0.55880 Y10.46480
X-0.55880 Y10.49020
X-0.55880 Y10.51560
X-0.55880 Y10.54100
X-0.55880 Y10.56640
X-0.55880 Y10.59180
X-0.55880 Y10.61720
X-0.55880 Y10.64260
X-0.55880 Y10.66800
X-0.55880 Y10.69340
X-0.55880 Y10.71880
X-0.55880 Y10.74420
X-0.55880 Y10.76960
X-0.55880 Y10.79500
X-0.55880 Y10.82040
X-0.55880 Y10.84580
X-0.55880 Y10.87120
X-0.55880 Y10.89660
X-0.55880 Y10.92200
X-0.55880 Y10.94740
X-0.55880 Y10.97280
X-0.55880 Y10.99820
X-0.55880 Y11.02360
X-0.55880 Y11.04900
X-0.55880 Y11.07440
X-0.55880 Y11.09980
X-0.55880 Y11.12520
X-0.55880 Y11.15060
X-0.55880 Y11.17600
X-0.55880 Y11.20140
X-0.55880 Y11.22680
X-0.55880 Y11.25220
X-0.55880 Y11.27760
X-0.55880 Y11.30300
X-0.55880 Y11.32840
X-0.55880 Y11.35380
X-0.55880 Y11.37920
X-0.55880 Y11.40460
X-0.55880 Y11.43000
X-0.55880 Y11.45540
X-0.55880 Y11.48080
X-0.55880 Y11.50620
X-0.55880 Y11.53160
X-0.55880 Y11.55700
X-0.55880 Y11.58240
X-0.55880 Y11.60780
X-0.55880 Y11.63320
X-0.55880 Y11.65860
X-0.55880 Y11.68400
X-0.55880 Y11.70940
X-0.55880 Y11.73480
X-0.55880 Y11.76020
X-0.55880 Y11.78560
X-0.55880 Y11.81100
X-0.55880 Y11.83640
X-0.55880 Y11.86180
X-0.55880 Y11.88720
X-0.55880 Y11.91260
X-0.55880 Y11.93800
X-0.55880 Y11.96340
X-0.55880 Y11.98880
X-0.55880 Y12.01420
X-0.55880 Y12.03960
X-0.55880 Y12.06500
X-0.55880 Y12.09040
X-0.55880 Y12.11580
X-0.55880 Y12.14120
X-0.55880 Y12.16660
X-0.55880 Y12.19200
X-0.55880 Y12.21740
X-0.55880 Y12.24280
X-0.55880 Y12.26820
X-0.55880 Y12.29360
X-0.55880 Y12.31900
X-0.55880 Y12.34440
X-0.55880 Y12.36980
X-0.55880 Y12.39520
X-0.55880 Y12.42060
X-0.55880 Y12.44600
X-0.55880 Y12.47140
X-0.55880 Y12.49680
X-0.55880 Y12.52220
X-0.55880 Y12.54760
X-0.55880 Y12.57300
X-0.55880 Y12.59840
X-0.55880 Y12.62380
X-0.55880 Y12.64920
X-0.55880 Y12.67460
X-0.55880 Y12.70000
X-0.55880 Y12.72540
X-0.55880 Y12.75080
X-0.55880 Y12.77620
X-0.55880 Y12.80160
X-0.55880 Y12.82700
X-0.55880 Y12.85240
X-0.55880 Y12.87780
X-0.55880 Y12.90320
X-0.55880 Y12.92860
X-0.55880 Y12.95400
X-0.55880 Y12.97940
X-0.55880 Y13.00480
X-0.55880 Y13.03020
X-0.55880 Y13.05560
X-0.55880 Y13.08100
X-0.55880 Y13.10640
X-0.55880 Y13.13180
X-0.55880 Y13.15720
X-0.55880 Y13.18260
X-0.55880 Y13.20800
X-0.55880 Y13.23340
X-0.55880 Y13.25880
X-0.55880 Y13.28420
X-0.55880 Y13.30960
X-0.55880 Y13.33500
X-0.55880 Y13.36040
X-0.55880 Y13.38580
X-0.55880 Y13.41120
X-0.55880 Y13.43660
X-0.55880 Y13.46200
X-0.55880 Y13.48740
X-0.55880 Y13.51280
X-0.55880 Y13.53820
X-0.55880 Y13.56360
X-0.55880 Y13.58900
X-0.55880 Y13.61440
X-0.55880 Y13.63980
X-0.55880 Y13.66520
X-0.55880 Y13.69060
X-0.55880 Y13.71600
X-0.55880 Y13.74140
X-0.55880 Y13.76680
X-0.55880 Y13.79220
X-0.55880 Y13.81760
X-0.55880 Y13.84300
X-0.55880 Y13.86840
X-0.55880 Y13.89380
X-0.55880 Y13.91920
X-0.55880 Y13.94460
X-0.55880 Y13.97000
X-0.55880 Y13.99540
X-0.55880 Y14.02080
X-0.55880 Y14.04620
X-0.55880 Y14.07160
X-0.55880 Y14.09700
X-0.55880 Y14.12240
X-0.55880 Y14.14780
X-0.55880 Y14.17320
X-0.55880 Y14.19860
X-0.55880 Y14.22400
X-0.55880 Y14.24940
X-0.55880 Y14.27480
X-0.55880 Y14.30020
X-0.55880 Y14.32560
X-0.55880 Y14.35100
X-0.55880 Y14.37640
X-0.55880 Y14.40180
X-0.55880 Y14.42720
X-0.55880 Y14.45260
X-0.55880 Y14.47800
X-0.55880 Y14.50340
X-0.55880 Y14.52880
X-0.55880 Y14.55420
X-0.55880 Y14.57960
X-0.55880 Y14.60500
X-0.55880 Y14.63040
X-0.55880 Y14.65580
X-0.55880 Y14.68120
X-0.55880 Y14.70660
X-0.55880 Y14.73200
X-0.55880 Y14.75740
X-0.55880 Y14.78280
X-0.55880 Y14.80820
X-0.55880 Y14.83360
X-0.55880 Y14.85900
X-0.55880 Y14.88440
X-0.55880 Y14.90980
X-0.55880 Y14.93520
X-0.55880 Y14.96060
X-0.55880 Y14.98600
X-0.55880 Y15.01140
X-0.55880 Y15.03680
X-0.55880 Y15.06220
X-0.55880 Y15.08760
X-0.55880 Y15.11300
X-0.55880 Y15.13840
X-0.55880 Y15.16380
X-0.55880 Y15.18920
X-0.55880 Y15.21460
X-0.55880 Y15.24000
X-0.55880 Y15.26540
X-0.55880 Y15.29080
X-0.55880 Y15.31620
X-0.55880 Y15.34160
X-0.55880 Y15.36700
X-0.55880 Y15.39240
X-0.55880 Y15.41780
X-0.55880 Y15.44320
X-0.55880 Y15.46860
X-0.55880 Y15.49400
X-0.55880 Y15.51940
X-0.55880 Y15.54480
X-0.55880 Y15.57020
X-0.55880 Y15.59560
X-0.55880 Y15.62100
X-0.55880 Y15.64640
X-0.55880 Y15.67180
X-0.55880 Y15.69720
X-0.55880 Y15.72260
X-0.55880 Y15.74800
X-0.55880 Y15.77340
X-0.55880 Y15.79880
X-0.55880 Y15.82420
X-0.55880 Y15.84960
X-0.55880 Y15.87500
X-0.55880 Y15.90040
X-0.55880 Y15.92580
X-0.55880 Y15.95120
X-0.55880 Y15.97660
X-0.55880 Y16.00200
X-0.55880 Y16.02740
X-0.55880 Y16.05280
X-0.55880 Y16.07820
X-0.55880 Y16.10360
X-0.55880 Y16.12900
X-0.55880 Y16.15440
X-0.55880 Y16.17980
X-0.55880 Y16.20520
X-0.55880 Y16.23060
X-0.55880 Y16.25600
X-0.55880 Y16.28140
X-0.55880 Y16.30680
X-0.55880 Y16.33220
X-0.55880 Y16.35760
X-0.55880 Y16.38300
X-0.55880 Y16.40840
X-0.55880 Y16.43380
X-0.55880 Y16.45920
X-0.55880 Y16.48460
X-0.55880 Y16.51000
X-0.55880 Y16.53540
X-0.55880 Y16.56080
X-0.55880 Y16.58620
X-0.55880 Y16.61160
X-0.55880 Y16.63700
X-0.55880 Y16.66240
X-0.55880 Y16.68780
X-0.55880 Y16.71320
X-0.55880 Y16.73860
X-0.55880 Y16.76400
X-0.55880 Y16.78940
X-0.55880 Y16.81480
X-0.55880 Y16.84020
X-0.55880 Y16.86560
X-0.55880 Y16.89100
X-0.55880 Y16.91640
X-0.55880 Y16.94180
X-0.55880 Y16.96720
X-0.55880 Y16.99260
X-0.55880 Y17.01800
X-0.55880 Y17.04340
X-0.55880 Y17.06880
X-0.55880 Y17.09420
X-0.55880 Y17.11960
X-0.55880 Y17.14500
X-0.55880 Y17.17040
X-0.55880 Y17.19580
X-0.55880 Y17.22120
X-0.55880 Y17.24660
X-0.55880 Y17.27200
X-0.55880 Y17.29740
X-0.55880 Y17.32280
X-0.55880 Y17.34820
X-0.55880 Y17.37360
X-0.55880 Y17.39900
X-0.55880 Y17.42440
X-0.55880 Y17.44980
X-0.55880 Y17.47520
X-0.55880 Y17.50060
X-0.55880 Y17.52600
X-0.55880 Y17.55140
X-0.55880 Y17.57680
X-0.55880 Y17.60220
X-0.55880 Y17.62760
X-0.55880 Y17.65300
X-0.55880 Y17.67840
X-0.55880 Y17.70380
X-0.55880 Y17.72920
X-0.55880 Y17.75460
X-0.55880 Y17.78000
X-0.55880 Y17.80540
X-0.55880 Y17.83080
X-0.55880 Y17.85620
X-0.55880 Y17.88160
X-0.55880 Y17.90700
X-0.55880 Y17.93240
X-0.55880 Y17.95780
X-0.55880 Y17.98320
X-0.55880 Y18.00860
X-0.55880 Y18.03400
X-0.55880 Y18.05940
X-0.55880 Y18.08480
X-0.55880 Y18.11020
X-0.55880 Y18.13560
X-0.55880 Y18.16100
X-0.55880 Y18.18640
X-0.55880 Y18.21180
X-0.55880 Y18.23720
X-0.55880 Y18.26260
X-0.55880 Y18.28800
X-0.55880 Y18.31340
X-0.55880 Y18.33880
X-0.55880 Y18.36420
X-0.55880 Y18.38960
X-0.55880 Y18.41500
X-0.55880 Y18.44040
X-0.55880 Y18.46580
X-0.55880 Y18.49120
X-0.55880 Y18.51660
X-0.55880 Y18.54200
X-0.55880 Y18.56740
X-0.55880 Y18.59280
X-0.55880 Y18.61820
X-0.55880 Y18.64360
X-0.55880 Y18.66900
X-0.55880 Y18.69440
X-0.55880 Y18.71980
X-0.55880 Y18.74520
X-0.55880 Y18.77060
X-0.55880 Y18.79600
X-0.55880 Y18.82140
X-0.55880 Y18.84680
X-0.55880 Y18.87220
X-0.55880 Y18.89760
X-0.55880 Y18.92300
X-0.55880 Y18.94840
X-0.55880 Y18.97380
X-0.55880 Y18.99920
X-0.55880 Y19.02460
X-0.55880 Y19.05000
X-0.55880 Y19.07540
X-0.55880 Y19.10080
X-0.55880 Y19.12620
X-0.55880 Y19.15160
X-0.55880 Y19.17700
X-0.55880 Y19.20240
X-0.55880 Y19.22780
X-0.55880 Y19.25320
X-0.55880 Y19.27860
X-0.55880 Y19.30400
X-0.55880 Y19.32940
X-0.55880 Y19.35480
X-0.55880 Y19.38020
X-0.55880 Y19.40560
X-0.55880 Y19.43100
X-0.55880 Y19.45640
X-0.55880 Y19.48180
X-0.55880 Y19.50720
X-0.55880 Y19.53260
X-0.55880 Y19.55800
X-0.55880 Y19.58340
X-0.55880 Y19.60880
X-0.55880 Y19.63420
X-0.55880 Y19.65960
X-0.55880 Y19.68500
X-0.55880 Y19.71040
X-0.55880 Y19.73580
X-0.55880 Y19.76120
X-0.55880 Y19.78660
X-0.55880 Y19.81200
X-0.55880 Y19.83740
X-0.55880 Y19.86280
X-0.55880 Y19.88820
X-0.55880 Y19.91360
X-0.55880 Y19.93900
X-0.55880 Y19.96440
X-0.55880 Y19.98980
X-0.55880 Y20.01520
X-0.55880 Y20.04060
X-0.55880 Y20.06600
X-0.55880 Y20.09140
X-0.55880 Y20.11680
X-0.55880 Y20.14220
X-0.55880 Y20.16760
X-0.55880 Y20.19300
X-0.55880 Y20.21840
X-0.55880 Y20.24380
X-0.55880 Y20.26920
X-0.55880 Y20.29460
X-0.55880 Y20.32000
X-0.55880 Y20.34540
X-0.55880 Y20.37080
X-0.55880 Y20.39620
X-0.55880 Y20.42160
X-0.55880 Y20.44700
X-0.55880 Y20.47240
X-0.55880 Y20.49780
X-0.55880 Y20.52320
X-0.55880 Y20.54860
X-0.55880 Y20.57400
X-0.55880 Y20.59940
X-0.55880 Y20.62480
X-0.55880 Y20.65020
X-0.55880 Y20.67560
X-0.55880 Y20.70100
X-0.55880 Y20.72640
X-0.55880 Y20.75180
X-0.55880 Y20.77720
X-0.55880 Y20.80260
X-0.55880 Y20.82800
X-0.55880 Y20.85340
X-0.55880 Y20.87880
X-0.55880 Y20.90420
X-0.55880 Y20.92960
X-0.55880 Y20.95500
X-0.55880 Y20.98040
X-0.55880 Y21.00580
X-0.55880 Y21.03120
X-0.55880 Y21.05660
X-0.55880 Y21.08200
X-0.55880 Y21.10740
X-0.55880 Y21.13280
X-0.55880 Y21.15820
X-0.55880 Y21.18360
X-0.55880 Y21.20900
X-0.55880 Y21.23440
X-0.55880 Y21.25980
X-0.55880 Y21.28520
X-0.55880 Y21.31060
X-0.55880 Y21.33600
X-0.55880 Y21.36140
X-0.55880 Y21.38680
X-0.55880 Y21.41220
X-0.55880 Y21.43760
X-0.55880 Y21.46300
X-0.55880 Y21.48840
X-0.55880 Y21.51380
X-0.55880 Y21.53920
X-0.55880 Y21.56460
X-0.55880 Y21.59000
X-0.55880 Y21.61540
X-0.55880 Y21.64080
X-0.55880 Y21.66620
X-0.55880 Y21.69160
X-0.55880 Y21.71700
X-0.55880 Y21.74240
X-0.55880 Y21.76780
X-0.55880 Y21.79320
X-0.55880 Y21.81860
X-0.55880 Y21.84400
X-0.55880 Y21.86940
X-0.55880 Y21.89480
X-0.55880 Y21.92020
X-0.55880 Y21.94560
X-0.55880 Y21.97100
X-0.55880 Y21.99640
X-0.55880 Y22.02180
X-0.55880 Y22.04720
X-0.55880 Y22.07260
X-0.55880 Y22.09800
X-0.55880 Y22.12340
X-0.55880 Y22.14880
X-0.55880 Y22.17420
X-0.55880 Y22.19960
X-0.55880 Y22.22500
X-0.55880 Y22.25040
X-0.55880 Y22.27580
X-0.55880 Y22.30120
X-0.55880 Y22.32660
X-0.55880 Y22.35200
X-0.55880 Y22.37740
X-0.55880 Y22.40280
X-0.55880 Y22.42820
X-0.55880 Y22.45360
X-0.55880 Y22.47900
X-0.55880 Y22.50440
X-0.55880 Y22.52980
X-0.55880 Y22.55520
X-0.55880 Y22.58060
X-0.55880 Y22.60600
X-0.55880 Y22.63140
X-0.55880 Y22.65680
X-0.55880 Y22.68220
X-0.55880 Y22.70760
X-0.55880 Y22.73300
X-0.55880 Y22.75840
X-0.55880 Y22.78380
X-0.55880 Y22.80920
X-0.55880 Y22.83460
X-0.55880 Y22.86000
X-0.55880 Y22.88540
X-0.55880 Y22.91080
X-0.55880 Y22.93620
X-0.55880 Y22.96160
X-0.55880 Y22.98700
X-0.55880 Y23.01240
X-0.55880 Y23.03780
X-0.55880 Y23.06320
X-0.55880 Y23.08860
X-0.55880 Y23.11400
X-0.55880 Y23.13940
X-0.55880 Y23.16480
X-0.55880 Y23.19020
X-0.55880 Y23.21560
X-0.55880 Y23.24100
X-0.55880 Y23.26640
X-0.55880 Y23.29180
X-0.55880 Y23.31720
X-0.55880 Y23.34260
X-0.55880 Y23.36800
X-0.55880 Y23.39340
X-0.55880 Y23.41880
X-0.55880 Y23.44420
X-0.55880 Y23.46960
X-0.55880 Y23.49500
X-0.55880 Y23.52040
X-0.55880 Y23.54580
X-0.55880 Y23.57120
X-0.55880 Y23.59660
X-0.55880 Y23.62200
X-0.55880 Y23.64740
X-0.55880 Y23.67280
X-0.55880 Y23.69820
X-0.55880 Y23.72360
X-0.55880 Y23.74900
X-0.55880 Y23.77440
X-0.55880 Y23.79980
X-0.55880 Y23.82520
X-0.55880 Y23.85060
X-0.55880 Y23.87600
X-0.55880 Y23.90140
X-0.55880 Y23.92680
X-0.55880 Y23.95220
X-0.55880 Y23.97760
X-0.55880 Y24.00300
X-0.55880 Y24.02840
X-0.55880 Y24.05380
X-0.55880 Y24.07920
X-0.55880 Y24.10460
X-0.55880 Y24.13000
X-0.55880 Y24.15540
X-0.55880 Y24.18080
X-0.55880 Y24.20620
X-0.55880 Y24.23160
X-0.55880 Y24.25700
X-0.55880 Y24.28240
X-0.55880 Y24.30780
X-0.55880 Y24.33320
X-0.55880 Y24.35860
X-0.55880 Y24.38400
X-0.55880 Y24.40940
X-0.55880 Y24.43480
X-0.55880 Y24.46020
X-0.55880 Y24.48560
X-0.55880 Y24.51100
X-0.55880 Y24.53640
X-0.55880 Y24.56180
X-0.55880 Y24.58720
X-0.55880 Y24.61260
X-0.55880 Y24.63800
X-0.55880 Y24.66340
X-0.55880 Y24.68880
X-0.55880 Y24.71420
X-0.55880 Y24.73960
X-0.55880 Y24.76500
X-0.55880 Y24.79040
X-0.55880 Y24.81580
X-0.55880 Y24.84120
X-0.55880 Y24.86660
X-0.55880 Y24.89200
X-0.55880 Y24.91740
X-0.55880 Y24.94280
X-0.55880 Y24.96820
X-0.55880 Y24.99360
X-0.55880 Y25.01900
X-0.55880 Y25.04440
X-0.55880 Y25.06980
X-0.55880 Y25.09520
X-0.55880 Y25.12060
X-0.55880 Y25.14600
X-0.55880 Y25.17140
X-0.55880 Y25.19680
X-0.55880 Y25.22220
X-0.55880 Y25.24760
X-0.55880 Y25.27300
X-0.55880 Y25.29840
X-0.55880 Y25.32380
X-0.55880 Y25.34920
X-0.55880 Y25.37460
X-0.55880 Y25.40000
X-0.55880 Y25.42540
X-0.55880 Y25.45080
X-0.55880 Y25.47620
X-0.55880 Y25.50160
X-0.55880 Y25.52700
X-0.55880 Y25.55240
X-0.55880 Y25.57780
X-0.55880 Y25.60320
X-0.55880 Y25.62860
X-0.55880 Y25.65400
X-0.55880 Y25.67940
X-0.55880 Y25.70480
X-0.55880 Y25.73020
X-0.55880 Y25.75560
X-0.55880 Y25.78100
X-0.55880 Y25.80640
X-0.55880 Y25.83180
X-0.55880 Y25.85720
X-0.55880 Y25.88260
X-0.55880 Y25.90800
X-0.55880 Y25.93340
X-0.55880 Y25.95880
X-0.55880 Y25.98420
X-0.55880 Y26.00960
X-0.55880 Y26.03500
X-0.55880 Y26.06040
X-0.55880 Y26.08580
X-0.55880 Y26.11120
X-0.55880 Y26.13660
X-0.55880 Y26.16200
X-0.55880 Y26.18740
X-0.55880 Y26.21280
X-0.55880 Y26.23820
X-0.55880 Y26.26360
X-0.55880 Y26.28900
X-0.55880 Y26.31440
X-0.55880 Y26.33980
X-0.55880 Y26.36520
X-0.55880 Y26.39060
X-0.55880 Y26.41600
X-0.55880 Y26.44140
X-0.55880 Y26.46680
X-0.55880 Y26.49220
X-0.55880 Y26.51760
X-0.55880 Y26.54300
X-0.55880 Y26.56840
X-0.55880 Y26.59380
X-0.55880 Y26.61920
X-0.55880 Y26.64460
X-0.55880 Y26.67000
X-0.55880 Y26.69540
X-0.55880 Y26.72080
X-0.55880 Y26.74620
X-0.55880 Y26.77160
X-0.55880 Y26.79700
X-0.55880 Y26.82240
X-0.55880 Y26.84780
X-0.55880 Y26.87320
X-0.55880 Y26.89860
X-0.55880 Y26.92400
X-0.55880 Y26.94940
X-0.55880 Y26.97480
X-0.55880 Y27.00020
X-0.55880 Y27.02560
X-0.55880 Y27.05100
X-0.55880 Y27.07640
X-0.55880 Y27.10180
X-0.55880 Y27.12720
X-0.55880 Y27.15260
X-0.55880 Y27.17800
X-0.55880 Y27.20340
X-0.55880 Y27.22880
X-0.55880 Y27.25420
X-0.55880 Y27.27960
X-0.55880 Y27.30500
X-0.55880 Y27.33040
X-0.55880 Y27.35580
X-0.55880 Y27.38120
X-0.55880 Y27.40660
X-0.55880 Y27.43200
X-0.55880 Y27.45740
X-0.55880 Y27.48280
X-0.55880 Y27.50820
X-0.55880 Y27.53360
X-0.55880 Y27.55900
X-0.55880 Y27.58440
X-0.55880 Y27.60980
X-0.55880 Y27.63520
X-0.55880 Y27.66060
X-0.55880 Y27.68600
X-0.55880 Y27.71140
X-0.55880 Y27.73680
X-0.55880 Y27.76220
X-0.55880 Y27.78760
X-0.55880 Y27.81300
X-0.55880 Y27.83840
X-0.55880 Y27.86380
X-0.55880 Y27.88920
X-0.55880 Y27.91460
X-0.55880 Y27.94000
X-0.55880 Y27.96540
X-0.55880 Y27.99080
X-0.55880 Y28.01620
X-0.55880 Y28.04160
X-0.55880 Y28.06700
X-0.55880 Y28.09240
X-0.55880 Y28.11780
X-0.55880 Y28.14320
X-0.55880 Y28.16860
X-0.55880 Y28.19400
X-0.55880 Y28.21940
X-0.55880 Y28.24480
X-0.55880 Y28.27020
X-0.55880 Y28.29560
X-0.55880 Y28.32100
X-0.55880 Y28.34640
X-0.55880 Y28.37180
X-0.55880 Y28.39720
X-0.55880 Y28.42260
X-0.55880 Y28.44800
X-0.55880 Y28.47340
X-0.55880 Y28.49880
X-0.55880 Y28.52420
X-0.55880 Y28.54960
X-0.55880 Y28.57500
X-0.55880 Y28.60040
X-0.55880 Y28.62580
X-0.55880 Y28.65120
X-0.55880 Y28.67660
X-0.55880 Y28.70200
X-0.55880 Y28.72740
X-0.55880 Y28.75280
X-0.55880 Y28.77820
X-0.55880 Y28.80360
X-0.55880 Y28.82900
X-0.55880 Y28.85440
X-0.55880 Y28.87980
X-0.55880 Y28.90520
X-0.55880 Y28.93060
X-0.55880 Y28.95600
X-0.55880 Y28.98140
X-0.55880 Y29.00680
X-0.55880 Y29.03220
X-0.55880 Y29.05760
X-0.55880 Y29.08300
X-0.55880 Y29.10840
X-0.55880 Y29.13380
X-0.55880 Y29.15920
X-0.55880 Y29.18460
X-0.55880 Y29.21000
X-0.55880 Y29.23540
X-0.55880 Y29.26080
X-0.55880 Y29.28620
X-0.55880 Y29.31160
X-0.55880 Y29.33700
X-0.55880 Y29.36240
X-0.55880 Y29.38780
X-0.55880 Y29.41320
X-0.55880 Y29.43860
X-0.55880 Y29.46400
X-0.55880 Y29.48940
X-0.55880 Y29.51480
X-0.55880 Y29.54020
X-0.55880 Y29.56560
X-0.55880 Y29.59100
X-0.55880 Y29.61640
X-0.55880 Y29.64180
X-0.55880 Y29.66720
X-0.55880 Y29.69260
X-0.55880 Y29.71800
X-0.55880 Y29.74340
X-0.55880 Y29.76880
X-0.55880 Y29.79420
X-0.55880 Y29.81960
X-0.55880 Y29.84500
X-0.55880 Y29.87040
X-0.55880 Y29.89580
X-0.55880 Y29.92120
X-0.55880 Y29.94660
X-0.55880 Y29.97200
X-0.55880 Y29.99740
X-0.55880 Y30.02280
X-0.55880 Y30.04820
X-0.55880 Y30.07360
X-0.55880 Y30.09900
X-0.55880 Y30.12440
X-0.55880 Y30.14980
X-0.55880 Y30.17520
X-0.55880 Y30.20060
X-0.55880 Y30.22600
X-0.55880 Y30.25140
X-0.55880 Y30.27680
X-0.55880 Y30.30220
X-0.55880 Y30.32760
X-0.55880 Y30.35300
X-0.55880 Y30.37840
X-0.55880 Y30.40380
X-0.55880 Y30.42920
X-0.55880 Y30.45460
X-0.55880 Y30.48000
X-0.55880 Y30.50540
X-0.55880 Y30.53080
X-0.55880 Y30.55620
X-0.55880 Y30.58160
X-0.55880 Y30.60700
X-0.55880 Y30.63240
X-0.55880 Y30.65780
X-0.55880 Y30.68320
X-0.55880 Y30.70860
X-0.55880 Y30.73400
X-0.55880 Y30.75940
X-0.55880 Y30.78480
X-0.55880 Y30.81020
X-0.55880 Y30.83560
X-0.55880 Y30.86100
X-0.55880 Y30.88640
X-0.55880 Y30.91180
X-0.55880 Y30.93720
X-0.55880 Y30.96260
X-0.55880 Y30.98800
X-0.55880 Y31.01340
X-0.55880 Y31.03880
X-0.55880 Y31.06420
X-0.55880 Y31.08960
X-0.55880 Y31.11500
X-0.55880 Y31.14040
X-0.55880 Y31.16580
X-0.55880 Y31.19120
X-0.55880 Y31.21660
X-0.55880 Y31.24200
X-0.55880 Y31.26740
X-0.55880 Y31.29280
X-0.55880 Y31.31820
X-0.55880 Y31.34360
X-0.55880 Y31.36900
X-0.55880 Y31.39440
X-0.55880 Y31.41980
X-0.55880 Y31.44520
X-0.55880 Y31.47060
X-0.55880 Y31.49600
X-0.55880 Y31.52140
X-0.55880 Y31.54680
X-0.55880 Y31.57220
X-0.55880 Y31.59760
X-0.55880 Y31.62300
X-0.55880 Y31.64840
X-0.55880 Y31.67380
X-0.55880 Y31.69920
X-0.55880 Y31.72460
X-0.55880 Y31.75000
X-0.55880 Y31.77540
X-0.55880 Y31.80080
X-0.55880 Y31.82620
X-0.55880 Y31.85160
X-0.55880 Y31.87700
X-0.55880 Y31.90240
X-0.55880 Y31.92780
X-0.55880 Y31.95320
X-0.55880 Y31.97860
X-0.55880 Y32.00400
X-0.55880 Y32.02940
X-0.55880 Y32.05480
X-0.55880 Y32.08020
X-0.55880 Y32.10560
X-0.55880 Y32.13100
X-0.55880 Y32.15640
X-0.55880 Y32.18180
X-0.55880 Y32.20720
X-0.55880 Y32.23260
X-0.55880 Y32.25800
X-0.55880 Y32.28340
X-0.55880 Y32.30880
X-0.55880 Y32.33420
X-0.55880 Y32.35960
X-0.55880 Y32.38500
X-0.55880 Y32.41040
X-0.55880 Y32.43580
X-0.55880 Y32.46120
X-0.55880 Y32.48660
X-0.55880 Y32.51200
X-0.55880 Y32.53740
X-0.55880 Y32.56280
X-0.55880 Y32.58820
X-0.55880 Y32.61360
X-0.55880 Y32.63900
X-0.55880 Y32.66440
X-0.55880 Y32.68980
X-0.55880 Y32.71520
X-0.55880 Y32.74060
X-0.55880 Y32.76600
X-0.55880 Y32.79140
X-0.55880 Y32.81680
X-0.55880 Y32.84220
X-0.55880 Y32.86760
X-0.55880 Y32.89300
X-0.55880 Y32.91840
X-0.55880 Y32.94380
X-0.55880 Y32.96920
X-0.55880 Y32.99460
X-0.55880 Y33.02000
X-0.55880 Y33.04540
X-0.55880 Y33.07080
X-0.55880 Y33.09620
X-0.55880 Y33.12160
X-0.55880 Y33.14700
X-0.55880 Y33.17240
X-0.55880 Y33.19780
X-0.55880 Y33.22320
X-0.55880 Y33.24860
X-0.55880 Y33.27400
X-0.55880 Y33.29940
X-0.55880 Y33.32480
X-0.55880 Y33.35020
X-0.55880 Y33.37560
X-0.55880 Y33.40100
X-0.55880 Y33.42640
X-0.55880 Y33.45180
X-0.55880 Y33.47720
X-0.55880 Y33.50260
X-0.55880 Y33.52800
X-0.55880 Y33.55340
X-0.55880 Y33.57880
X-0.55880 Y33.60420
X-0.55880 Y33.62960
X-0.55880 Y33.65500
X-0.55880 Y33.68040
X-0.55880 Y33.70580
X-0.55880 Y33.73120
X-0.55880 Y33.75660
X-0.55880 Y33.78200
X-0.55880 Y33.80740
X-0.55880 Y33.83280
X-0.55880 Y33.85820
X-0.55880 Y33.88360
X-0.55880 Y33.90900
X-0.55880 Y33.93440
X-0.55880 Y33.95980
X-0.55880 Y33.98520
X-0.55880 Y34.01060
X-0.55880 Y34.03600
X-0.55880 Y34.06140
X-0.55880 Y34.08680
X-0.55880 Y34.11220
X-0.55880 Y34.13760
X-0.55880 Y34.16300
X-0.55880 Y34.18840
X-0.55880 Y34.21380
X-0.55880 Y34.23920
X-0.55880 Y34.26460
X-0.55880 Y34.29000
X-0.55880 Y34.31540
X-0.55880 Y34.34080
X-0.55880 Y34.36620
X-0.55880 Y34.39160
X-0.55880 Y34.41700
X-0.55880 Y34.44240
X-0.55880 Y34.46780
X-0.55880 Y34.49320
X-0.55880 Y34.51860
X-0.55880 Y34.54400
X-0.55880 Y34.56940
X-0.55880 Y34.59480
X-0.55880 Y34.62020
X-0.55880 Y34.64560
X-0.55880 Y34.67100
X-0.55880 Y34.69640
X-0.55880 Y34.72180
X-0.55880 Y34.74720
X-0.55880 Y34.77260
X-0.55880 Y34.79800
X-0.55880 Y34.82340
X-0.55880 Y34.84880
X-0.55880 Y34.87420
X-0.55880 Y34.89960
X-0.55880 Y34.92500
X-0.55880 Y34.95040
X-0.55880 Y34.97580
X-0.55880 Y35.00120
X-0.55880 Y35.02660
X-0.55880 Y35.05200
X-0.55880 Y35.07740
X-0.55880 Y35.10280
X-0.55880 Y35.12820
X-0.55880 Y35.15360
X-0.55880 Y35.17900
X-0.55880 Y35.20440
X-0.55880 Y35.22980
X-0.55880 Y35.25520
X-0.55880 Y35.28060
X-0.55880 Y35.30600
X-0.55880 Y35.33140
X-0.55880 Y35.35680
X-0.55880 Y35.38220
X-0.55880 Y35.40760
X-0.55880 Y35.43300
X-0.55880 Y35.45840
X-0.55880 Y35.48380
X-0.55880 Y35.50920
X-0.55880 Y35.53460
X-0.55880 Y35.56000
X-0.55880 Y35.58540
X-0.55880 Y35.61080
X-0.55880 Y35.63620
X-0.55880 Y35.66160
X-0.55880 Y35.68700
X-0.55880 Y35.71240
X-0.55880 Y35.73780
X-0.55880 Y35.76320
X-0.55880 Y35.78860
X-0.55880 Y35.81400
X-0.55880 Y35.83940
X-0.55880 Y35.86480
X-0.55880 Y35.89020
X-0.55880 Y35.91560
X-0.55880 Y35.94100
X-0.55880 Y35.96640
X-0.55880 Y35.99180
X-0.55880 Y36.01720
X-0.55880 Y36.04260
X-0.55880 Y36.06800
X-0.55880 Y36.09340
X-0.55880 Y36.11880
X-0.55880 Y36.14420
X-0.55880 Y36.16960
X-0.55880 Y36.19500
X-0.55880 Y36.22040
X-0.55880 Y36.24580
X-0.55880 Y36.27120
X-0.55880 Y36.29660
X-0.55880 Y36.32200
X-0.55880 Y36.34740
X-0.55880 Y36.37280
X-0.55880 Y36.39820
X-0.55880 Y36.42360
X-0.55880 Y36.44900
X-0.55880 Y36.47440
X-0.55880 Y36.49980
X-0.55880 Y36.52520
X-0.55880 Y36.55060
X-0.55880 Y36.57600
X-0.55880 Y36.60140
X-0.55880 Y36.62680
X-0.55880 Y36.65220
X-0.55880 Y36.67760
X-0.55880 Y36.70300
X-0.55880 Y36.72840
X-0.55880 Y36.75380
X-0.55880 Y36.77920
X-0.55880 Y36.80460
X-0.55880 Y36.83000
X-0.55880 Y36.85540
X-0.55880 Y36.88080
X-0.55880 Y36.90620
X-0.55880 Y36.93160
X-0.55880 Y36.95700
X-0.55880 Y36.98240
X-0.55880 Y37.00780
X-0.55880 Y37.03320
X-0.55880 Y37.05860
X-0.55880 Y37.08400
X-0.55880 Y37.10940
X-0.55880 Y37.13480
X-0.55880 Y37.16020
X-0.55880 Y37.18560
X-0.55880 Y37.21100
X-0.55880 Y37.23640
X-0.55880 Y37.26180
X-0.55880 Y37.28720
X-0.55880 Y37.31260
X-0.55880 Y37.33800
X-0.55880 Y37.36340
X-0.55880 Y37.38880
X-0.55880 Y37.41420
X-0.55880 Y37.43960
X-0.55880 Y37.46500
X-0.55880 Y37.49040
X-0.55880 Y37.51580
X-0.55880 Y37.54120
X-0.55880 Y37.56660
X-0.55880 Y37.56660
X-0.53340 Y37.56660
X-0.50800 Y37.56660
X-0.48260 Y37.56660
X-0.45720 Y37.56660
X-0.43180 Y37.56660
X-0.40640 Y37.56660
X-0.38100 Y37.56660
X-0.35560 Y37.56660
X-0.33020 Y37.56660
X-0.30480 Y37.56660
X-0.27940 Y37.56660
X-0.25400 Y37.56660
X-0.22860 Y37.56660
X-0.20320 Y37.56660
X-0.17780 Y37.56660
X-0.15240 Y37.56660
X-0.12700 Y37.56660
X-0.10160 Y37.56660
X-0.07620 Y37.56660
X-0.05080 Y37.56660
X-0.02540 Y37.56660
X0.00000 Y37.56660
X0.02540 Y37.56660
X0.05080 Y37.56660
X0.07620 Y37.56660
X0.10160 Y37.56660
X0.12700 Y37.56660
X0.15240 Y37.56660
X0.17780 Y37.56660
X0.20320 Y37.56660
X0.22860 Y37.56660
X0.25400 Y37.56660
X0.27940 Y37.56660
X0.30480 Y37.56660
X0.33020 Y37.56660
X0.35560 Y37.56660
X0.38100 Y37.56660
X0.40640 Y37.56660
X0.43180 Y37.56660
X0.45720 Y37.56660
X0.48260 Y37.56660
X0.50800 Y37.56660
X0.53340 Y37.56660
X0.55880 Y37.56660
X0.58420 Y37.56660
X0.60960 Y37.56660
X0.63500 Y37.56660
X0.66040 Y37.56660
X0.68580 Y37.56660
X0.71120 Y37.56660
X0.73660 Y37.56660
X0.76200 Y37.56660
X0.78740 Y37.56660
X0.81280 Y37.56660
X0.83820 Y37.56660
X0.86360 Y37.56660
X0.88900 Y37.56660
X0.91440 Y37.56660
X0.93980 Y37.56660
X0.96520 Y37.56660
X0.99060 Y37.56660
X1.01600 Y37.56660
X1.04140 Y37.56660
X1.06680 Y37.56660
X1.09220 Y37.56660
X1.11760 Y37.56660
X1.14300 Y37.56660
X1.16840 Y37.56660
X1.19380 Y37.56660
X1.21920 Y37.56660
X1.24460 Y37.56660
X1.27000 Y37.56660
X1.29540 Y37.56660
X1.32080 Y37.56660
X1.34620 Y37.56660
X1.37160 Y37.56660
X1.39700 Y37.56660
X1.42240 Y37.56660
X1.44780 Y37.56660
X1.47320 Y37.56660
X1.49860 Y37.56660
X1.52400 Y37.56660
X1.54940 Y37.56660
X1.57480 Y37.56660
X1.60020 Y37.56660
X1.62560 Y37.56660
X1.65100 Y37.56660
X1.67640 Y37.56660
X1.70180 Y37.56660
X1.72720 Y37.56660
X1.75260 Y37.56660
X1.77800 Y37.56660
X1.80340 Y37.56660
X1.82880 Y37.56660
X1.85420 Y37.56660
X1.87960 Y37.56660
X1.90500 Y37.56660
X1.93040 Y37.56660
X1.95580 Y37.56660
X1.98120 Y37.56660
X2.00660 Y37.56660
X2.03200 Y37.56660
X2.05740 Y37.56660
X2.08280 Y37.56660
X2.10820 Y37.56660
X2.13360 Y37.56660
X2.15900 Y37.56660
X2.18440 Y37.56660
X2.20980 Y37.56660
X2.23520 Y37.56660
X2.26060 Y37.56660
X2.28600 Y37.56660
X2.31140 Y37.56660
X2.33680 Y37.56660
X2.36220 Y37.56660
X2.38760 Y37.56660
X2.41300 Y37.56660
X2.43840 Y37.56660
X2.46380 Y37.56660
X2.48920 Y37.56660
X2.51460 Y37.56660
X2.54000 Y37.56660
X2.56540 Y37.56660
X2.59080 Y37.56660
X2.61620 Y37.56660
X2.64160 Y37.56660
X2.66700 Y37.56660
X2.69240 Y37.56660
X2.71780 Y37.56660
X2.74320 Y37.56660
X2.76860 Y37.56660
X2.79400 Y37.56660
X2.81940 Y37.56660
X2.84480 Y37.56660
X2.87020 Y37.56660
X2.89560 Y37.56660
X2.92100 Y37.56660
X2.94640 Y37.56660
X2.97180 Y37.56660
X2.99720 Y37.56660
X3.02260 Y37.56660
X3.04800 Y37.56660
X3.07340 Y37.56660
X3.09880 Y37.56660
X3.12420 Y37.56660
X3.14960 Y37.56660
X3.17500 Y37.56660
X3.20040 Y37.56660
X3.22580 Y37.56660
X3.25120 Y37.56660
X3.27660 Y37.56660
X3.30200 Y37.56660
X3.32740 Y37.56660
X3.35280 Y37.56660
X3.37820 Y37.56660
X3.40360 Y37.56660
X3.42900 Y37.56660
X3.45440 Y37.56660
X3.47980 Y37.56660
X3.50520 Y37.56660
X3.53060 Y37.56660
X3.55600 Y37.56660
X3.58140 Y37.56660
X3.60680 Y37.56660
X3.63220 Y37.56660
X3.65760 Y37.56660
X3.68300 Y37.56660
X3.70840 Y37.56660
X3.73380 Y37.56660
X3.75920 Y37.56660
X3.78460 Y37.56660
X3.81000 Y37.56660
X3.83540 Y37.56660
X3.86080 Y37.56660
X3.88620 Y37.56660
X3.91160 Y37.56660
X3.93700 Y37.56660
X3.96240 Y37.56660
X3.98780 Y37.56660
X4.01320 Y37.56660
X4.03860 Y37.56660
X4.06400 Y37.56660
X4.08940 Y37.56660
X4.11480 Y37.56660
X4.14020 Y37.56660
X4.16560 Y37.56660
X4.19100 Y37.56660
X4.21640 Y37.56660
X4.24180 Y37.56660
X4.26720 Y37.56660
X4.29260 Y37.56660
X4.31800 Y37.56660
X4.34340 Y37.56660
X4.36880 Y37.56660
X4.39420 Y37.56660
X4.41960 Y37.56660
X4.44500 Y37.56660
X4.47040 Y37.56660
X4.49580 Y37.56660
X4.52120 Y37.56660
X4.54660 Y37.56660
X4.57200 Y37.56660
X4.59740 Y37.56660
X4.62280 Y37.56660
X4.64820 Y37.56660
X4.67360 Y37.56660
X4.69900 Y37.56660
X4.72440 Y37.56660
X4.74980 Y37.56660
X4.77520 Y37.56660
X4.80060 Y37.56660
X4.82600 Y37.56660
X4.85140 Y37.56660
X4.87680 Y37.56660
X4.90220 Y37.56660
X4.92760 Y37.56660
X4.95300 Y37.56660
X4.97840 Y37.56660
X5.00380 Y37.56660
X5.02920 Y37.56660
X5.05460 Y37.56660
X5.08000 Y37.56660
X5.10540 Y37.56660
X5.13080 Y37.56660
X5.15620 Y37.56660
X5.18160 Y37.56660
X5.20700 Y37.56660
X5.23240 Y37.56660
X5.25780 Y37.56660
X5.28320 Y37.56660
X5.30860 Y37.56660
X5.33400 Y37.56660
X5.35940 Y37.56660
X5.38480 Y37.56660
X5.41020 Y37.56660
X5.43560 Y37.56660
X5.46100 Y37.56660
X5.48640 Y37.56660
X5.51180 Y37.56660
X5.53720 Y37.56660
X5.56260 Y37.56660
X5.58800 Y37.56660
X5.61340 Y37.56660
X5.63880 Y37.56660
X5.66420 Y37.56660
X5.68960 Y37.56660
X5.71500 Y37.56660
X5.74040 Y37.56660
X5.76580 Y37.56660
